(.../pcb-gcode-3.6.2.4/pcb-gcode.ulp)
(Copyright 2005 - 2012 by John Johnson)
(See readme.txt for licensing terms.)
(This file generated from the board:)
(.../eagle/ghf_sensor/ghf_sensor.brd)
(Current profile is .../pcb-gcode-3.6.2.4/profiles/generic.pp  )
(This file generated 2018/03/30 1:53)
(Settings from pcb-machine.h)
(spindle on time = 3.0000)
(  Tool Size)
(0.1778 )
(spindle speed = 30000.0000)
(tool change at 0.0000 0.0000 25.4000 )
(feed rate xy = F508.00 )
(feed rate z  = F254.00 )
(Z Axis Settings)
(  High     Up        Down     Drill)
(12.7000 	2.5400 	-0.1200 	-0.8128 )
(Settings from pcb-defaults.h)
(isolate min = 0.0254)
(isolate max = 0.5080)
(isolate step = 0.1270)
(Generated bottom outlines, bottom drill, )
(Unit of measure: mm)
(Metric Mode)
G21
(Absolute Coordinates)
G90
S30000
G00 Z12.7000 
G00 X0.0000 Y0.0000 
M03
G04 P3.000000
G00 Z2.5400 
G00 X-5.7231 Y3.2853 
G01 Z-0.1200 F254.00 
G01 X-5.7553 Y3.2531 F508.00 
G01 X-5.7973 Y3.2357 
G01 X-9.4427 Y3.2357 
G01 X-9.4847 Y3.2531 
G01 X-9.5169 Y3.2853 
G01 X-9.5343 Y3.3273 
G01 X-9.5343 Y4.8727 
G01 X-9.5169 Y4.9147 
G01 X-9.4847 Y4.9469 
G01 X-9.4427 Y4.9643 
G01 X-9.1155 Y4.9643 
G01 X-11.5299 Y7.3787 
G01 X-12.6000 Y7.3787 
G01 X-13.7287 Y6.2500 
G01 X-13.7287 Y4.9643 
G01 X-13.4173 Y4.9643 
G01 X-13.3753 Y4.9469 
G01 X-13.3431 Y4.9147 
G01 X-13.3257 Y4.8727 
G01 X-13.3257 Y3.3273 
G01 X-13.3431 Y3.2853 
G01 X-13.3753 Y3.2531 
G01 X-13.4173 Y3.2357 
G01 X-17.0627 Y3.2357 
G01 X-17.1047 Y3.2531 
G01 X-17.1369 Y3.2853 
G01 X-17.1543 Y3.3273 
G01 X-17.1543 Y3.5687 
G01 X-20.8157 Y3.5687 
G01 X-20.8157 Y1.4873 
G01 X-20.8331 Y1.4453 
G01 X-20.8653 Y1.4131 
G01 X-20.9073 Y1.3957 
G01 X-22.4527 Y1.3957 
G01 X-22.4947 Y1.4131 
G01 X-22.5269 Y1.4453 
G01 X-22.5443 Y1.4873 
G01 X-22.5443 Y6.1327 
G01 X-22.5269 Y6.1747 
G01 X-22.4947 Y6.2069 
G01 X-22.4527 Y6.2243 
G01 X-20.9073 Y6.2243 
G01 X-20.8653 Y6.2069 
G01 X-20.8331 Y6.1747 
G01 X-20.8157 Y6.1327 
G01 X-20.8157 Y4.0513 
G01 X-17.1543 Y4.0513 
G01 X-17.1543 Y4.8727 
G01 X-17.1369 Y4.9147 
G01 X-17.1047 Y4.9469 
G01 X-17.0627 Y4.9643 
G01 X-14.2113 Y4.9643 
G01 X-14.2113 Y6.3980 
G01 X-14.1746 Y6.4867 
G01 X-14.1067 Y6.5546 
G01 X-12.9046 Y7.7567 
G01 X-12.8367 Y7.8246 
G01 X-10.3646 Y10.2967 
G01 X-10.2967 Y10.3646 
G01 X-10.2080 Y10.4013 
G01 X-7.8613 Y10.4013 
G01 X-7.8613 Y16.3810 
G01 X-7.9870 Y16.4331 
G01 X-8.1138 Y16.5178 
G01 X-8.2217 Y16.6258 
G01 X-8.3065 Y16.7526 
G01 X-8.3649 Y16.8936 
G01 X-8.3947 Y17.0433 
G01 X-8.3947 Y18.5167 
G01 X-8.3649 Y18.6664 
G01 X-8.3065 Y18.8074 
G01 X-8.2217 Y18.9342 
G01 X-8.1138 Y19.0421 
G01 X-7.9870 Y19.1269 
G01 X-7.8460 Y19.1853 
G01 X-7.6963 Y19.2151 
G01 X-7.5437 Y19.2151 
G01 X-7.3940 Y19.1853 
G01 X-7.2530 Y19.1269 
G01 X-7.1262 Y19.0421 
G01 X-7.0183 Y18.9342 
G01 X-6.9335 Y18.8074 
G01 X-6.8751 Y18.6664 
G01 X-6.8453 Y18.5167 
G01 X-6.8453 Y17.0433 
G01 X-6.8751 Y16.8936 
G01 X-6.9335 Y16.7526 
G01 X-7.0183 Y16.6258 
G01 X-7.1262 Y16.5178 
G01 X-7.2530 Y16.4331 
G01 X-7.3787 Y16.3810 
G01 X-7.3787 Y10.1120 
G01 X-7.4154 Y10.0233 
G01 X-7.4833 Y9.9554 
G01 X-7.5720 Y9.9187 
G01 X-10.0601 Y9.9187 
G01 X-12.1175 Y7.8613 
G01 X-11.3820 Y7.8613 
G01 X-11.2933 Y7.8246 
G01 X-11.2254 Y7.7567 
G01 X-8.4330 Y4.9643 
G01 X-5.7973 Y4.9643 
G01 X-5.7553 Y4.9469 
G01 X-5.7231 Y4.9147 
G01 X-5.7057 Y4.8727 
G01 X-5.7057 Y3.3273 
G01 X-5.7231 Y3.2853 
G00 Z2.5400 
G00 X-5.7342 Y7.7382 
G01 Z-0.1200 F254.00 
G01 X-5.7082 Y7.7642 F508.00 
G01 X-5.6898 Y7.7961 
G01 X-5.6803 Y7.8316 
G01 X-5.6803 Y8.1107 
G01 X-5.7057 Y8.1107 
G01 X-5.7057 Y7.8273 
G01 X-5.7231 Y7.7853 
G01 X-5.7553 Y7.7531 
G01 X-5.7973 Y7.7357 
G01 X-7.1307 Y7.7357 
G01 X-7.1307 Y7.7103 
G01 X-5.8016 Y7.7103 
G01 X-5.7661 Y7.7198 
G01 X-5.7342 Y7.7382 
G00 Z2.5400 
G00 X-5.7057 Y9.0893 
G01 Z-0.1200 F254.00 
G01 X-5.6803 Y9.0893 F508.00 
G01 X-5.6803 Y9.2185 
G01 X-5.7057 Y9.1930 
G01 X-5.7057 Y9.0893 
G00 Z2.5400 
G00 X-4.8387 Y10.7603 
G01 Z-0.1200 F254.00 
G01 X-4.6016 Y10.7603 F508.00 
G01 X-4.5661 Y10.7698 
G01 X-4.5342 Y10.7882 
G01 X-4.5082 Y10.8142 
G01 X-4.4898 Y10.8461 
G01 X-4.4803 Y10.8816 
G01 X-4.4803 Y12.2107 
G01 X-4.5057 Y12.2107 
G01 X-4.5057 Y10.8773 
G01 X-4.5231 Y10.8353 
G01 X-4.5553 Y10.8031 
G01 X-4.5973 Y10.7857 
G01 X-4.8387 Y10.7857 
G01 X-4.8387 Y10.7603 
G00 Z2.5400 
G00 X-4.5057 Y13.1893 
G01 Z-0.1200 F254.00 
G01 X-4.4803 Y13.1893 F508.00 
G01 X-4.4803 Y14.5184 
G01 X-4.4898 Y14.5539 
G01 X-4.5082 Y14.5858 
G01 X-4.5342 Y14.6118 
G01 X-4.5661 Y14.6302 
G01 X-4.6016 Y14.6397 
G01 X-4.8387 Y14.6397 
G01 X-4.8387 Y14.6143 
G01 X-4.5973 Y14.6143 
G01 X-4.5553 Y14.5969 
G01 X-4.5231 Y14.5647 
G01 X-4.5057 Y14.5227 
G01 X-4.5057 Y13.1893 
G00 Z2.5400 
G00 X-4.5588 Y16.5093 
G01 Z-0.1200 F254.00 
G01 X-4.4697 Y16.5984 F508.00 
G01 X-4.3957 Y16.7002 
G01 X-4.3385 Y16.8125 
G01 X-4.2996 Y16.9322 
G01 X-4.2799 Y17.0566 
G01 X-4.2799 Y17.4625 
G01 X-4.3053 Y17.4625 
G01 X-4.3053 Y17.0433 
G01 X-4.3351 Y16.8936 
G01 X-4.3935 Y16.7526 
G01 X-4.4783 Y16.6258 
G01 X-4.5862 Y16.5178 
G01 X-4.7130 Y16.4331 
G01 X-4.7625 Y16.4126 
G01 X-4.7625 Y16.3834 
G01 X-4.6606 Y16.4353 
G01 X-4.5588 Y16.5093 
G00 Z2.5400 
G00 X-4.3053 Y18.0975 
G01 Z-0.1200 F254.00 
G01 X-4.2799 Y18.0975 F508.00 
G01 X-4.2799 Y18.5034 
G01 X-4.2996 Y18.6278 
G01 X-4.3385 Y18.7475 
G01 X-4.3957 Y18.8597 
G01 X-4.4697 Y18.9616 
G01 X-4.5588 Y19.0507 
G01 X-4.6606 Y19.1247 
G01 X-4.7625 Y19.1766 
G01 X-4.7625 Y19.1474 
G01 X-4.7130 Y19.1269 
G01 X-4.5862 Y19.0421 
G01 X-4.4783 Y18.9342 
G01 X-4.3935 Y18.8074 
G01 X-4.3351 Y18.6664 
G01 X-4.3053 Y18.5167 
G01 X-4.3053 Y18.0975 
G00 Z2.5400 
G00 X-3.7682 Y21.2725 
G01 Z-0.1200 F254.00 
G01 X-10.0285 Y21.2725 F508.00 
G01 X-12.2377 Y19.0633 
G01 X-12.2062 Y19.0421 
G01 X-12.0983 Y18.9342 
G01 X-12.0135 Y18.8074 
G01 X-11.9551 Y18.6664 
G01 X-11.9253 Y18.5167 
G01 X-11.9253 Y17.0433 
G01 X-11.9551 Y16.8936 
G01 X-12.0135 Y16.7526 
G01 X-12.0983 Y16.6258 
G01 X-12.2062 Y16.5178 
G01 X-12.3330 Y16.4331 
G01 X-12.4740 Y16.3747 
G01 X-12.6237 Y16.3449 
G01 X-12.7763 Y16.3449 
G01 X-12.9260 Y16.3747 
G01 X-13.0670 Y16.4331 
G01 X-13.1938 Y16.5178 
G01 X-13.3017 Y16.6258 
G01 X-13.3865 Y16.7526 
G01 X-13.4449 Y16.8936 
G01 X-13.4747 Y17.0433 
G01 X-13.4747 Y17.5387 
G01 X-16.1925 Y17.5387 
G01 X-16.1925 Y16.4682 
G01 X-16.2141 Y16.3874 
G01 X-16.2559 Y16.3150 
G01 X-16.3150 Y16.2559 
G01 X-21.3951 Y11.1759 
G01 X-21.4674 Y11.1341 
G01 X-21.5482 Y11.1125 
G01 X-30.5218 Y11.1125 
G01 X-30.6026 Y11.1341 
G01 X-30.6749 Y11.1759 
G01 X-30.6877 Y11.1887 
G01 X-32.7787 Y11.1887 
G01 X-32.7787 Y5.0320 
G01 X-32.8154 Y4.9433 
G01 X-32.8833 Y4.8754 
G01 X-34.1533 Y3.6054 
G01 X-34.2420 Y3.5687 
G01 X-38.1480 Y3.5687 
G01 X-38.2367 Y3.6054 
G01 X-38.3046 Y3.6733 
G01 X-40.6637 Y6.0325 
G01 X-43.5603 Y6.0325 
G01 X-43.5603 Y5.3552 
G01 X-43.5992 Y5.1601 
G01 X-43.6753 Y4.9764 
G01 X-43.7858 Y4.8110 
G01 X-43.9264 Y4.6704 
G01 X-44.0917 Y4.5599 
G01 X-44.2755 Y4.4838 
G01 X-44.4706 Y4.4450 
G01 X-44.6694 Y4.4450 
G01 X-44.8645 Y4.4838 
G01 X-45.0482 Y4.5599 
G01 X-45.2136 Y4.6704 
G01 X-45.3542 Y4.8110 
G01 X-45.4647 Y4.9764 
G01 X-45.5408 Y5.1601 
G01 X-45.5796 Y5.3552 
G01 X-45.5796 Y7.3448 
G01 X-45.5408 Y7.5399 
G01 X-45.4647 Y7.7236 
G01 X-45.3542 Y7.8890 
G01 X-45.2136 Y8.0296 
G01 X-45.0482 Y8.1401 
G01 X-44.8645 Y8.2162 
G01 X-44.6694 Y8.2550 
G01 X-44.4706 Y8.2550 
G01 X-44.2755 Y8.2162 
G01 X-44.0917 Y8.1401 
G01 X-43.9264 Y8.0296 
G01 X-43.7858 Y7.8890 
G01 X-43.6753 Y7.7236 
G01 X-43.5992 Y7.5399 
G01 X-43.5603 Y7.3448 
G01 X-43.5603 Y6.6675 
G01 X-40.7715 Y6.6675 
G01 X-39.9875 Y7.4515 
G01 X-39.9875 Y8.1459 
G01 X-39.9701 Y8.1879 
G01 X-39.9379 Y8.2201 
G01 X-39.8959 Y8.2375 
G01 X-38.8441 Y8.2375 
G01 X-38.8021 Y8.2201 
G01 X-38.7699 Y8.1879 
G01 X-38.7525 Y8.1459 
G01 X-38.7525 Y7.0941 
G01 X-38.7699 Y7.0521 
G01 X-38.8021 Y7.0199 
G01 X-38.8441 Y7.0025 
G01 X-39.5385 Y7.0025 
G01 X-40.2449 Y6.2961 
G01 X-38.0000 Y4.0513 
G01 X-34.3899 Y4.0513 
G01 X-33.2613 Y5.1799 
G01 X-33.2613 Y11.4780 
G01 X-33.2246 Y11.5667 
G01 X-33.1567 Y11.6346 
G01 X-33.0680 Y11.6713 
G01 X-31.1703 Y11.6713 
G01 X-38.3541 Y18.8550 
G01 X-38.3959 Y18.9274 
G01 X-38.4175 Y19.0082 
G01 X-38.4175 Y22.7626 
G01 X-38.4670 Y22.7831 
G01 X-38.5938 Y22.8679 
G01 X-38.7017 Y22.9758 
G01 X-38.7865 Y23.1026 
G01 X-38.8449 Y23.2436 
G01 X-38.8747 Y23.3933 
G01 X-38.8747 Y23.8125 
G01 X-40.5085 Y23.8125 
G01 X-42.8625 Y21.4585 
G01 X-42.8625 Y16.6415 
G01 X-40.5085 Y14.2875 
G01 X-39.9875 Y14.2875 
G01 X-39.9875 Y14.4959 
G01 X-39.9701 Y14.5379 
G01 X-39.9379 Y14.5701 
G01 X-39.8959 Y14.5875 
G01 X-38.8441 Y14.5875 
G01 X-38.8021 Y14.5701 
G01 X-38.7699 Y14.5379 
G01 X-38.7525 Y14.4959 
G01 X-38.7525 Y13.4441 
G01 X-38.7699 Y13.4021 
G01 X-38.8021 Y13.3699 
G01 X-38.8441 Y13.3525 
G01 X-39.8959 Y13.3525 
G01 X-39.9379 Y13.3699 
G01 X-39.9701 Y13.4021 
G01 X-39.9875 Y13.4441 
G01 X-39.9875 Y13.6525 
G01 X-40.6818 Y13.6525 
G01 X-40.7625 Y13.6741 
G01 X-40.8349 Y13.7159 
G01 X-40.8941 Y13.7751 
G01 X-43.3115 Y16.1925 
G01 X-49.4550 Y16.1925 
G01 X-51.3017 Y15.2692 
G01 X-51.3017 Y15.1643 
G01 X-51.3312 Y15.0159 
G01 X-51.3891 Y14.8761 
G01 X-51.4732 Y14.7502 
G01 X-51.5802 Y14.6432 
G01 X-51.7061 Y14.5591 
G01 X-51.8459 Y14.5012 
G01 X-51.9943 Y14.4717 
G01 X-52.1457 Y14.4717 
G01 X-52.2941 Y14.5012 
G01 X-52.4339 Y14.5591 
G01 X-52.5598 Y14.6432 
G01 X-52.6668 Y14.7502 
G01 X-52.7509 Y14.8761 
G01 X-52.8088 Y15.0159 
G01 X-52.8383 Y15.1643 
G01 X-52.8383 Y15.3157 
G01 X-52.8088 Y15.4641 
G01 X-52.7509 Y15.6039 
G01 X-52.6668 Y15.7298 
G01 X-52.5598 Y15.8368 
G01 X-52.4339 Y15.9209 
G01 X-52.2941 Y15.9788 
G01 X-52.1457 Y16.0083 
G01 X-51.9943 Y16.0083 
G01 X-51.8459 Y15.9788 
G01 X-51.7061 Y15.9209 
G01 X-51.5829 Y15.8385 
G01 X-49.8475 Y16.7062 
G01 X-49.8475 Y25.2038 
G01 X-52.1450 Y26.3525 
G01 X-58.1025 Y26.3525 
G01 X-58.1025 Y25.3582 
G01 X-58.1241 Y25.2774 
G01 X-58.1659 Y25.2050 
G01 X-58.2251 Y25.1459 
G01 X-59.4950 Y23.8759 
G01 X-59.5674 Y23.8341 
G01 X-59.6482 Y23.8125 
G01 X-64.2330 Y23.8125 
G01 X-64.2499 Y23.7718 
G01 X-64.3604 Y23.6064 
G01 X-64.5010 Y23.4658 
G01 X-64.6664 Y23.3553 
G01 X-64.8501 Y23.2792 
G01 X-65.0452 Y23.2403 
G01 X-67.0348 Y23.2403 
G01 X-67.2299 Y23.2792 
G01 X-67.4136 Y23.3553 
G01 X-67.5790 Y23.4658 
G01 X-67.7196 Y23.6064 
G01 X-67.8301 Y23.7718 
G01 X-67.9062 Y23.9555 
G01 X-67.9450 Y24.1506 
G01 X-67.9450 Y24.3494 
G01 X-67.9062 Y24.5445 
G01 X-67.8301 Y24.7282 
G01 X-67.7196 Y24.8936 
G01 X-67.5790 Y25.0342 
G01 X-67.4136 Y25.1447 
G01 X-67.2299 Y25.2208 
G01 X-67.0348 Y25.2596 
G01 X-65.0452 Y25.2596 
G01 X-64.8501 Y25.2208 
G01 X-64.6664 Y25.1447 
G01 X-64.5010 Y25.0342 
G01 X-64.3604 Y24.8936 
G01 X-64.2499 Y24.7282 
G01 X-64.1738 Y24.5445 
G01 X-64.1545 Y24.4475 
G01 X-59.8215 Y24.4475 
G01 X-58.7375 Y25.5315 
G01 X-58.7375 Y31.7918 
G01 X-58.7159 Y31.8726 
G01 X-58.6741 Y31.9449 
G01 X-54.8641 Y35.7549 
G01 X-54.8049 Y35.8141 
G01 X-54.7326 Y35.8559 
G01 X-54.6518 Y35.8775 
G01 X-52.9463 Y35.8775 
G01 X-52.9463 Y36.4083 
G01 X-52.9126 Y36.5776 
G01 X-52.8466 Y36.7371 
G01 X-52.7507 Y36.8806 
G01 X-52.6286 Y37.0027 
G01 X-52.4851 Y37.0986 
G01 X-52.3256 Y37.1646 
G01 X-52.1563 Y37.1983 
G01 X-51.9837 Y37.1983 
G01 X-51.8144 Y37.1646 
G01 X-51.6549 Y37.0986 
G01 X-51.5114 Y37.0027 
G01 X-51.3893 Y36.8806 
G01 X-51.2934 Y36.7371 
G01 X-51.2274 Y36.5776 
G01 X-51.1937 Y36.4083 
G01 X-51.1937 Y34.7117 
G01 X-51.2274 Y34.5424 
G01 X-51.2934 Y34.3829 
G01 X-51.3893 Y34.2394 
G01 X-51.5114 Y34.1173 
G01 X-51.6549 Y34.0214 
G01 X-51.8144 Y33.9554 
G01 X-51.9837 Y33.9217 
G01 X-52.1563 Y33.9217 
G01 X-52.3256 Y33.9554 
G01 X-52.4851 Y34.0214 
G01 X-52.6286 Y34.1173 
G01 X-52.7507 Y34.2394 
G01 X-52.8466 Y34.3829 
G01 X-52.9126 Y34.5424 
G01 X-52.9463 Y34.7117 
G01 X-52.9463 Y35.2425 
G01 X-54.4785 Y35.2425 
G01 X-58.1025 Y31.6185 
G01 X-58.1025 Y26.9875 
G01 X-52.0795 Y26.9875 
G01 X-52.0473 Y26.9894 
G01 X-52.0378 Y26.9875 
G01 X-52.0282 Y26.9875 
G01 X-51.9971 Y26.9792 
G01 X-51.9654 Y26.9727 
G01 X-51.9568 Y26.9684 
G01 X-51.9474 Y26.9659 
G01 X-51.9195 Y26.9497 
G01 X-49.4168 Y25.6984 
G01 X-49.4074 Y25.6959 
G01 X-49.3795 Y25.6797 
G01 X-49.3506 Y25.6653 
G01 X-49.3434 Y25.6589 
G01 X-49.3351 Y25.6541 
G01 X-49.3122 Y25.6313 
G01 X-49.2881 Y25.6098 
G01 X-49.2828 Y25.6018 
G01 X-49.2759 Y25.5949 
G01 X-49.2598 Y25.5670 
G01 X-49.2420 Y25.5401 
G01 X-49.2390 Y25.5309 
G01 X-49.2341 Y25.5225 
G01 X-49.2258 Y25.4914 
G01 X-49.2156 Y25.4607 
G01 X-49.2150 Y25.4511 
G01 X-49.2125 Y25.4418 
G01 X-49.2125 Y25.4095 
G01 X-49.2106 Y25.3773 
G01 X-49.2125 Y25.3678 
G01 X-49.2125 Y16.8275 
G01 X-43.4975 Y16.8275 
G01 X-43.4975 Y21.6318 
G01 X-43.4759 Y21.7126 
G01 X-43.4341 Y21.7849 
G01 X-43.3749 Y21.8441 
G01 X-40.8349 Y24.3841 
G01 X-40.7625 Y24.4259 
G01 X-40.6818 Y24.4475 
G01 X-38.8747 Y24.4475 
G01 X-38.8747 Y24.8667 
G01 X-38.8449 Y25.0164 
G01 X-38.7865 Y25.1574 
G01 X-38.7017 Y25.2842 
G01 X-38.5938 Y25.3921 
G01 X-38.4670 Y25.4769 
G01 X-38.3260 Y25.5353 
G01 X-38.1763 Y25.5651 
G01 X-38.0237 Y25.5651 
G01 X-37.8740 Y25.5353 
G01 X-37.7330 Y25.4769 
G01 X-37.6062 Y25.3921 
G01 X-37.4982 Y25.2842 
G01 X-37.4135 Y25.1574 
G01 X-37.3551 Y25.0164 
G01 X-37.3253 Y24.8667 
G01 X-37.3253 Y23.3933 
G01 X-37.3551 Y23.2436 
G01 X-37.4135 Y23.1026 
G01 X-37.4982 Y22.9758 
G01 X-37.6062 Y22.8679 
G01 X-37.7330 Y22.7831 
G01 X-37.7825 Y22.7626 
G01 X-37.7825 Y19.1815 
G01 X-30.3485 Y11.7475 
G01 X-21.7215 Y11.7475 
G01 X-16.8275 Y16.6415 
G01 X-16.8275 Y17.8218 
G01 X-16.8059 Y17.9026 
G01 X-16.7641 Y17.9749 
G01 X-16.7513 Y17.9877 
G01 X-16.7513 Y30.3800 
G01 X-17.9846 Y31.6133 
G01 X-18.0213 Y31.7020 
G01 X-18.0213 Y43.0643 
G01 X-18.1439 Y43.1151 
G01 X-18.2698 Y43.1992 
G01 X-18.3768 Y43.3062 
G01 X-18.4609 Y43.4321 
G01 X-18.5188 Y43.5719 
G01 X-18.5483 Y43.7203 
G01 X-18.5483 Y45.1797 
G01 X-18.5188 Y45.3281 
G01 X-18.4609 Y45.4679 
G01 X-18.3768 Y45.5938 
G01 X-18.2698 Y45.7008 
G01 X-18.1439 Y45.7849 
G01 X-18.0041 Y45.8428 
G01 X-17.8557 Y45.8723 
G01 X-17.7043 Y45.8723 
G01 X-17.5559 Y45.8428 
G01 X-17.4161 Y45.7849 
G01 X-17.2902 Y45.7008 
G01 X-17.1832 Y45.5938 
G01 X-17.0991 Y45.4679 
G01 X-17.0412 Y45.3281 
G01 X-17.0117 Y45.1797 
G01 X-17.0117 Y43.7203 
G01 X-17.0412 Y43.5719 
G01 X-17.0991 Y43.4321 
G01 X-17.1832 Y43.3062 
G01 X-17.2902 Y43.1992 
G01 X-17.4161 Y43.1151 
G01 X-17.5387 Y43.0643 
G01 X-17.5387 Y31.8499 
G01 X-16.3733 Y30.6846 
G01 X-16.3054 Y30.6167 
G01 X-16.2687 Y30.5280 
G01 X-16.2687 Y18.0213 
G01 X-13.4747 Y18.0213 
G01 X-13.4747 Y18.5167 
G01 X-13.4449 Y18.6664 
G01 X-13.3865 Y18.8074 
G01 X-13.3017 Y18.9342 
G01 X-13.1938 Y19.0421 
G01 X-13.0670 Y19.1269 
G01 X-13.0007 Y19.1544 
G01 X-12.9959 Y19.1726 
G01 X-12.9541 Y19.2449 
G01 X-10.4141 Y21.7849 
G01 X-10.3549 Y21.8441 
G01 X-10.2826 Y21.8859 
G01 X-10.2018 Y21.9075 
G01 X-3.9415 Y21.9075 
G01 X-2.8575 Y22.9915 
G01 X-2.8575 Y25.8953 
G01 X-2.8609 Y25.8953 
G01 X-3.3147 Y26.3491 
G01 X-3.3147 Y26.9909 
G01 X-2.8609 Y27.4447 
G01 X-2.2191 Y27.4447 
G01 X-1.7653 Y26.9909 
G01 X-1.7653 Y26.3491 
G01 X-2.2191 Y25.8953 
G01 X-2.2225 Y25.8953 
G01 X-2.2225 Y22.8182 
G01 X-2.2441 Y22.7374 
G01 X-2.2859 Y22.6651 
G01 X-2.3451 Y22.6059 
G01 X-3.6151 Y21.3359 
G01 X-3.6874 Y21.2941 
G01 X-3.7682 Y21.2725 
G00 Z2.5400 
G00 X-3.7682 Y22.5425 
G01 Z-0.1200 F254.00 
G01 X-7.6618 Y22.5425 F508.00 
G01 X-7.7425 Y22.5641 
G01 X-7.8149 Y22.6059 
G01 X-7.8741 Y22.6651 
G01 X-7.9159 Y22.7374 
G01 X-7.9375 Y22.8182 
G01 X-7.9375 Y24.0326 
G01 X-7.9870 Y24.0531 
G01 X-8.1138 Y24.1379 
G01 X-8.2217 Y24.2458 
G01 X-8.3065 Y24.3726 
G01 X-8.3649 Y24.5136 
G01 X-8.3947 Y24.6633 
G01 X-8.3947 Y25.0825 
G01 X-9.3853 Y25.0825 
G01 X-9.3853 Y24.6633 
G01 X-9.4151 Y24.5136 
G01 X-9.4735 Y24.3726 
G01 X-9.5582 Y24.2458 
G01 X-9.6662 Y24.1379 
G01 X-9.7930 Y24.0531 
G01 X-9.9340 Y23.9947 
G01 X-10.0837 Y23.9649 
G01 X-10.2363 Y23.9649 
G01 X-10.3860 Y23.9947 
G01 X-10.5270 Y24.0531 
G01 X-10.6538 Y24.1379 
G01 X-10.7617 Y24.2458 
G01 X-10.8465 Y24.3726 
G01 X-10.9049 Y24.5136 
G01 X-10.9347 Y24.6633 
G01 X-10.9347 Y26.1367 
G01 X-10.9049 Y26.2864 
G01 X-10.8465 Y26.4274 
G01 X-10.7617 Y26.5542 
G01 X-10.6538 Y26.6621 
G01 X-10.5270 Y26.7469 
G01 X-10.3860 Y26.8053 
G01 X-10.2363 Y26.8351 
G01 X-10.0837 Y26.8351 
G01 X-9.9340 Y26.8053 
G01 X-9.7930 Y26.7469 
G01 X-9.6662 Y26.6621 
G01 X-9.5582 Y26.5542 
G01 X-9.4735 Y26.4274 
G01 X-9.4151 Y26.2864 
G01 X-9.3853 Y26.1367 
G01 X-9.3853 Y25.7175 
G01 X-8.3947 Y25.7175 
G01 X-8.3947 Y26.1367 
G01 X-8.3649 Y26.2864 
G01 X-8.3065 Y26.4274 
G01 X-8.2217 Y26.5542 
G01 X-8.1138 Y26.6621 
G01 X-7.9870 Y26.7469 
G01 X-7.8460 Y26.8053 
G01 X-7.6963 Y26.8351 
G01 X-7.5437 Y26.8351 
G01 X-7.3940 Y26.8053 
G01 X-7.2530 Y26.7469 
G01 X-7.1262 Y26.6621 
G01 X-7.0183 Y26.5542 
G01 X-6.9335 Y26.4274 
G01 X-6.8751 Y26.2864 
G01 X-6.8453 Y26.1367 
G01 X-6.8453 Y24.6633 
G01 X-6.8751 Y24.5136 
G01 X-6.9335 Y24.3726 
G01 X-7.0183 Y24.2458 
G01 X-7.1262 Y24.1379 
G01 X-7.2530 Y24.0531 
G01 X-7.3025 Y24.0326 
G01 X-7.3025 Y23.1775 
G01 X-4.1275 Y23.1775 
G01 X-4.1275 Y31.7918 
G01 X-4.1059 Y31.8726 
G01 X-4.0641 Y31.9449 
G01 X-4.0049 Y32.0041 
G01 X-3.9325 Y32.0459 
G01 X-3.8518 Y32.0675 
G01 X-3.3147 Y32.0675 
G01 X-3.3147 Y32.0709 
G01 X-2.8609 Y32.5247 
G01 X-2.2191 Y32.5247 
G01 X-1.5875 Y33.1515 
G01 X-1.5875 Y33.5153 
G01 X-1.5909 Y33.5153 
G01 X-2.0447 Y33.9691 
G01 X-2.0447 Y34.6109 
G01 X-1.5909 Y35.0647 
G01 X-0.9491 Y35.0647 
G01 X-0.4953 Y34.6109 
G01 X-0.4953 Y33.9691 
G01 X-0.9491 Y33.5153 
G01 X-0.9525 Y33.5153 
G01 X-0.9525 Y32.9782 
G01 X-0.9741 Y32.8974 
G01 X-1.0159 Y32.8250 
G01 X-1.0751 Y32.7659 
G01 X-1.7677 Y32.0733 
G01 X-1.7653 Y31.4291 
G01 X-2.2191 Y30.9753 
G01 X-2.8609 Y30.9753 
G01 X-3.3147 Y31.4291 
G01 X-3.3147 Y31.4325 
G01 X-3.4925 Y31.4325 
G01 X-3.4925 Y22.8182 
G01 X-3.5141 Y22.7374 
G01 X-3.5559 Y22.6651 
G01 X-3.6151 Y22.6059 
G01 X-3.6874 Y22.5641 
G01 X-3.7682 Y22.5425 
G00 Z2.5400 
G00 X-4.4783 Y24.2458 
G01 Z-0.1200 F254.00 
G01 X-4.5862 Y24.1379 F508.00 
G01 X-4.7130 Y24.0531 
G01 X-4.8540 Y23.9947 
G01 X-5.0037 Y23.9649 
G01 X-5.1563 Y23.9649 
G01 X-5.3060 Y23.9947 
G01 X-5.4470 Y24.0531 
G01 X-5.5738 Y24.1379 
G01 X-5.6817 Y24.2458 
G01 X-5.7665 Y24.3726 
G01 X-5.8249 Y24.5136 
G01 X-5.8547 Y24.6633 
G01 X-5.8547 Y26.1367 
G01 X-5.8249 Y26.2864 
G01 X-5.7665 Y26.4274 
G01 X-5.6817 Y26.5542 
G01 X-5.5738 Y26.6621 
G01 X-5.4470 Y26.7469 
G01 X-5.3213 Y26.7990 
G01 X-5.3213 Y27.3225 
G01 X-5.6059 Y27.3225 
G01 X-5.6479 Y27.3399 
G01 X-5.6801 Y27.3721 
G01 X-5.6975 Y27.4141 
G01 X-5.6975 Y27.6987 
G01 X-8.9380 Y27.6987 
G01 X-9.0267 Y27.7354 
G01 X-9.0946 Y27.8033 
G01 X-9.4808 Y28.1896 
G01 X-9.5632 Y28.0662 
G01 X-9.6702 Y27.9592 
G01 X-9.7961 Y27.8751 
G01 X-9.9359 Y27.8172 
G01 X-10.0843 Y27.7877 
G01 X-10.2357 Y27.7877 
G01 X-10.3841 Y27.8172 
G01 X-10.5239 Y27.8751 
G01 X-10.6498 Y27.9592 
G01 X-10.7568 Y28.0662 
G01 X-10.8409 Y28.1921 
G01 X-10.8988 Y28.3319 
G01 X-10.9283 Y28.4803 
G01 X-10.9283 Y29.9397 
G01 X-10.8988 Y30.0881 
G01 X-10.8409 Y30.2279 
G01 X-10.7568 Y30.3538 
G01 X-10.6498 Y30.4608 
G01 X-10.5239 Y30.5449 
G01 X-10.3841 Y30.6028 
G01 X-10.2357 Y30.6323 
G01 X-10.0843 Y30.6323 
G01 X-9.9359 Y30.6028 
G01 X-9.7961 Y30.5449 
G01 X-9.6702 Y30.4608 
G01 X-9.5632 Y30.3538 
G01 X-9.4791 Y30.2279 
G01 X-9.4212 Y30.0881 
G01 X-9.3917 Y29.9397 
G01 X-9.3917 Y28.7829 
G01 X-8.7900 Y28.1813 
G01 X-5.6975 Y28.1813 
G01 X-5.6975 Y28.4659 
G01 X-5.6801 Y28.5079 
G01 X-5.6479 Y28.5401 
G01 X-5.6059 Y28.5575 
G01 X-4.5541 Y28.5575 
G01 X-4.5121 Y28.5401 
G01 X-4.4799 Y28.5079 
G01 X-4.4625 Y28.4659 
G01 X-4.4625 Y27.4141 
G01 X-4.4799 Y27.3721 
G01 X-4.5121 Y27.3399 
G01 X-4.5541 Y27.3225 
G01 X-4.8387 Y27.3225 
G01 X-4.8387 Y26.7990 
G01 X-4.7130 Y26.7469 
G01 X-4.5862 Y26.6621 
G01 X-4.4783 Y26.5542 
G01 X-4.3935 Y26.4274 
G01 X-4.3351 Y26.2864 
G01 X-4.3053 Y26.1367 
G01 X-4.3053 Y24.6633 
G01 X-4.3351 Y24.5136 
G01 X-4.3935 Y24.3726 
G01 X-4.4783 Y24.2458 
G00 Z2.5400 
G00 X-12.0983 Y24.2458 
G01 Z-0.1200 F254.00 
G01 X-12.2062 Y24.1379 F508.00 
G01 X-12.3330 Y24.0531 
G01 X-12.4740 Y23.9947 
G01 X-12.6237 Y23.9649 
G01 X-12.7763 Y23.9649 
G01 X-12.9260 Y23.9947 
G01 X-13.0670 Y24.0531 
G01 X-13.1938 Y24.1379 
G01 X-13.3017 Y24.2458 
G01 X-13.3865 Y24.3726 
G01 X-13.4449 Y24.5136 
G01 X-13.4747 Y24.6633 
G01 X-13.4747 Y26.1367 
G01 X-13.4449 Y26.2864 
G01 X-13.3865 Y26.4274 
G01 X-13.3017 Y26.5542 
G01 X-13.1938 Y26.6621 
G01 X-13.0670 Y26.7469 
G01 X-12.9413 Y26.7990 
G01 X-12.9413 Y27.8243 
G01 X-13.0639 Y27.8751 
G01 X-13.1898 Y27.9592 
G01 X-13.2968 Y28.0662 
G01 X-13.3809 Y28.1921 
G01 X-13.4388 Y28.3319 
G01 X-13.4683 Y28.4803 
G01 X-13.4683 Y29.9397 
G01 X-13.4388 Y30.0881 
G01 X-13.3809 Y30.2279 
G01 X-13.2968 Y30.3538 
G01 X-13.1898 Y30.4608 
G01 X-13.0639 Y30.5449 
G01 X-12.9241 Y30.6028 
G01 X-12.7757 Y30.6323 
G01 X-12.6243 Y30.6323 
G01 X-12.4759 Y30.6028 
G01 X-12.3361 Y30.5449 
G01 X-12.2102 Y30.4608 
G01 X-12.1032 Y30.3538 
G01 X-12.0191 Y30.2279 
G01 X-11.9612 Y30.0881 
G01 X-11.9317 Y29.9397 
G01 X-11.9317 Y28.4803 
G01 X-11.9612 Y28.3319 
G01 X-12.0191 Y28.1921 
G01 X-12.1032 Y28.0662 
G01 X-12.2102 Y27.9592 
G01 X-12.3361 Y27.8751 
G01 X-12.4587 Y27.8243 
G01 X-12.4587 Y26.7990 
G01 X-12.3330 Y26.7469 
G01 X-12.2062 Y26.6621 
G01 X-12.0983 Y26.5542 
G01 X-12.0135 Y26.4274 
G01 X-11.9551 Y26.2864 
G01 X-11.9253 Y26.1367 
G01 X-11.9253 Y24.6633 
G01 X-11.9551 Y24.5136 
G01 X-12.0135 Y24.3726 
G01 X-12.0983 Y24.2458 
G00 Z2.5400 
G00 X-14.6432 Y28.0662 
G01 Z-0.1200 F254.00 
G01 X-14.7502 Y27.9592 F508.00 
G01 X-14.8761 Y27.8751 
G01 X-15.0159 Y27.8172 
G01 X-15.1643 Y27.7877 
G01 X-15.3157 Y27.7877 
G01 X-15.4641 Y27.8172 
G01 X-15.6039 Y27.8751 
G01 X-15.7298 Y27.9592 
G01 X-15.8368 Y28.0662 
G01 X-15.9209 Y28.1921 
G01 X-15.9788 Y28.3319 
G01 X-16.0083 Y28.4803 
G01 X-16.0083 Y29.9397 
G01 X-15.9788 Y30.0881 
G01 X-15.9209 Y30.2279 
G01 X-15.8368 Y30.3538 
G01 X-15.7298 Y30.4608 
G01 X-15.6039 Y30.5449 
G01 X-15.4641 Y30.6028 
G01 X-15.3157 Y30.6323 
G01 X-15.1643 Y30.6323 
G01 X-15.0159 Y30.6028 
G01 X-14.8761 Y30.5449 
G01 X-14.7502 Y30.4608 
G01 X-14.6432 Y30.3538 
G01 X-14.5591 Y30.2279 
G01 X-14.5012 Y30.0881 
G01 X-14.4717 Y29.9397 
G01 X-14.4717 Y28.4803 
G01 X-14.5012 Y28.3319 
G01 X-14.5591 Y28.1921 
G01 X-14.6432 Y28.0662 
G00 Z2.5400 
G00 X-17.1832 Y28.0662 
G01 Z-0.1200 F254.00 
G01 X-17.2902 Y27.9592 F508.00 
G01 X-17.4161 Y27.8751 
G01 X-17.5559 Y27.8172 
G01 X-17.7043 Y27.7877 
G01 X-17.8557 Y27.7877 
G01 X-18.0041 Y27.8172 
G01 X-18.1439 Y27.8751 
G01 X-18.2698 Y27.9592 
G01 X-18.3768 Y28.0662 
G01 X-18.4609 Y28.1921 
G01 X-18.5188 Y28.3319 
G01 X-18.5483 Y28.4803 
G01 X-18.5483 Y29.9397 
G01 X-18.5188 Y30.0881 
G01 X-18.4609 Y30.2279 
G01 X-18.3768 Y30.3538 
G01 X-18.2698 Y30.4608 
G01 X-18.1439 Y30.5449 
G01 X-18.0041 Y30.6028 
G01 X-17.8557 Y30.6323 
G01 X-17.7043 Y30.6323 
G01 X-17.5559 Y30.6028 
G01 X-17.4161 Y30.5449 
G01 X-17.2902 Y30.4608 
G01 X-17.1832 Y30.3538 
G01 X-17.0991 Y30.2279 
G01 X-17.0412 Y30.0881 
G01 X-17.0117 Y29.9397 
G01 X-17.0117 Y28.4803 
G01 X-17.0412 Y28.3319 
G01 X-17.0991 Y28.1921 
G01 X-17.1832 Y28.0662 
G00 Z2.5400 
G00 X-19.7232 Y28.0662 
G01 Z-0.1200 F254.00 
G01 X-19.8302 Y27.9592 F508.00 
G01 X-19.9561 Y27.8751 
G01 X-20.0959 Y27.8172 
G01 X-20.2443 Y27.7877 
G01 X-20.3957 Y27.7877 
G01 X-20.5441 Y27.8172 
G01 X-20.6839 Y27.8751 
G01 X-20.8098 Y27.9592 
G01 X-20.9168 Y28.0662 
G01 X-21.0009 Y28.1921 
G01 X-21.0588 Y28.3319 
G01 X-21.0883 Y28.4803 
G01 X-21.0883 Y29.9397 
G01 X-21.0588 Y30.0881 
G01 X-21.0009 Y30.2279 
G01 X-20.9168 Y30.3538 
G01 X-20.8098 Y30.4608 
G01 X-20.6839 Y30.5449 
G01 X-20.5441 Y30.6028 
G01 X-20.3957 Y30.6323 
G01 X-20.2443 Y30.6323 
G01 X-20.0959 Y30.6028 
G01 X-19.9561 Y30.5449 
G01 X-19.8302 Y30.4608 
G01 X-19.7232 Y30.3538 
G01 X-19.6391 Y30.2279 
G01 X-19.5812 Y30.0881 
G01 X-19.5517 Y29.9397 
G01 X-19.5517 Y28.4803 
G01 X-19.5812 Y28.3319 
G01 X-19.6391 Y28.1921 
G01 X-19.7232 Y28.0662 
G00 Z2.5400 
G00 X-22.2632 Y28.0662 
G01 Z-0.1200 F254.00 
G01 X-22.3702 Y27.9592 F508.00 
G01 X-22.4961 Y27.8751 
G01 X-22.6359 Y27.8172 
G01 X-22.7843 Y27.7877 
G01 X-22.9357 Y27.7877 
G01 X-23.0841 Y27.8172 
G01 X-23.2239 Y27.8751 
G01 X-23.3498 Y27.9592 
G01 X-23.4568 Y28.0662 
G01 X-23.5409 Y28.1921 
G01 X-23.5988 Y28.3319 
G01 X-23.6283 Y28.4803 
G01 X-23.6283 Y29.9397 
G01 X-23.5988 Y30.0881 
G01 X-23.5409 Y30.2279 
G01 X-23.4568 Y30.3538 
G01 X-23.3498 Y30.4608 
G01 X-23.2239 Y30.5449 
G01 X-23.0841 Y30.6028 
G01 X-22.9357 Y30.6323 
G01 X-22.7843 Y30.6323 
G01 X-22.6359 Y30.6028 
G01 X-22.4961 Y30.5449 
G01 X-22.3702 Y30.4608 
G01 X-22.2632 Y30.3538 
G01 X-22.1791 Y30.2279 
G01 X-22.1212 Y30.0881 
G01 X-22.0917 Y29.9397 
G01 X-22.0917 Y28.4803 
G01 X-22.1212 Y28.3319 
G01 X-22.1791 Y28.1921 
G01 X-22.2632 Y28.0662 
G00 Z2.5400 
G00 X-22.2549 Y26.1388 
G01 Z-0.1200 F254.00 
G01 X-22.1151 Y26.0809 F508.00 
G01 X-21.9892 Y25.9968 
G01 X-21.8822 Y25.8898 
G01 X-21.7981 Y25.7639 
G01 X-21.7402 Y25.6241 
G01 X-21.7107 Y25.4757 
G01 X-21.7107 Y25.3243 
G01 X-21.7402 Y25.1759 
G01 X-21.7981 Y25.0361 
G01 X-21.8822 Y24.9102 
G01 X-21.9892 Y24.8032 
G01 X-22.1151 Y24.7191 
G01 X-22.2549 Y24.6612 
G01 X-22.4033 Y24.6317 
G01 X-22.5547 Y24.6317 
G01 X-22.7031 Y24.6612 
G01 X-22.8429 Y24.7191 
G01 X-22.9688 Y24.8032 
G01 X-23.0758 Y24.9102 
G01 X-23.1599 Y25.0361 
G01 X-23.2178 Y25.1759 
G01 X-23.2473 Y25.3243 
G01 X-23.2473 Y25.4757 
G01 X-23.2178 Y25.6241 
G01 X-23.1599 Y25.7639 
G01 X-23.0758 Y25.8898 
G01 X-22.9688 Y25.9968 
G01 X-22.8429 Y26.0809 
G01 X-22.7031 Y26.1388 
G01 X-22.5547 Y26.1683 
G01 X-22.4033 Y26.1683 
G01 X-22.2549 Y26.1388 
G00 Z2.5400 
G00 X-22.2549 Y23.5988 
G01 Z-0.1200 F254.00 
G01 X-22.1151 Y23.5409 F508.00 
G01 X-21.9892 Y23.4568 
G01 X-21.8822 Y23.3498 
G01 X-21.7981 Y23.2239 
G01 X-21.7402 Y23.0841 
G01 X-21.7107 Y22.9357 
G01 X-21.7107 Y22.7843 
G01 X-21.7402 Y22.6359 
G01 X-21.7981 Y22.4961 
G01 X-21.8822 Y22.3702 
G01 X-21.9892 Y22.2632 
G01 X-22.1151 Y22.1791 
G01 X-22.2549 Y22.1212 
G01 X-22.4033 Y22.0917 
G01 X-22.5547 Y22.0917 
G01 X-22.7031 Y22.1212 
G01 X-22.8429 Y22.1791 
G01 X-22.9688 Y22.2632 
G01 X-23.0758 Y22.3702 
G01 X-23.1599 Y22.4961 
G01 X-23.2178 Y22.6359 
G01 X-23.2473 Y22.7843 
G01 X-23.2473 Y22.9357 
G01 X-23.2178 Y23.0841 
G01 X-23.1599 Y23.2239 
G01 X-23.0758 Y23.3498 
G01 X-22.9688 Y23.4568 
G01 X-22.8429 Y23.5409 
G01 X-22.7031 Y23.5988 
G01 X-22.5547 Y23.6283 
G01 X-22.4033 Y23.6283 
G01 X-22.2549 Y23.5988 
G00 Z2.5400 
G00 X-22.2549 Y21.0588 
G01 Z-0.1200 F254.00 
G01 X-22.1151 Y21.0009 F508.00 
G01 X-21.9892 Y20.9168 
G01 X-21.8822 Y20.8098 
G01 X-21.7981 Y20.6839 
G01 X-21.7402 Y20.5441 
G01 X-21.7107 Y20.3957 
G01 X-21.7107 Y20.2443 
G01 X-21.7402 Y20.0959 
G01 X-21.7981 Y19.9561 
G01 X-21.8822 Y19.8302 
G01 X-21.9892 Y19.7232 
G01 X-22.1151 Y19.6391 
G01 X-22.2549 Y19.5812 
G01 X-22.4033 Y19.5517 
G01 X-22.5547 Y19.5517 
G01 X-22.7031 Y19.5812 
G01 X-22.8429 Y19.6391 
G01 X-22.9688 Y19.7232 
G01 X-23.0758 Y19.8302 
G01 X-23.1599 Y19.9561 
G01 X-23.2178 Y20.0959 
G01 X-23.2473 Y20.2443 
G01 X-23.2473 Y20.3660 
G01 X-25.5367 Y22.6554 
G01 X-25.6046 Y22.7233 
G01 X-25.6413 Y22.8120 
G01 X-25.6413 Y27.8243 
G01 X-25.7639 Y27.8751 
G01 X-25.8898 Y27.9592 
G01 X-25.9968 Y28.0662 
G01 X-26.0809 Y28.1921 
G01 X-26.1388 Y28.3319 
G01 X-26.1683 Y28.4803 
G01 X-26.1683 Y29.9397 
G01 X-26.1388 Y30.0881 
G01 X-26.0809 Y30.2279 
G01 X-25.9968 Y30.3538 
G01 X-25.8898 Y30.4608 
G01 X-25.7639 Y30.5449 
G01 X-25.6241 Y30.6028 
G01 X-25.4757 Y30.6323 
G01 X-25.3243 Y30.6323 
G01 X-25.1759 Y30.6028 
G01 X-25.0361 Y30.5449 
G01 X-24.9102 Y30.4608 
G01 X-24.8032 Y30.3538 
G01 X-24.7191 Y30.2279 
G01 X-24.6612 Y30.0881 
G01 X-24.6317 Y29.9397 
G01 X-24.6317 Y28.4803 
G01 X-24.6612 Y28.3319 
G01 X-24.7191 Y28.1921 
G01 X-24.8032 Y28.0662 
G01 X-24.9102 Y27.9592 
G01 X-25.0361 Y27.8751 
G01 X-25.1587 Y27.8243 
G01 X-25.1587 Y22.9599 
G01 X-23.0421 Y20.8434 
G01 X-22.9688 Y20.9168 
G01 X-22.8429 Y21.0009 
G01 X-22.7031 Y21.0588 
G01 X-22.5547 Y21.0883 
G01 X-22.4033 Y21.0883 
G01 X-22.2549 Y21.0588 
G00 Z2.5400 
G00 X-22.2549 Y18.5188 
G01 Z-0.1200 F254.00 
G01 X-22.1151 Y18.4609 F508.00 
G01 X-21.9892 Y18.3768 
G01 X-21.8822 Y18.2698 
G01 X-21.7981 Y18.1439 
G01 X-21.7402 Y18.0041 
G01 X-21.7107 Y17.8557 
G01 X-21.7107 Y17.7043 
G01 X-21.7402 Y17.5559 
G01 X-21.7981 Y17.4161 
G01 X-21.8822 Y17.2902 
G01 X-21.9892 Y17.1832 
G01 X-22.1151 Y17.0991 
G01 X-22.2549 Y17.0412 
G01 X-22.4033 Y17.0117 
G01 X-22.5547 Y17.0117 
G01 X-22.7031 Y17.0412 
G01 X-22.8429 Y17.0991 
G01 X-22.9688 Y17.1832 
G01 X-23.0758 Y17.2902 
G01 X-23.1599 Y17.4161 
G01 X-23.2178 Y17.5559 
G01 X-23.2473 Y17.7043 
G01 X-23.2473 Y17.8260 
G01 X-28.0767 Y22.6554 
G01 X-28.1446 Y22.7233 
G01 X-28.1813 Y22.8120 
G01 X-28.1813 Y27.8243 
G01 X-28.3039 Y27.8751 
G01 X-28.4298 Y27.9592 
G01 X-28.5368 Y28.0662 
G01 X-28.6209 Y28.1921 
G01 X-28.6788 Y28.3319 
G01 X-28.7083 Y28.4803 
G01 X-28.7083 Y29.9397 
G01 X-28.6788 Y30.0881 
G01 X-28.6209 Y30.2279 
G01 X-28.5368 Y30.3538 
G01 X-28.4298 Y30.4608 
G01 X-28.3039 Y30.5449 
G01 X-28.1641 Y30.6028 
G01 X-28.0157 Y30.6323 
G01 X-27.8643 Y30.6323 
G01 X-27.7159 Y30.6028 
G01 X-27.5761 Y30.5449 
G01 X-27.4502 Y30.4608 
G01 X-27.3432 Y30.3538 
G01 X-27.2591 Y30.2279 
G01 X-27.2012 Y30.0881 
G01 X-27.1717 Y29.9397 
G01 X-27.1717 Y28.4803 
G01 X-27.2012 Y28.3319 
G01 X-27.2591 Y28.1921 
G01 X-27.3432 Y28.0662 
G01 X-27.4502 Y27.9592 
G01 X-27.5761 Y27.8751 
G01 X-27.6987 Y27.8243 
G01 X-27.6987 Y22.9599 
G01 X-23.0421 Y18.3034 
G01 X-22.9688 Y18.3768 
G01 X-22.8429 Y18.4609 
G01 X-22.7031 Y18.5188 
G01 X-22.5547 Y18.5483 
G01 X-22.4033 Y18.5483 
G01 X-22.2549 Y18.5188 
G00 Z2.5400 
G00 X-21.8023 Y16.0083 
G01 Z-0.1200 F254.00 
G01 X-21.7603 Y15.9909 F508.00 
G01 X-21.7281 Y15.9587 
G01 X-21.7107 Y15.9167 
G01 X-21.7107 Y14.5633 
G01 X-21.7281 Y14.5213 
G01 X-21.7603 Y14.4891 
G01 X-21.8023 Y14.4717 
G01 X-23.1557 Y14.4717 
G01 X-23.1977 Y14.4891 
G01 X-23.2299 Y14.5213 
G01 X-23.2473 Y14.5633 
G01 X-23.2473 Y15.9167 
G01 X-23.2299 Y15.9587 
G01 X-23.1977 Y15.9909 
G01 X-23.1557 Y16.0083 
G01 X-21.8023 Y16.0083 
G00 Z2.5400 
G00 X-17.1369 Y9.4147 
G01 Z-0.1200 F254.00 
G01 X-17.1047 Y9.4469 F508.00 
G01 X-17.0627 Y9.4643 
G01 X-15.0069 Y9.4643 
G01 X-11.6346 Y12.8367 
G01 X-11.5667 Y12.9046 
G01 X-11.4780 Y12.9413 
G01 X-10.7343 Y12.9413 
G01 X-10.7343 Y14.5227 
G01 X-10.7169 Y14.5647 
G01 X-10.6847 Y14.5969 
G01 X-10.6427 Y14.6143 
G01 X-10.4013 Y14.6143 
G01 X-10.4013 Y16.3810 
G01 X-10.5270 Y16.4331 
G01 X-10.6538 Y16.5178 
G01 X-10.7617 Y16.6258 
G01 X-10.8465 Y16.7526 
G01 X-10.9049 Y16.8936 
G01 X-10.9347 Y17.0433 
G01 X-10.9347 Y18.5167 
G01 X-10.9049 Y18.6664 
G01 X-10.8465 Y18.8074 
G01 X-10.7617 Y18.9342 
G01 X-10.6538 Y19.0421 
G01 X-10.5270 Y19.1269 
G01 X-10.3860 Y19.1853 
G01 X-10.2363 Y19.2151 
G01 X-10.0837 Y19.2151 
G01 X-9.9340 Y19.1853 
G01 X-9.7930 Y19.1269 
G01 X-9.6662 Y19.0421 
G01 X-9.5582 Y18.9342 
G01 X-9.4735 Y18.8074 
G01 X-9.4151 Y18.6664 
G01 X-9.3853 Y18.5167 
G01 X-9.3853 Y17.0433 
G01 X-9.4151 Y16.8936 
G01 X-9.4735 Y16.7526 
G01 X-9.5582 Y16.6258 
G01 X-9.6662 Y16.5178 
G01 X-9.7930 Y16.4331 
G01 X-9.9187 Y16.3810 
G01 X-9.9187 Y14.6143 
G01 X-9.0973 Y14.6143 
G01 X-9.0553 Y14.5969 
G01 X-9.0231 Y14.5647 
G01 X-9.0057 Y14.5227 
G01 X-9.0057 Y10.8773 
G01 X-9.0231 Y10.8353 
G01 X-9.0553 Y10.8031 
G01 X-9.0973 Y10.7857 
G01 X-10.6427 Y10.7857 
G01 X-10.6847 Y10.8031 
G01 X-10.7169 Y10.8353 
G01 X-10.7343 Y10.8773 
G01 X-10.7343 Y12.4587 
G01 X-11.3300 Y12.4587 
G01 X-14.3245 Y9.4643 
G01 X-13.4173 Y9.4643 
G01 X-13.3753 Y9.4469 
G01 X-13.3431 Y9.4147 
G01 X-13.3257 Y9.3727 
G01 X-13.3257 Y7.8273 
G01 X-13.3431 Y7.7853 
G01 X-13.3753 Y7.7531 
G01 X-13.4173 Y7.7357 
G01 X-17.0627 Y7.7357 
G01 X-17.1047 Y7.7531 
G01 X-17.1369 Y7.7853 
G01 X-17.1543 Y7.8273 
G01 X-17.1543 Y8.6487 
G01 X-29.1100 Y8.6487 
G01 X-29.7057 Y8.0530 
G01 X-29.7057 Y5.2973 
G01 X-29.7231 Y5.2553 
G01 X-29.7553 Y5.2231 
G01 X-29.7973 Y5.2057 
G01 X-31.3427 Y5.2057 
G01 X-31.3847 Y5.2231 
G01 X-31.4169 Y5.2553 
G01 X-31.4343 Y5.2973 
G01 X-31.4343 Y9.9427 
G01 X-31.4169 Y9.9847 
G01 X-31.3847 Y10.0169 
G01 X-31.3427 Y10.0343 
G01 X-29.7973 Y10.0343 
G01 X-29.7553 Y10.0169 
G01 X-29.7231 Y9.9847 
G01 X-29.7057 Y9.9427 
G01 X-29.7057 Y8.7355 
G01 X-29.4146 Y9.0267 
G01 X-29.3467 Y9.0946 
G01 X-29.2580 Y9.1313 
G01 X-17.1543 Y9.1313 
G01 X-17.1543 Y9.3727 
G01 X-17.1369 Y9.4147 
G00 Z2.5400 
G00 X-12.7199 Y9.3899 
G01 Z-0.1200 F254.00 
G01 X-12.7415 Y9.4706 F508.00 
G01 X-12.7415 Y9.4889 
G01 X-12.8590 Y9.7726 
G01 X-12.8792 Y9.8075 
G01 X-12.8895 Y9.8461 
G01 X-12.9008 Y9.8883 
G01 X-12.9009 Y9.9300 
G01 X-12.9009 Y9.9719 
G01 X-12.8908 Y10.0095 
G01 X-12.9046 Y10.0233 
G01 X-12.9413 Y10.1120 
G01 X-12.9413 Y10.2080 
G01 X-12.9046 Y10.2967 
G01 X-12.8367 Y10.3646 
G01 X-12.7480 Y10.4013 
G01 X-12.6520 Y10.4013 
G01 X-12.5878 Y10.3747 
G01 X-11.8309 Y11.1316 
G01 X-11.7900 Y11.1553 
G01 X-11.6393 Y11.5593 
G01 X-11.5739 Y11.6295 
G01 X-11.4866 Y11.6694 
G01 X-11.3907 Y11.6729 
G01 X-11.3007 Y11.6393 
G01 X-11.2305 Y11.5739 
G01 X-11.1906 Y11.4866 
G01 X-11.1871 Y11.3907 
G01 X-11.3371 Y10.9886 
G01 X-11.3185 Y10.9194 
G01 X-11.3185 Y10.7611 
G01 X-11.2342 Y10.5576 
G01 X-11.2237 Y10.5394 
G01 X-11.2183 Y10.5191 
G01 X-11.2103 Y10.4997 
G01 X-11.2075 Y10.4789 
G01 X-11.2021 Y10.4587 
G01 X-11.2021 Y10.4377 
G01 X-11.1993 Y10.4169 
G01 X-11.2021 Y10.3960 
G01 X-11.2021 Y10.3751 
G01 X-11.2075 Y10.3548 
G01 X-11.2103 Y10.3340 
G01 X-11.2183 Y10.3146 
G01 X-11.2237 Y10.2943 
G01 X-11.2342 Y10.2761 
G01 X-11.2423 Y10.2567 
G01 X-11.2550 Y10.2401 
G01 X-11.2655 Y10.2219 
G01 X-11.2804 Y10.2071 
G01 X-11.2931 Y10.1904 
G01 X-11.3098 Y10.1776 
G01 X-12.2291 Y9.2584 
G01 X-12.3014 Y9.2166 
G01 X-12.3822 Y9.1949 
G01 X-12.4658 Y9.1949 
G01 X-12.5465 Y9.2166 
G01 X-12.6189 Y9.2584 
G01 X-12.6781 Y9.3175 
G01 X-12.7199 Y9.3899 
G00 Z2.5400 
G00 X-9.5597 Y8.1107 
G01 Z-0.1200 F254.00 
G01 X-9.5597 Y7.8316 F508.00 
G01 X-9.5502 Y7.7961 
G01 X-9.5480 Y7.7922 
G01 X-9.5223 Y7.7477 
G01 X-9.4739 Y7.7198 
G01 X-9.4384 Y7.7103 
G01 X-8.1093 Y7.7103 
G01 X-8.1093 Y7.7357 
G01 X-9.4427 Y7.7357 
G01 X-9.4847 Y7.7531 
G01 X-9.5169 Y7.7853 
G01 X-9.5343 Y7.8273 
G01 X-9.5343 Y8.1107 
G01 X-9.5597 Y8.1107 
G00 Z2.5400 
G00 X-25.7653 Y6.2069 
G01 Z-0.1200 F254.00 
G01 X-25.7331 Y6.1747 F508.00 
G01 X-25.7157 Y6.1327 
G01 X-25.7157 Y1.4873 
G01 X-25.7331 Y1.4453 
G01 X-25.7653 Y1.4131 
G01 X-25.8073 Y1.3957 
G01 X-27.3527 Y1.3957 
G01 X-27.3947 Y1.4131 
G01 X-27.4269 Y1.4453 
G01 X-27.4443 Y1.4873 
G01 X-27.4443 Y2.6945 
G01 X-27.8033 Y2.3354 
G01 X-27.8920 Y2.2987 
G01 X-50.8480 Y2.2987 
G01 X-50.9367 Y2.3354 
G01 X-51.0046 Y2.4033 
G01 X-53.6467 Y5.0454 
G01 X-53.6753 Y4.9764 
G01 X-53.7858 Y4.8110 
G01 X-53.9264 Y4.6704 
G01 X-54.0917 Y4.5599 
G01 X-54.2755 Y4.4838 
G01 X-54.4706 Y4.4450 
G01 X-54.6694 Y4.4450 
G01 X-54.8645 Y4.4838 
G01 X-55.0482 Y4.5599 
G01 X-55.2136 Y4.6704 
G01 X-55.3542 Y4.8110 
G01 X-55.4647 Y4.9764 
G01 X-55.5408 Y5.1601 
G01 X-55.5796 Y5.3552 
G01 X-55.5796 Y7.3448 
G01 X-55.5408 Y7.5399 
G01 X-55.4647 Y7.7236 
G01 X-55.3542 Y7.8890 
G01 X-55.2136 Y8.0296 
G01 X-55.0482 Y8.1401 
G01 X-54.8645 Y8.2162 
G01 X-54.6694 Y8.2550 
G01 X-54.4706 Y8.2550 
G01 X-54.2755 Y8.2162 
G01 X-54.0917 Y8.1401 
G01 X-53.9264 Y8.0296 
G01 X-53.7858 Y7.8890 
G01 X-53.6753 Y7.7236 
G01 X-53.5992 Y7.5399 
G01 X-53.5603 Y7.3448 
G01 X-53.5603 Y5.6416 
G01 X-50.7000 Y2.7813 
G01 X-28.0400 Y2.7813 
G01 X-27.4443 Y3.3769 
G01 X-27.4443 Y6.1327 
G01 X-27.4269 Y6.1747 
G01 X-27.3947 Y6.2069 
G01 X-27.3527 Y6.2243 
G01 X-25.8073 Y6.2243 
G01 X-25.7653 Y6.2069 
G00 Z2.5400 
G00 X-34.6057 Y5.2973 
G01 Z-0.1200 F254.00 
G01 X-34.6231 Y5.2553 F508.00 
G01 X-34.6553 Y5.2231 
G01 X-34.6973 Y5.2057 
G01 X-36.2427 Y5.2057 
G01 X-36.2847 Y5.2231 
G01 X-36.3169 Y5.2553 
G01 X-36.3343 Y5.2973 
G01 X-36.3343 Y8.0530 
G01 X-38.2000 Y9.9187 
G01 X-46.8900 Y9.9187 
G01 X-48.8528 Y7.9560 
G01 X-48.7858 Y7.8890 
G01 X-48.6753 Y7.7236 
G01 X-48.5992 Y7.5399 
G01 X-48.5603 Y7.3448 
G01 X-48.5603 Y5.3552 
G01 X-48.5992 Y5.1601 
G01 X-48.6753 Y4.9764 
G01 X-48.7858 Y4.8110 
G01 X-48.9264 Y4.6704 
G01 X-49.0917 Y4.5599 
G01 X-49.2755 Y4.4838 
G01 X-49.4706 Y4.4450 
G01 X-49.6694 Y4.4450 
G01 X-49.8645 Y4.4838 
G01 X-50.0482 Y4.5599 
G01 X-50.2136 Y4.6704 
G01 X-50.3542 Y4.8110 
G01 X-50.4647 Y4.9764 
G01 X-50.5408 Y5.1601 
G01 X-50.5796 Y5.3552 
G01 X-50.5796 Y7.3448 
G01 X-50.5408 Y7.5399 
G01 X-50.4647 Y7.7236 
G01 X-50.3542 Y7.8890 
G01 X-50.2136 Y8.0296 
G01 X-50.0482 Y8.1401 
G01 X-49.8645 Y8.2162 
G01 X-49.6694 Y8.2550 
G01 X-49.4706 Y8.2550 
G01 X-49.2755 Y8.2162 
G01 X-47.1946 Y10.2967 
G01 X-47.1267 Y10.3646 
G01 X-47.0380 Y10.4013 
G01 X-38.0520 Y10.4013 
G01 X-37.9633 Y10.3646 
G01 X-36.3343 Y8.7355 
G01 X-36.3343 Y9.9427 
G01 X-36.3169 Y9.9847 
G01 X-36.2847 Y10.0169 
G01 X-36.2427 Y10.0343 
G01 X-34.6973 Y10.0343 
G01 X-34.6553 Y10.0169 
G01 X-34.6231 Y9.9847 
G01 X-34.6057 Y9.9427 
G01 X-34.6057 Y5.2973 
G00 Z2.5400 
G00 X-33.3409 Y19.5453 
G01 Z-0.1200 F254.00 
G01 X-33.7947 Y19.9991 F508.00 
G01 X-33.7947 Y20.6409 
G01 X-35.8141 Y22.6651 
G01 X-35.8559 Y22.7374 
G01 X-35.8607 Y22.7556 
G01 X-35.9270 Y22.7831 
G01 X-36.0538 Y22.8679 
G01 X-36.1617 Y22.9758 
G01 X-36.2465 Y23.1026 
G01 X-36.3049 Y23.2436 
G01 X-36.3347 Y23.3933 
G01 X-36.3347 Y24.8667 
G01 X-36.3049 Y25.0164 
G01 X-36.2465 Y25.1574 
G01 X-36.1617 Y25.2842 
G01 X-36.0538 Y25.3921 
G01 X-36.0223 Y25.4133 
G01 X-36.9615 Y26.3525 
G01 X-41.9518 Y26.3525 
G01 X-42.0326 Y26.3741 
G01 X-42.1049 Y26.4159 
G01 X-42.1641 Y26.4750 
G01 X-42.2059 Y26.5474 
G01 X-42.2275 Y26.6282 
G01 X-42.2275 Y33.0618 
G01 X-42.2059 Y33.1425 
G01 X-42.1641 Y33.2149 
G01 X-42.1049 Y33.2741 
G01 X-42.0326 Y33.3159 
G01 X-41.9518 Y33.3375 
G01 X-20.6375 Y33.3375 
G01 X-20.6375 Y43.0959 
G01 X-20.6839 Y43.1151 
G01 X-20.8098 Y43.1992 
G01 X-20.9168 Y43.3062 
G01 X-21.0009 Y43.4321 
G01 X-21.0588 Y43.5719 
G01 X-21.0883 Y43.7203 
G01 X-21.0883 Y45.1797 
G01 X-21.0588 Y45.3281 
G01 X-21.0009 Y45.4679 
G01 X-20.9168 Y45.5938 
G01 X-20.8098 Y45.7008 
G01 X-20.6839 Y45.7849 
G01 X-20.5441 Y45.8428 
G01 X-20.3957 Y45.8723 
G01 X-20.2443 Y45.8723 
G01 X-20.0959 Y45.8428 
G01 X-19.9561 Y45.7849 
G01 X-19.8302 Y45.7008 
G01 X-19.7232 Y45.5938 
G01 X-19.6391 Y45.4679 
G01 X-19.5812 Y45.3281 
G01 X-19.5517 Y45.1797 
G01 X-19.5517 Y43.7203 
G01 X-19.5812 Y43.5719 
G01 X-19.6391 Y43.4321 
G01 X-19.7232 Y43.3062 
G01 X-19.8302 Y43.1992 
G01 X-19.9561 Y43.1151 
G01 X-20.0025 Y43.0959 
G01 X-20.0025 Y32.9782 
G01 X-20.0241 Y32.8974 
G01 X-20.0659 Y32.8250 
G01 X-20.1251 Y32.7659 
G01 X-20.1974 Y32.7241 
G01 X-20.2782 Y32.7025 
G01 X-41.5925 Y32.7025 
G01 X-41.5925 Y26.9875 
G01 X-36.7882 Y26.9875 
G01 X-36.7074 Y26.9659 
G01 X-36.6350 Y26.9241 
G01 X-35.3650 Y25.6541 
G01 X-35.3059 Y25.5949 
G01 X-35.2641 Y25.5225 
G01 X-35.2593 Y25.5044 
G01 X-35.1930 Y25.4769 
G01 X-35.0662 Y25.3921 
G01 X-34.9582 Y25.2842 
G01 X-34.8735 Y25.1574 
G01 X-34.8151 Y25.0164 
G01 X-34.7853 Y24.8667 
G01 X-34.7853 Y23.3933 
G01 X-34.8151 Y23.2436 
G01 X-34.8735 Y23.1026 
G01 X-34.9582 Y22.9758 
G01 X-35.0662 Y22.8679 
G01 X-35.0977 Y22.8467 
G01 X-33.3433 Y21.0923 
G01 X-32.6991 Y21.0947 
G01 X-32.2453 Y20.6409 
G01 X-32.2453 Y19.9991 
G01 X-32.6991 Y19.5453 
G01 X-33.3409 Y19.5453 
G00 Z2.5400 
G00 X-39.8399 Y19.9886 
G01 Z-0.1200 F254.00 
G01 X-39.8399 Y20.0025 F508.00 
G01 X-39.8653 Y20.0025 
G01 X-39.8653 Y19.9991 
G01 X-40.3191 Y19.5453 
G01 X-40.3225 Y19.5453 
G01 X-40.3225 Y19.5199 
G01 X-40.3086 Y19.5199 
G01 X-39.8399 Y19.9886 
G00 Z2.5400 
G00 X-39.8399 Y20.6375 
G01 Z-0.1200 F254.00 
G01 X-39.8399 Y20.6514 F508.00 
G01 X-40.3086 Y21.1201 
G01 X-40.3225 Y21.1201 
G01 X-40.3225 Y21.0947 
G01 X-40.3191 Y21.0947 
G01 X-39.8653 Y20.6409 
G01 X-39.8653 Y20.6375 
G01 X-39.8399 Y20.6375 
G00 Z2.5400 
G00 X-40.9575 Y21.0947 
G01 Z-0.1200 F254.00 
G01 X-40.9575 Y21.1201 F508.00 
G01 X-40.9714 Y21.1201 
G01 X-41.4401 Y20.6514 
G01 X-41.4401 Y20.6375 
G01 X-41.4147 Y20.6375 
G01 X-41.4147 Y20.6409 
G01 X-40.9609 Y21.0947 
G01 X-40.9575 Y21.0947 
G00 Z2.5400 
G00 X-40.9575 Y19.5453 
G01 Z-0.1200 F254.00 
G01 X-40.9609 Y19.5453 F508.00 
G01 X-41.4147 Y19.9991 
G01 X-41.4147 Y20.0025 
G01 X-41.4401 Y20.0025 
G01 X-41.4401 Y19.9886 
G01 X-40.9714 Y19.5199 
G01 X-40.9575 Y19.5199 
G01 X-40.9575 Y19.5453 
G00 Z2.5400 
G00 X-38.5898 Y27.9592 
G01 Z-0.1200 F254.00 
G01 X-38.6968 Y28.0662 F508.00 
G01 X-38.7809 Y28.1921 
G01 X-38.8388 Y28.3319 
G01 X-38.8683 Y28.4803 
G01 X-38.8683 Y29.9397 
G01 X-38.8388 Y30.0881 
G01 X-38.7809 Y30.2279 
G01 X-38.6968 Y30.3538 
G01 X-38.5898 Y30.4608 
G01 X-38.4639 Y30.5449 
G01 X-38.3241 Y30.6028 
G01 X-38.1757 Y30.6323 
G01 X-38.0243 Y30.6323 
G01 X-37.8759 Y30.6028 
G01 X-37.7361 Y30.5449 
G01 X-37.6102 Y30.4608 
G01 X-37.5032 Y30.3538 
G01 X-37.4191 Y30.2279 
G01 X-37.3612 Y30.0881 
G01 X-37.3317 Y29.9397 
G01 X-37.3317 Y28.4803 
G01 X-37.3612 Y28.3319 
G01 X-37.4191 Y28.1921 
G01 X-37.5032 Y28.0662 
G01 X-37.6102 Y27.9592 
G01 X-37.7361 Y27.8751 
G01 X-37.8759 Y27.8172 
G01 X-38.0243 Y27.7877 
G01 X-38.1757 Y27.7877 
G01 X-38.3241 Y27.8172 
G01 X-38.4639 Y27.8751 
G01 X-38.5898 Y27.9592 
G00 Z2.5400 
G00 X-36.0498 Y27.9592 
G01 Z-0.1200 F254.00 
G01 X-36.1568 Y28.0662 F508.00 
G01 X-36.2409 Y28.1921 
G01 X-36.2988 Y28.3319 
G01 X-36.3283 Y28.4803 
G01 X-36.3283 Y29.9397 
G01 X-36.2988 Y30.0881 
G01 X-36.2409 Y30.2279 
G01 X-36.1568 Y30.3538 
G01 X-36.0498 Y30.4608 
G01 X-35.9239 Y30.5449 
G01 X-35.7841 Y30.6028 
G01 X-35.6357 Y30.6323 
G01 X-35.4843 Y30.6323 
G01 X-35.3359 Y30.6028 
G01 X-35.1961 Y30.5449 
G01 X-35.0702 Y30.4608 
G01 X-34.9632 Y30.3538 
G01 X-34.8791 Y30.2279 
G01 X-34.8212 Y30.0881 
G01 X-34.7917 Y29.9397 
G01 X-34.7917 Y28.4803 
G01 X-34.8212 Y28.3319 
G01 X-34.8791 Y28.1921 
G01 X-34.9632 Y28.0662 
G01 X-35.0702 Y27.9592 
G01 X-35.1961 Y27.8751 
G01 X-35.3359 Y27.8172 
G01 X-35.4843 Y27.7877 
G01 X-35.6357 Y27.7877 
G01 X-35.7841 Y27.8172 
G01 X-35.9239 Y27.8751 
G01 X-36.0498 Y27.9592 
G00 Z2.5400 
G00 X-33.5098 Y27.9592 
G01 Z-0.1200 F254.00 
G01 X-33.6168 Y28.0662 F508.00 
G01 X-33.7009 Y28.1921 
G01 X-33.7588 Y28.3319 
G01 X-33.7883 Y28.4803 
G01 X-33.7883 Y29.9397 
G01 X-33.7588 Y30.0881 
G01 X-33.7009 Y30.2279 
G01 X-33.6168 Y30.3538 
G01 X-33.5098 Y30.4608 
G01 X-33.3839 Y30.5449 
G01 X-33.2441 Y30.6028 
G01 X-33.0957 Y30.6323 
G01 X-32.9443 Y30.6323 
G01 X-32.7959 Y30.6028 
G01 X-32.6561 Y30.5449 
G01 X-32.5302 Y30.4608 
G01 X-32.4232 Y30.3538 
G01 X-32.3391 Y30.2279 
G01 X-32.2812 Y30.0881 
G01 X-32.2517 Y29.9397 
G01 X-32.2517 Y28.4803 
G01 X-32.2812 Y28.3319 
G01 X-32.3391 Y28.1921 
G01 X-32.4232 Y28.0662 
G01 X-32.5302 Y27.9592 
G01 X-32.6561 Y27.8751 
G01 X-32.7959 Y27.8172 
G01 X-32.9443 Y27.7877 
G01 X-33.0957 Y27.7877 
G01 X-33.2441 Y27.8172 
G01 X-33.3839 Y27.8751 
G01 X-33.5098 Y27.9592 
G00 Z2.5400 
G00 X-30.9698 Y27.9592 
G01 Z-0.1200 F254.00 
G01 X-31.0768 Y28.0662 F508.00 
G01 X-31.1609 Y28.1921 
G01 X-31.2188 Y28.3319 
G01 X-31.2483 Y28.4803 
G01 X-31.2483 Y29.9397 
G01 X-31.2188 Y30.0881 
G01 X-31.1609 Y30.2279 
G01 X-31.0768 Y30.3538 
G01 X-30.9698 Y30.4608 
G01 X-30.8439 Y30.5449 
G01 X-30.7041 Y30.6028 
G01 X-30.5557 Y30.6323 
G01 X-30.4043 Y30.6323 
G01 X-30.2559 Y30.6028 
G01 X-30.1161 Y30.5449 
G01 X-29.9902 Y30.4608 
G01 X-29.8832 Y30.3538 
G01 X-29.7991 Y30.2279 
G01 X-29.7412 Y30.0881 
G01 X-29.7117 Y29.9397 
G01 X-29.7117 Y28.4803 
G01 X-29.7412 Y28.3319 
G01 X-29.7991 Y28.1921 
G01 X-29.8832 Y28.0662 
G01 X-29.9902 Y27.9592 
G01 X-30.1161 Y27.8751 
G01 X-30.2559 Y27.8172 
G01 X-30.4043 Y27.7877 
G01 X-30.5557 Y27.7877 
G01 X-30.7041 Y27.8172 
G01 X-30.8439 Y27.8751 
G01 X-30.9698 Y27.9592 
G00 Z2.5400 
G00 X-31.0059 Y34.9425 
G01 Z-0.1200 F254.00 
G01 X-31.0479 Y34.9599 F508.00 
G01 X-31.0801 Y34.9921 
G01 X-31.0975 Y35.0341 
G01 X-31.0975 Y35.2425 
G01 X-43.5737 Y35.2425 
G01 X-43.5737 Y34.7117 
G01 X-43.6074 Y34.5424 
G01 X-43.6734 Y34.3829 
G01 X-43.7693 Y34.2394 
G01 X-43.8914 Y34.1173 
G01 X-44.0349 Y34.0214 
G01 X-44.1944 Y33.9554 
G01 X-44.3637 Y33.9217 
G01 X-44.5363 Y33.9217 
G01 X-44.7056 Y33.9554 
G01 X-44.8651 Y34.0214 
G01 X-45.0086 Y34.1173 
G01 X-45.1307 Y34.2394 
G01 X-45.2266 Y34.3829 
G01 X-45.2926 Y34.5424 
G01 X-45.3263 Y34.7117 
G01 X-45.3263 Y36.4083 
G01 X-45.2926 Y36.5776 
G01 X-45.2266 Y36.7371 
G01 X-45.1307 Y36.8806 
G01 X-45.0086 Y37.0027 
G01 X-44.8651 Y37.0986 
G01 X-44.7056 Y37.1646 
G01 X-44.5363 Y37.1983 
G01 X-44.3637 Y37.1983 
G01 X-44.1944 Y37.1646 
G01 X-44.0349 Y37.0986 
G01 X-43.8914 Y37.0027 
G01 X-43.7693 Y36.8806 
G01 X-43.6734 Y36.7371 
G01 X-43.6074 Y36.5776 
G01 X-43.5737 Y36.4083 
G01 X-43.5737 Y35.8775 
G01 X-31.0975 Y35.8775 
G01 X-31.0975 Y36.0859 
G01 X-31.0801 Y36.1279 
G01 X-31.0479 Y36.1601 
G01 X-31.0059 Y36.1775 
G01 X-29.9541 Y36.1775 
G01 X-29.9121 Y36.1601 
G01 X-29.8799 Y36.1279 
G01 X-29.8625 Y36.0859 
G01 X-29.8625 Y35.0341 
G01 X-29.8799 Y34.9921 
G01 X-29.9121 Y34.9599 
G01 X-29.9541 Y34.9425 
G01 X-31.0059 Y34.9425 
G00 Z2.5400 
G00 X-31.1532 Y39.4962 
G01 Z-0.1200 F254.00 
G01 X-31.2602 Y39.3892 F508.00 
G01 X-31.3861 Y39.3051 
G01 X-31.5259 Y39.2472 
G01 X-31.6743 Y39.2177 
G01 X-31.8257 Y39.2177 
G01 X-31.9741 Y39.2472 
G01 X-32.1139 Y39.3051 
G01 X-32.2398 Y39.3892 
G01 X-32.3468 Y39.4962 
G01 X-32.4309 Y39.6221 
G01 X-32.4888 Y39.7619 
G01 X-32.5183 Y39.9103 
G01 X-32.5183 Y41.3697 
G01 X-32.4888 Y41.5181 
G01 X-32.4309 Y41.6579 
G01 X-32.3468 Y41.7838 
G01 X-32.2398 Y41.8908 
G01 X-32.1139 Y41.9749 
G01 X-31.9741 Y42.0328 
G01 X-31.8257 Y42.0623 
G01 X-31.6743 Y42.0623 
G01 X-31.5259 Y42.0328 
G01 X-31.3861 Y41.9749 
G01 X-31.2602 Y41.8908 
G01 X-31.1532 Y41.7838 
G01 X-31.0691 Y41.6579 
G01 X-31.0112 Y41.5181 
G01 X-30.9817 Y41.3697 
G01 X-30.9817 Y39.9103 
G01 X-31.0112 Y39.7619 
G01 X-31.0691 Y39.6221 
G01 X-31.1532 Y39.4962 
G00 Z2.5400 
G00 X-29.8068 Y39.4962 
G01 Z-0.1200 F254.00 
G01 X-29.8909 Y39.6221 F508.00 
G01 X-29.9488 Y39.7619 
G01 X-29.9783 Y39.9103 
G01 X-29.9783 Y41.3697 
G01 X-29.9488 Y41.5181 
G01 X-29.8909 Y41.6579 
G01 X-29.8068 Y41.7838 
G01 X-29.6998 Y41.8908 
G01 X-29.5739 Y41.9749 
G01 X-29.4341 Y42.0328 
G01 X-29.2857 Y42.0623 
G01 X-29.1343 Y42.0623 
G01 X-28.9859 Y42.0328 
G01 X-28.8461 Y41.9749 
G01 X-28.7202 Y41.8908 
G01 X-28.6132 Y41.7838 
G01 X-28.5291 Y41.6579 
G01 X-28.4712 Y41.5181 
G01 X-28.4417 Y41.3697 
G01 X-28.4417 Y39.9103 
G01 X-28.4712 Y39.7619 
G01 X-28.5291 Y39.6221 
G01 X-28.6132 Y39.4962 
G01 X-28.7202 Y39.3892 
G01 X-28.8461 Y39.3051 
G01 X-28.9859 Y39.2472 
G01 X-29.1343 Y39.2177 
G01 X-29.2857 Y39.2177 
G01 X-29.4341 Y39.2472 
G01 X-29.5739 Y39.3051 
G01 X-29.6998 Y39.3892 
G01 X-29.8068 Y39.4962 
G00 Z2.5400 
G00 X-29.8832 Y43.3062 
G01 Z-0.1200 F254.00 
G01 X-29.9902 Y43.1992 F508.00 
G01 X-30.1161 Y43.1151 
G01 X-30.2559 Y43.0572 
G01 X-30.4043 Y43.0277 
G01 X-30.5557 Y43.0277 
G01 X-30.7041 Y43.0572 
G01 X-30.8439 Y43.1151 
G01 X-30.9698 Y43.1992 
G01 X-31.0768 Y43.3062 
G01 X-31.1609 Y43.4321 
G01 X-31.2188 Y43.5719 
G01 X-31.2483 Y43.7203 
G01 X-31.2483 Y45.1797 
G01 X-31.2188 Y45.3281 
G01 X-31.1609 Y45.4679 
G01 X-31.0768 Y45.5938 
G01 X-30.9698 Y45.7008 
G01 X-30.8439 Y45.7849 
G01 X-30.7041 Y45.8428 
G01 X-30.5557 Y45.8723 
G01 X-30.4043 Y45.8723 
G01 X-30.2559 Y45.8428 
G01 X-30.1161 Y45.7849 
G01 X-29.9902 Y45.7008 
G01 X-29.8832 Y45.5938 
G01 X-29.7991 Y45.4679 
G01 X-29.7412 Y45.3281 
G01 X-29.7117 Y45.1797 
G01 X-29.7117 Y43.7203 
G01 X-29.7412 Y43.5719 
G01 X-29.7991 Y43.4321 
G01 X-29.8832 Y43.3062 
G00 Z2.5400 
G00 X-28.5368 Y43.3062 
G01 Z-0.1200 F254.00 
G01 X-28.6209 Y43.4321 F508.00 
G01 X-28.6788 Y43.5719 
G01 X-28.7083 Y43.7203 
G01 X-28.7083 Y45.1797 
G01 X-28.6788 Y45.3281 
G01 X-28.6209 Y45.4679 
G01 X-28.5368 Y45.5938 
G01 X-28.4298 Y45.7008 
G01 X-28.3039 Y45.7849 
G01 X-28.1641 Y45.8428 
G01 X-28.0157 Y45.8723 
G01 X-27.8643 Y45.8723 
G01 X-27.7159 Y45.8428 
G01 X-27.5761 Y45.7849 
G01 X-27.4502 Y45.7008 
G01 X-27.3432 Y45.5938 
G01 X-27.2591 Y45.4679 
G01 X-27.2012 Y45.3281 
G01 X-27.1717 Y45.1797 
G01 X-27.1717 Y43.7203 
G01 X-27.2012 Y43.5719 
G01 X-27.2591 Y43.4321 
G01 X-27.3432 Y43.3062 
G01 X-27.4502 Y43.1992 
G01 X-27.5761 Y43.1151 
G01 X-27.7159 Y43.0572 
G01 X-27.8643 Y43.0277 
G01 X-28.0157 Y43.0277 
G01 X-28.1641 Y43.0572 
G01 X-28.3039 Y43.1151 
G01 X-28.4298 Y43.1992 
G01 X-28.5368 Y43.3062 
G00 Z2.5400 
G00 X-25.9968 Y43.3062 
G01 Z-0.1200 F254.00 
G01 X-26.0809 Y43.4321 F508.00 
G01 X-26.1388 Y43.5719 
G01 X-26.1683 Y43.7203 
G01 X-26.1683 Y45.1797 
G01 X-26.1388 Y45.3281 
G01 X-26.0809 Y45.4679 
G01 X-25.9968 Y45.5938 
G01 X-25.8898 Y45.7008 
G01 X-25.7639 Y45.7849 
G01 X-25.6241 Y45.8428 
G01 X-25.4757 Y45.8723 
G01 X-25.3243 Y45.8723 
G01 X-25.1759 Y45.8428 
G01 X-25.0361 Y45.7849 
G01 X-24.9102 Y45.7008 
G01 X-24.8032 Y45.5938 
G01 X-24.7191 Y45.4679 
G01 X-24.6612 Y45.3281 
G01 X-24.6317 Y45.1797 
G01 X-24.6317 Y43.7203 
G01 X-24.6612 Y43.5719 
G01 X-24.7191 Y43.4321 
G01 X-24.8032 Y43.3062 
G01 X-24.9102 Y43.1992 
G01 X-25.0361 Y43.1151 
G01 X-25.1759 Y43.0572 
G01 X-25.3243 Y43.0277 
G01 X-25.4757 Y43.0277 
G01 X-25.6241 Y43.0572 
G01 X-25.7639 Y43.1151 
G01 X-25.8898 Y43.1992 
G01 X-25.9968 Y43.3062 
G00 Z2.5400 
G00 X-23.4568 Y43.3062 
G01 Z-0.1200 F254.00 
G01 X-23.5409 Y43.4321 F508.00 
G01 X-23.5988 Y43.5719 
G01 X-23.6283 Y43.7203 
G01 X-23.6283 Y45.1797 
G01 X-23.5988 Y45.3281 
G01 X-23.5409 Y45.4679 
G01 X-23.4568 Y45.5938 
G01 X-23.3498 Y45.7008 
G01 X-23.3138 Y45.7248 
G01 X-24.2615 Y46.6725 
G01 X-45.5885 Y46.6725 
G01 X-50.5459 Y41.7150 
G01 X-50.6050 Y41.6559 
G01 X-50.6774 Y41.6141 
G01 X-50.7582 Y41.5925 
G01 X-56.3753 Y41.5925 
G01 X-56.3753 Y41.5891 
G01 X-56.8291 Y41.1353 
G01 X-57.4709 Y41.1353 
G01 X-57.9247 Y41.5891 
G01 X-57.9247 Y42.2309 
G01 X-57.4709 Y42.6847 
G01 X-56.8291 Y42.6847 
G01 X-56.3753 Y42.2309 
G01 X-56.3753 Y42.2275 
G01 X-50.9315 Y42.2275 
G01 X-45.9149 Y47.2441 
G01 X-45.8426 Y47.2859 
G01 X-45.7618 Y47.3075 
G01 X-24.0882 Y47.3075 
G01 X-24.0074 Y47.2859 
G01 X-23.9351 Y47.2441 
G01 X-23.8759 Y47.1849 
G01 X-22.6059 Y45.9149 
G01 X-22.5641 Y45.8426 
G01 X-22.5552 Y45.8094 
G01 X-22.4961 Y45.7849 
G01 X-22.3702 Y45.7008 
G01 X-22.2632 Y45.5938 
G01 X-22.1791 Y45.4679 
G01 X-22.1212 Y45.3281 
G01 X-22.0917 Y45.1797 
G01 X-22.0917 Y43.7203 
G01 X-22.1212 Y43.5719 
G01 X-22.1791 Y43.4321 
G01 X-22.2632 Y43.3062 
G01 X-22.3702 Y43.1992 
G01 X-22.4961 Y43.1151 
G01 X-22.6359 Y43.0572 
G01 X-22.7843 Y43.0277 
G01 X-22.9357 Y43.0277 
G01 X-23.0841 Y43.0572 
G01 X-23.2239 Y43.1151 
G01 X-23.3498 Y43.1992 
G01 X-23.4568 Y43.3062 
G00 Z2.5400 
G00 X-22.1868 Y41.7838 
G01 Z-0.1200 F254.00 
G01 X-22.0798 Y41.8908 F508.00 
G01 X-21.9539 Y41.9749 
G01 X-21.8141 Y42.0328 
G01 X-21.6657 Y42.0623 
G01 X-21.5143 Y42.0623 
G01 X-21.3659 Y42.0328 
G01 X-21.2261 Y41.9749 
G01 X-21.1002 Y41.8908 
G01 X-20.9932 Y41.7838 
G01 X-20.9091 Y41.6579 
G01 X-20.8512 Y41.5181 
G01 X-20.8217 Y41.3697 
G01 X-20.8217 Y39.9103 
G01 X-20.8512 Y39.7619 
G01 X-20.9091 Y39.6221 
G01 X-20.9932 Y39.4962 
G01 X-21.1002 Y39.3892 
G01 X-21.2261 Y39.3051 
G01 X-21.3659 Y39.2472 
G01 X-21.5143 Y39.2177 
G01 X-21.6657 Y39.2177 
G01 X-21.8141 Y39.2472 
G01 X-21.9113 Y39.2875 
G01 X-22.5616 Y37.9868 
G01 X-22.5641 Y37.9774 
G01 X-22.5803 Y37.9495 
G01 X-22.5947 Y37.9206 
G01 X-22.6011 Y37.9134 
G01 X-22.6059 Y37.9051 
G01 X-22.6287 Y37.8822 
G01 X-22.6502 Y37.8581 
G01 X-22.6582 Y37.8528 
G01 X-22.6651 Y37.8459 
G01 X-22.6930 Y37.8298 
G01 X-22.7199 Y37.8120 
G01 X-22.7291 Y37.8090 
G01 X-22.7374 Y37.8041 
G01 X-22.7686 Y37.7958 
G01 X-22.7993 Y37.7856 
G01 X-22.8089 Y37.7850 
G01 X-22.8182 Y37.7825 
G01 X-22.8505 Y37.7825 
G01 X-22.8827 Y37.7806 
G01 X-22.8922 Y37.7825 
G01 X-49.2125 Y37.7825 
G01 X-49.2125 Y37.1390 
G01 X-49.1149 Y37.0986 
G01 X-48.9714 Y37.0027 
G01 X-48.8493 Y36.8806 
G01 X-48.7534 Y36.7371 
G01 X-48.6874 Y36.5776 
G01 X-48.6537 Y36.4083 
G01 X-48.6537 Y34.7117 
G01 X-48.6874 Y34.5424 
G01 X-48.7534 Y34.3829 
G01 X-48.8493 Y34.2394 
G01 X-48.9714 Y34.1173 
G01 X-49.1149 Y34.0214 
G01 X-49.2744 Y33.9554 
G01 X-49.4437 Y33.9217 
G01 X-49.6163 Y33.9217 
G01 X-49.7856 Y33.9554 
G01 X-49.9451 Y34.0214 
G01 X-50.0886 Y34.1173 
G01 X-50.2107 Y34.2394 
G01 X-50.3066 Y34.3829 
G01 X-50.3726 Y34.5424 
G01 X-50.4063 Y34.7117 
G01 X-50.4063 Y36.4083 
G01 X-50.3726 Y36.5776 
G01 X-50.3066 Y36.7371 
G01 X-50.2107 Y36.8806 
G01 X-50.0886 Y37.0027 
G01 X-49.9451 Y37.0986 
G01 X-49.8475 Y37.1390 
G01 X-49.8475 Y38.1418 
G01 X-49.8259 Y38.2225 
G01 X-49.7841 Y38.2949 
G01 X-49.7249 Y38.3541 
G01 X-49.6525 Y38.3959 
G01 X-49.5718 Y38.4175 
G01 X-23.0562 Y38.4175 
G01 X-22.3445 Y39.8409 
G01 X-22.3583 Y39.9103 
G01 X-22.3583 Y41.3697 
G01 X-22.3288 Y41.5181 
G01 X-22.2709 Y41.6579 
G01 X-22.1868 Y41.7838 
G00 Z2.5400 
G00 X-19.6468 Y41.7838 
G01 Z-0.1200 F254.00 
G01 X-19.5398 Y41.8908 F508.00 
G01 X-19.4139 Y41.9749 
G01 X-19.2741 Y42.0328 
G01 X-19.1257 Y42.0623 
G01 X-18.9743 Y42.0623 
G01 X-18.8259 Y42.0328 
G01 X-18.6861 Y41.9749 
G01 X-18.5602 Y41.8908 
G01 X-18.4532 Y41.7838 
G01 X-18.3691 Y41.6579 
G01 X-18.3112 Y41.5181 
G01 X-18.2817 Y41.3697 
G01 X-18.2817 Y39.9103 
G01 X-18.3112 Y39.7619 
G01 X-18.3691 Y39.6221 
G01 X-18.4532 Y39.4962 
G01 X-18.5602 Y39.3892 
G01 X-18.6861 Y39.3051 
G01 X-18.7325 Y39.2859 
G01 X-18.7325 Y36.1775 
G01 X-18.5241 Y36.1775 
G01 X-18.4821 Y36.1601 
G01 X-18.4499 Y36.1279 
G01 X-18.4325 Y36.0859 
G01 X-18.4325 Y35.0341 
G01 X-18.4499 Y34.9921 
G01 X-18.4821 Y34.9599 
G01 X-18.5241 Y34.9425 
G01 X-19.5759 Y34.9425 
G01 X-19.6179 Y34.9599 
G01 X-19.6501 Y34.9921 
G01 X-19.6675 Y35.0341 
G01 X-19.6675 Y36.0859 
G01 X-19.6501 Y36.1279 
G01 X-19.6179 Y36.1601 
G01 X-19.5759 Y36.1775 
G01 X-19.3675 Y36.1775 
G01 X-19.3675 Y39.2859 
G01 X-19.4139 Y39.3051 
G01 X-19.5398 Y39.3892 
G01 X-19.6468 Y39.4962 
G01 X-19.7309 Y39.6221 
G01 X-19.7888 Y39.7619 
G01 X-19.8183 Y39.9103 
G01 X-19.8183 Y41.3697 
G01 X-19.7888 Y41.5181 
G01 X-19.7309 Y41.6579 
G01 X-19.6468 Y41.7838 
G00 Z2.5400 
G00 X-15.7298 Y43.1992 
G01 Z-0.1200 F254.00 
G01 X-15.8368 Y43.3062 F508.00 
G01 X-15.9209 Y43.4321 
G01 X-15.9788 Y43.5719 
G01 X-16.0083 Y43.7203 
G01 X-16.0083 Y45.1797 
G01 X-15.9788 Y45.3281 
G01 X-15.9209 Y45.4679 
G01 X-15.8368 Y45.5938 
G01 X-15.7298 Y45.7008 
G01 X-15.6039 Y45.7849 
G01 X-15.4641 Y45.8428 
G01 X-15.3157 Y45.8723 
G01 X-15.1643 Y45.8723 
G01 X-15.0159 Y45.8428 
G01 X-14.8761 Y45.7849 
G01 X-14.7502 Y45.7008 
G01 X-14.6432 Y45.5938 
G01 X-14.5591 Y45.4679 
G01 X-14.5012 Y45.3281 
G01 X-14.4717 Y45.1797 
G01 X-14.4717 Y43.7203 
G01 X-14.5012 Y43.5719 
G01 X-14.5591 Y43.4321 
G01 X-14.6432 Y43.3062 
G01 X-14.7502 Y43.1992 
G01 X-14.8761 Y43.1151 
G01 X-15.0159 Y43.0572 
G01 X-15.1643 Y43.0277 
G01 X-15.3157 Y43.0277 
G01 X-15.4641 Y43.0572 
G01 X-15.6039 Y43.1151 
G01 X-15.7298 Y43.1992 
G00 Z2.5400 
G00 X-10.6498 Y43.1992 
G01 Z-0.1200 F254.00 
G01 X-10.7568 Y43.3062 F508.00 
G01 X-10.8409 Y43.4321 
G01 X-10.8988 Y43.5719 
G01 X-10.9283 Y43.7203 
G01 X-10.9283 Y45.1797 
G01 X-10.8988 Y45.3281 
G01 X-10.8409 Y45.4679 
G01 X-10.7568 Y45.5938 
G01 X-10.6498 Y45.7008 
G01 X-10.5239 Y45.7849 
G01 X-10.3841 Y45.8428 
G01 X-10.2357 Y45.8723 
G01 X-10.0843 Y45.8723 
G01 X-9.9359 Y45.8428 
G01 X-9.7961 Y45.7849 
G01 X-9.6702 Y45.7008 
G01 X-9.5632 Y45.5938 
G01 X-9.4791 Y45.4679 
G01 X-9.4212 Y45.3281 
G01 X-9.3917 Y45.1797 
G01 X-9.3917 Y43.7203 
G01 X-9.4212 Y43.5719 
G01 X-9.4791 Y43.4321 
G01 X-9.5632 Y43.3062 
G01 X-9.6702 Y43.1992 
G01 X-9.7961 Y43.1151 
G01 X-9.9359 Y43.0572 
G01 X-10.0843 Y43.0277 
G01 X-10.2357 Y43.0277 
G01 X-10.3841 Y43.0572 
G01 X-10.5239 Y43.1151 
G01 X-10.6498 Y43.1992 
G00 Z2.5400 
G00 X-9.0423 Y43.2557 
G01 Z-0.1200 F254.00 
G01 X-9.0128 Y43.4041 F508.00 
G01 X-8.9549 Y43.5439 
G01 X-8.8708 Y43.6698 
G01 X-8.7638 Y43.7768 
G01 X-8.6379 Y43.8609 
G01 X-8.4981 Y43.9188 
G01 X-8.3497 Y43.9483 
G01 X-6.8903 Y43.9483 
G01 X-6.7419 Y43.9188 
G01 X-6.6021 Y43.8609 
G01 X-6.4762 Y43.7768 
G01 X-6.3692 Y43.6698 
G01 X-6.2851 Y43.5439 
G01 X-6.2272 Y43.4041 
G01 X-6.1977 Y43.2557 
G01 X-6.1977 Y43.1043 
G01 X-6.2272 Y42.9559 
G01 X-6.2851 Y42.8161 
G01 X-6.3692 Y42.6902 
G01 X-6.4762 Y42.5832 
G01 X-6.6021 Y42.4991 
G01 X-6.7419 Y42.4412 
G01 X-6.8903 Y42.4117 
G01 X-8.3497 Y42.4117 
G01 X-8.4981 Y42.4412 
G01 X-8.6379 Y42.4991 
G01 X-8.7638 Y42.5832 
G01 X-8.8708 Y42.6902 
G01 X-8.9549 Y42.8161 
G01 X-9.0128 Y42.9559 
G01 X-9.0423 Y43.1043 
G01 X-9.0423 Y43.2557 
G00 Z2.5400 
G00 X-8.8708 Y41.1298 
G01 Z-0.1200 F254.00 
G01 X-8.7638 Y41.2368 F508.00 
G01 X-8.6379 Y41.3209 
G01 X-8.4981 Y41.3788 
G01 X-8.3497 Y41.4083 
G01 X-6.8903 Y41.4083 
G01 X-6.7419 Y41.3788 
G01 X-6.6021 Y41.3209 
G01 X-6.4762 Y41.2368 
G01 X-6.3692 Y41.1298 
G01 X-6.2851 Y41.0039 
G01 X-6.2272 Y40.8641 
G01 X-6.1977 Y40.7157 
G01 X-6.1977 Y40.5643 
G01 X-6.2272 Y40.4159 
G01 X-6.2851 Y40.2761 
G01 X-6.3692 Y40.1502 
G01 X-6.4762 Y40.0432 
G01 X-6.6021 Y39.9591 
G01 X-6.7419 Y39.9012 
G01 X-6.8903 Y39.8717 
G01 X-8.3497 Y39.8717 
G01 X-8.4981 Y39.9012 
G01 X-8.6379 Y39.9591 
G01 X-8.7638 Y40.0432 
G01 X-8.8708 Y40.1502 
G01 X-8.9549 Y40.2761 
G01 X-9.0128 Y40.4159 
G01 X-9.0423 Y40.5643 
G01 X-9.0423 Y40.7157 
G01 X-9.0128 Y40.8641 
G01 X-8.9549 Y41.0039 
G01 X-8.8708 Y41.1298 
G00 Z2.5400 
G00 X-8.8708 Y38.5898 
G01 Z-0.1200 F254.00 
G01 X-8.7638 Y38.6968 F508.00 
G01 X-8.6379 Y38.7809 
G01 X-8.4981 Y38.8388 
G01 X-8.3497 Y38.8683 
G01 X-6.8903 Y38.8683 
G01 X-6.7419 Y38.8388 
G01 X-6.6021 Y38.7809 
G01 X-6.4762 Y38.6968 
G01 X-6.3692 Y38.5898 
G01 X-6.2851 Y38.4639 
G01 X-6.2272 Y38.3241 
G01 X-6.1977 Y38.1757 
G01 X-6.1977 Y38.0243 
G01 X-6.2272 Y37.8759 
G01 X-6.2851 Y37.7361 
G01 X-6.3692 Y37.6102 
G01 X-6.4762 Y37.5032 
G01 X-6.6021 Y37.4191 
G01 X-6.7419 Y37.3612 
G01 X-6.8903 Y37.3317 
G01 X-8.3497 Y37.3317 
G01 X-8.4981 Y37.3612 
G01 X-8.6379 Y37.4191 
G01 X-8.7638 Y37.5032 
G01 X-8.8708 Y37.6102 
G01 X-8.9549 Y37.7361 
G01 X-9.0128 Y37.8759 
G01 X-9.0423 Y38.0243 
G01 X-9.0423 Y38.1757 
G01 X-9.0128 Y38.3241 
G01 X-8.9549 Y38.4639 
G01 X-8.8708 Y38.5898 
G00 Z2.5400 
G00 X-8.8708 Y36.0498 
G01 Z-0.1200 F254.00 
G01 X-8.7638 Y36.1568 F508.00 
G01 X-8.6379 Y36.2409 
G01 X-8.4981 Y36.2988 
G01 X-8.3497 Y36.3283 
G01 X-6.8903 Y36.3283 
G01 X-6.7419 Y36.2988 
G01 X-6.6021 Y36.2409 
G01 X-6.4762 Y36.1568 
G01 X-6.3692 Y36.0498 
G01 X-6.2851 Y35.9239 
G01 X-6.2272 Y35.7841 
G01 X-6.1977 Y35.6357 
G01 X-6.1977 Y35.4843 
G01 X-6.2272 Y35.3359 
G01 X-6.2851 Y35.1961 
G01 X-6.3692 Y35.0702 
G01 X-6.4762 Y34.9632 
G01 X-6.6021 Y34.8791 
G01 X-6.7419 Y34.8212 
G01 X-6.8903 Y34.7917 
G01 X-8.3497 Y34.7917 
G01 X-8.4981 Y34.8212 
G01 X-8.6379 Y34.8791 
G01 X-8.7638 Y34.9632 
G01 X-8.8708 Y35.0702 
G01 X-8.9549 Y35.1961 
G01 X-9.0128 Y35.3359 
G01 X-9.0423 Y35.4843 
G01 X-9.0423 Y35.6357 
G01 X-9.0128 Y35.7841 
G01 X-8.9549 Y35.9239 
G01 X-8.8708 Y36.0498 
G00 Z2.5400 
G00 X-8.8708 Y33.5098 
G01 Z-0.1200 F254.00 
G01 X-8.7638 Y33.6168 F508.00 
G01 X-8.6379 Y33.7009 
G01 X-8.4981 Y33.7588 
G01 X-8.3497 Y33.7883 
G01 X-6.8903 Y33.7883 
G01 X-6.7419 Y33.7588 
G01 X-6.6021 Y33.7009 
G01 X-6.4762 Y33.6168 
G01 X-6.3692 Y33.5098 
G01 X-6.2851 Y33.3839 
G01 X-6.2272 Y33.2441 
G01 X-6.1977 Y33.0957 
G01 X-6.1977 Y32.9443 
G01 X-6.2272 Y32.7959 
G01 X-6.2851 Y32.6561 
G01 X-6.3692 Y32.5302 
G01 X-6.4762 Y32.4232 
G01 X-6.6021 Y32.3391 
G01 X-6.7419 Y32.2812 
G01 X-6.8903 Y32.2517 
G01 X-8.3497 Y32.2517 
G01 X-8.4981 Y32.2812 
G01 X-8.6379 Y32.3391 
G01 X-8.7638 Y32.4232 
G01 X-8.8708 Y32.5302 
G01 X-8.9549 Y32.6561 
G01 X-9.0128 Y32.7959 
G01 X-9.0423 Y32.9443 
G01 X-9.0423 Y33.0957 
G01 X-9.0128 Y33.2441 
G01 X-8.9549 Y33.3839 
G01 X-8.8708 Y33.5098 
G00 Z2.5400 
G00 X-8.8708 Y30.9698 
G01 Z-0.1200 F254.00 
G01 X-8.7638 Y31.0768 F508.00 
G01 X-8.6379 Y31.1609 
G01 X-8.4981 Y31.2188 
G01 X-8.3497 Y31.2483 
G01 X-6.8903 Y31.2483 
G01 X-6.7419 Y31.2188 
G01 X-6.6021 Y31.1609 
G01 X-6.4762 Y31.0768 
G01 X-6.3692 Y30.9698 
G01 X-6.2851 Y30.8439 
G01 X-6.2272 Y30.7041 
G01 X-6.1977 Y30.5557 
G01 X-6.1977 Y30.4043 
G01 X-6.2272 Y30.2559 
G01 X-6.2851 Y30.1161 
G01 X-6.3692 Y29.9902 
G01 X-6.4762 Y29.8832 
G01 X-6.6021 Y29.7991 
G01 X-6.7419 Y29.7412 
G01 X-6.8903 Y29.7117 
G01 X-8.3497 Y29.7117 
G01 X-8.4981 Y29.7412 
G01 X-8.6379 Y29.7991 
G01 X-8.7638 Y29.8832 
G01 X-8.8708 Y29.9902 
G01 X-8.9549 Y30.1161 
G01 X-9.0128 Y30.2559 
G01 X-9.0423 Y30.4043 
G01 X-9.0423 Y30.5557 
G01 X-9.0128 Y30.7041 
G01 X-8.9549 Y30.8439 
G01 X-8.8708 Y30.9698 
G00 Z2.5400 
G00 X-4.6101 Y33.9586 
G01 Z-0.1200 F254.00 
G01 X-4.1414 Y33.4899 F508.00 
G01 X-4.1275 Y33.4899 
G01 X-4.1275 Y33.5153 
G01 X-4.1309 Y33.5153 
G01 X-4.5847 Y33.9691 
G01 X-4.5847 Y33.9725 
G01 X-4.6101 Y33.9725 
G01 X-4.6101 Y33.9586 
G00 Z2.5400 
G00 X-4.6101 Y34.6075 
G01 Z-0.1200 F254.00 
G01 X-4.5847 Y34.6075 F508.00 
G01 X-4.5847 Y34.6109 
G01 X-4.1309 Y35.0647 
G01 X-4.1275 Y35.0647 
G01 X-4.1275 Y35.0901 
G01 X-4.1414 Y35.0901 
G01 X-4.6101 Y34.6214 
G01 X-4.6101 Y34.6075 
G00 Z2.5400 
G00 X-2.8609 Y35.4203 
G01 Z-0.1200 F254.00 
G01 X-3.3147 Y35.8741 F508.00 
G01 X-3.3147 Y36.5159 
G01 X-2.8609 Y36.9697 
G01 X-2.8575 Y36.9697 
G01 X-2.8575 Y38.5953 
G01 X-2.8609 Y38.5953 
G01 X-3.3147 Y39.0491 
G01 X-3.3147 Y39.6909 
G01 X-2.8609 Y40.1447 
G01 X-2.2191 Y40.1447 
G01 X-1.7653 Y39.6909 
G01 X-1.7653 Y39.0491 
G01 X-2.2191 Y38.5953 
G01 X-2.2225 Y38.5953 
G01 X-2.2225 Y36.9697 
G01 X-2.2191 Y36.9697 
G01 X-1.7653 Y36.5159 
G01 X-1.7653 Y35.8741 
G01 X-2.2191 Y35.4203 
G01 X-2.8609 Y35.4203 
G00 Z2.5400 
G00 X-4.4799 Y38.8021 
G01 Z-0.1200 F254.00 
G01 X-4.5121 Y38.7699 F508.00 
G01 X-4.5541 Y38.7525 
G01 X-5.6059 Y38.7525 
G01 X-5.6479 Y38.7699 
G01 X-5.6801 Y38.8021 
G01 X-5.6975 Y38.8441 
G01 X-5.6975 Y39.8959 
G01 X-5.6801 Y39.9379 
G01 X-5.6479 Y39.9701 
G01 X-5.6059 Y39.9875 
G01 X-5.1743 Y39.9875 
G01 X-4.0513 Y44.4797 
G01 X-4.0513 Y44.4980 
G01 X-4.0398 Y44.5259 
G01 X-4.0324 Y44.5551 
G01 X-4.0216 Y44.5698 
G01 X-4.0146 Y44.5867 
G01 X-3.9932 Y44.6080 
G01 X-3.9753 Y44.6322 
G01 X-3.9596 Y44.6416 
G01 X-3.9467 Y44.6546 
G01 X-3.9188 Y44.6661 
G01 X-3.8930 Y44.6816 
G01 X-3.8749 Y44.6843 
G01 X-3.8580 Y44.6913 
G01 X-3.8279 Y44.6913 
G01 X-3.7980 Y44.6957 
G01 X-3.7803 Y44.6913 
G01 X-3.3147 Y44.6913 
G01 X-3.3147 Y44.7709 
G01 X-2.8609 Y45.2247 
G01 X-2.2191 Y45.2247 
G01 X-1.7653 Y44.7709 
G01 X-1.7653 Y44.1291 
G01 X-2.2191 Y43.6753 
G01 X-2.8609 Y43.6753 
G01 X-3.3147 Y44.1291 
G01 X-3.3147 Y44.2087 
G01 X-3.6216 Y44.2087 
G01 X-4.6769 Y39.9875 
G01 X-4.5541 Y39.9875 
G01 X-4.5121 Y39.9701 
G01 X-4.4799 Y39.9379 
G01 X-4.4625 Y39.8959 
G01 X-4.4625 Y38.8441 
G01 X-4.4799 Y38.8021 
G00 Z2.5400 
G00 X-32.4232 Y43.3062 
G01 Z-0.1200 F254.00 
G01 X-32.5302 Y43.1992 F508.00 
G01 X-32.6561 Y43.1151 
G01 X-32.7959 Y43.0572 
G01 X-32.9443 Y43.0277 
G01 X-33.0957 Y43.0277 
G01 X-33.2441 Y43.0572 
G01 X-33.3839 Y43.1151 
G01 X-33.5098 Y43.1992 
G01 X-33.6168 Y43.3062 
G01 X-33.7009 Y43.4321 
G01 X-33.7588 Y43.5719 
G01 X-33.7883 Y43.7203 
G01 X-33.7883 Y45.1797 
G01 X-33.7588 Y45.3281 
G01 X-33.7009 Y45.4679 
G01 X-33.6168 Y45.5938 
G01 X-33.5098 Y45.7008 
G01 X-33.3839 Y45.7849 
G01 X-33.2441 Y45.8428 
G01 X-33.0957 Y45.8723 
G01 X-32.9443 Y45.8723 
G01 X-32.7959 Y45.8428 
G01 X-32.6561 Y45.7849 
G01 X-32.5302 Y45.7008 
G01 X-32.4232 Y45.5938 
G01 X-32.3391 Y45.4679 
G01 X-32.2812 Y45.3281 
G01 X-32.2517 Y45.1797 
G01 X-32.2517 Y43.7203 
G01 X-32.2812 Y43.5719 
G01 X-32.3391 Y43.4321 
G01 X-32.4232 Y43.3062 
G00 Z2.5400 
G00 X-34.9632 Y43.3062 
G01 Z-0.1200 F254.00 
G01 X-35.0702 Y43.1992 F508.00 
G01 X-35.1961 Y43.1151 
G01 X-35.3359 Y43.0572 
G01 X-35.4843 Y43.0277 
G01 X-35.6357 Y43.0277 
G01 X-35.7841 Y43.0572 
G01 X-35.9239 Y43.1151 
G01 X-36.0498 Y43.1992 
G01 X-36.1568 Y43.3062 
G01 X-36.2409 Y43.4321 
G01 X-36.2988 Y43.5719 
G01 X-36.3283 Y43.7203 
G01 X-36.3283 Y45.1797 
G01 X-36.2988 Y45.3281 
G01 X-36.2409 Y45.4679 
G01 X-36.1568 Y45.5938 
G01 X-36.0498 Y45.7008 
G01 X-35.9239 Y45.7849 
G01 X-35.7841 Y45.8428 
G01 X-35.6357 Y45.8723 
G01 X-35.4843 Y45.8723 
G01 X-35.3359 Y45.8428 
G01 X-35.1961 Y45.7849 
G01 X-35.0702 Y45.7008 
G01 X-34.9632 Y45.5938 
G01 X-34.8791 Y45.4679 
G01 X-34.8212 Y45.3281 
G01 X-34.7917 Y45.1797 
G01 X-34.7917 Y43.7203 
G01 X-34.8212 Y43.5719 
G01 X-34.8791 Y43.4321 
G01 X-34.9632 Y43.3062 
G00 Z2.5400 
G00 X-37.5032 Y43.3062 
G01 Z-0.1200 F254.00 
G01 X-37.6102 Y43.1992 F508.00 
G01 X-37.7361 Y43.1151 
G01 X-37.8759 Y43.0572 
G01 X-38.0243 Y43.0277 
G01 X-38.1757 Y43.0277 
G01 X-38.3241 Y43.0572 
G01 X-38.4639 Y43.1151 
G01 X-38.5898 Y43.1992 
G01 X-38.6968 Y43.3062 
G01 X-38.7809 Y43.4321 
G01 X-38.8388 Y43.5719 
G01 X-38.8683 Y43.7203 
G01 X-38.8683 Y45.1797 
G01 X-38.8388 Y45.3281 
G01 X-38.7809 Y45.4679 
G01 X-38.6968 Y45.5938 
G01 X-38.5898 Y45.7008 
G01 X-38.4639 Y45.7849 
G01 X-38.3241 Y45.8428 
G01 X-38.1757 Y45.8723 
G01 X-38.0243 Y45.8723 
G01 X-37.8759 Y45.8428 
G01 X-37.7361 Y45.7849 
G01 X-37.6102 Y45.7008 
G01 X-37.5032 Y45.5938 
G01 X-37.4191 Y45.4679 
G01 X-37.3612 Y45.3281 
G01 X-37.3317 Y45.1797 
G01 X-37.3317 Y43.7203 
G01 X-37.3612 Y43.5719 
G01 X-37.4191 Y43.4321 
G01 X-37.5032 Y43.3062 
G00 Z2.5400 
G00 X-56.8291 Y37.6047 
G01 Z-0.1200 F254.00 
G01 X-56.3753 Y37.1509 F508.00 
G01 X-56.3753 Y36.5091 
G01 X-56.8291 Y36.0553 
G01 X-57.4709 Y36.0553 
G01 X-59.5350 Y33.9959 
G01 X-59.6074 Y33.9541 
G01 X-59.6882 Y33.9325 
G01 X-64.1833 Y33.9325 
G01 X-64.2499 Y33.7717 
G01 X-64.3604 Y33.6064 
G01 X-64.5010 Y33.4658 
G01 X-64.6664 Y33.3553 
G01 X-64.8501 Y33.2792 
G01 X-65.0452 Y33.2403 
G01 X-67.0348 Y33.2403 
G01 X-67.2299 Y33.2792 
G01 X-67.4136 Y33.3553 
G01 X-67.5790 Y33.4658 
G01 X-67.7196 Y33.6064 
G01 X-67.8301 Y33.7717 
G01 X-67.9062 Y33.9555 
G01 X-67.9450 Y34.1506 
G01 X-67.9450 Y34.3494 
G01 X-67.9062 Y34.5445 
G01 X-67.8301 Y34.7282 
G01 X-67.7196 Y34.8936 
G01 X-67.5790 Y35.0342 
G01 X-67.4136 Y35.1447 
G01 X-67.2299 Y35.2208 
G01 X-67.0348 Y35.2596 
G01 X-65.0452 Y35.2596 
G01 X-64.8501 Y35.2208 
G01 X-64.6664 Y35.1447 
G01 X-64.5010 Y35.0342 
G01 X-64.3604 Y34.8936 
G01 X-64.2499 Y34.7282 
G01 X-64.1833 Y34.5675 
G01 X-59.8615 Y34.5675 
G01 X-57.9223 Y36.5067 
G01 X-57.9247 Y37.1509 
G01 X-57.4709 Y37.6047 
G01 X-56.8291 Y37.6047 
G00 Z2.5400 
G00 X-64.4703 Y38.4605 
G01 Z-0.1200 F254.00 
G01 X-64.3552 Y38.5757 F508.00 
G01 X-64.2594 Y38.7075 
G01 X-64.1933 Y38.8372 
G01 X-64.2228 Y38.8372 
G01 X-64.2499 Y38.7717 
G01 X-64.3604 Y38.6064 
G01 X-64.5010 Y38.4658 
G01 X-64.6664 Y38.3553 
G01 X-64.8501 Y38.2792 
G01 X-65.0452 Y38.2403 
G01 X-65.6272 Y38.2403 
G01 X-65.6272 Y38.2149 
G01 X-65.0632 Y38.2149 
G01 X-64.9023 Y38.2404 
G01 X-64.7473 Y38.2908 
G01 X-64.6022 Y38.3647 
G01 X-64.4703 Y38.4605 
G00 Z2.5400 
G00 X-64.2228 Y39.6627 
G01 Z-0.1200 F254.00 
G01 X-64.1933 Y39.6627 F508.00 
G01 X-64.2594 Y39.7925 
G01 X-64.3552 Y39.9243 
G01 X-64.4703 Y40.0395 
G01 X-64.6022 Y40.1353 
G01 X-64.7473 Y40.2092 
G01 X-64.9023 Y40.2596 
G01 X-65.0632 Y40.2850 
G01 X-65.6272 Y40.2850 
G01 X-65.6272 Y40.2596 
G01 X-65.0452 Y40.2596 
G01 X-64.8501 Y40.2208 
G01 X-64.6664 Y40.1447 
G01 X-64.5010 Y40.0342 
G01 X-64.3604 Y39.8936 
G01 X-64.2499 Y39.7282 
G01 X-64.2228 Y39.6627 
G00 Z2.5400 
G00 X-66.4527 Y40.2596 
G01 Z-0.1200 F254.00 
G01 X-66.4527 Y40.2850 F508.00 
G01 X-67.0168 Y40.2850 
G01 X-67.1777 Y40.2596 
G01 X-67.3327 Y40.2092 
G01 X-67.4778 Y40.1353 
G01 X-67.6096 Y40.0395 
G01 X-67.7248 Y39.9243 
G01 X-67.8206 Y39.7925 
G01 X-67.8867 Y39.6627 
G01 X-67.8572 Y39.6627 
G01 X-67.8301 Y39.7282 
G01 X-67.7196 Y39.8936 
G01 X-67.5790 Y40.0342 
G01 X-67.4136 Y40.1447 
G01 X-67.2299 Y40.2208 
G01 X-67.0348 Y40.2596 
G01 X-66.4527 Y40.2596 
G00 Z2.5400 
G00 X-66.4527 Y38.2403 
G01 Z-0.1200 F254.00 
G01 X-67.0348 Y38.2403 F508.00 
G01 X-67.2299 Y38.2792 
G01 X-67.4136 Y38.3553 
G01 X-67.5790 Y38.4658 
G01 X-67.7196 Y38.6064 
G01 X-67.8301 Y38.7717 
G01 X-67.8572 Y38.8372 
G01 X-67.8867 Y38.8372 
G01 X-67.8206 Y38.7075 
G01 X-67.7248 Y38.5757 
G01 X-67.6096 Y38.4605 
G01 X-67.4778 Y38.3647 
G01 X-67.3327 Y38.2908 
G01 X-67.1777 Y38.2404 
G01 X-67.0168 Y38.2149 
G01 X-66.4527 Y38.2149 
G01 X-66.4527 Y38.2403 
G00 Z2.5400 
G00 X-67.2524 Y30.8438 
G01 Z-0.1200 F254.00 
G01 X-67.8382 Y30.6012 F508.00 
G01 X-68.2865 Y30.1528 
G01 X-68.5292 Y29.5670 
G01 X-68.5292 Y28.9330 
G01 X-68.2865 Y28.3471 
G01 X-67.8382 Y27.8988 
G01 X-67.2524 Y27.6561 
G01 X-64.8276 Y27.6561 
G01 X-64.2418 Y27.8988 
G01 X-63.7934 Y28.3471 
G01 X-63.5508 Y28.9330 
G01 X-63.5508 Y29.5670 
G01 X-63.7934 Y30.1528 
G01 X-64.2418 Y30.6012 
G01 X-64.8276 Y30.8438 
G01 X-67.2524 Y30.8438 
G00 Z2.5400 
G00 X-67.2299 Y30.2208 
G01 Z-0.1200 F254.00 
G01 X-67.0348 Y30.2596 F508.00 
G01 X-65.0452 Y30.2596 
G01 X-64.8501 Y30.2208 
G01 X-64.6664 Y30.1447 
G01 X-64.5010 Y30.0342 
G01 X-64.3604 Y29.8936 
G01 X-64.2499 Y29.7282 
G01 X-64.1738 Y29.5445 
G01 X-64.1350 Y29.3494 
G01 X-64.1350 Y29.1506 
G01 X-64.1738 Y28.9555 
G01 X-64.2499 Y28.7718 
G01 X-64.3604 Y28.6064 
G01 X-64.5010 Y28.4658 
G01 X-64.6664 Y28.3553 
G01 X-64.8501 Y28.2792 
G01 X-65.0452 Y28.2403 
G01 X-67.0348 Y28.2403 
G01 X-67.2299 Y28.2792 
G01 X-67.4136 Y28.3553 
G01 X-67.5790 Y28.4658 
G01 X-67.7196 Y28.6064 
G01 X-67.8301 Y28.7718 
G01 X-67.9062 Y28.9555 
G01 X-67.9450 Y29.1506 
G01 X-67.9450 Y29.3494 
G01 X-67.9062 Y29.5445 
G01 X-67.8301 Y29.7282 
G01 X-67.7196 Y29.8936 
G01 X-67.5790 Y30.0342 
G01 X-67.4136 Y30.1447 
G01 X-67.2299 Y30.2208 
G00 Z2.5400 
G00 X-52.6668 Y23.3498 
G01 Z-0.1200 F254.00 
G01 X-52.5598 Y23.4568 F508.00 
G01 X-52.4339 Y23.5409 
G01 X-52.2941 Y23.5988 
G01 X-52.1457 Y23.6283 
G01 X-51.9943 Y23.6283 
G01 X-51.8459 Y23.5988 
G01 X-51.7061 Y23.5409 
G01 X-51.5802 Y23.4568 
G01 X-51.4732 Y23.3498 
G01 X-51.3891 Y23.2239 
G01 X-51.3312 Y23.0841 
G01 X-51.3017 Y22.9357 
G01 X-51.3017 Y22.7843 
G01 X-51.3312 Y22.6359 
G01 X-51.3891 Y22.4961 
G01 X-51.4732 Y22.3702 
G01 X-51.5802 Y22.2632 
G01 X-51.7061 Y22.1791 
G01 X-51.8459 Y22.1212 
G01 X-51.9943 Y22.0917 
G01 X-52.1457 Y22.0917 
G01 X-52.2941 Y22.1212 
G01 X-52.4339 Y22.1791 
G01 X-52.5598 Y22.2632 
G01 X-52.6668 Y22.3702 
G01 X-52.7509 Y22.4961 
G01 X-52.8088 Y22.6359 
G01 X-52.8383 Y22.7843 
G01 X-52.8383 Y22.9357 
G01 X-52.8088 Y23.0841 
G01 X-52.7509 Y23.2239 
G01 X-52.6668 Y23.3498 
G00 Z2.5400 
G00 X-52.6668 Y20.8098 
G01 Z-0.1200 F254.00 
G01 X-52.5598 Y20.9168 F508.00 
G01 X-52.4339 Y21.0009 
G01 X-52.2941 Y21.0588 
G01 X-52.1457 Y21.0883 
G01 X-51.9943 Y21.0883 
G01 X-51.8459 Y21.0588 
G01 X-51.7061 Y21.0009 
G01 X-51.5802 Y20.9168 
G01 X-51.4732 Y20.8098 
G01 X-51.3891 Y20.6839 
G01 X-51.3312 Y20.5441 
G01 X-51.3017 Y20.3957 
G01 X-51.3017 Y20.2443 
G01 X-51.3312 Y20.0959 
G01 X-51.3891 Y19.9561 
G01 X-51.4732 Y19.8302 
G01 X-51.5802 Y19.7232 
G01 X-51.7061 Y19.6391 
G01 X-51.8459 Y19.5812 
G01 X-51.9943 Y19.5517 
G01 X-52.1457 Y19.5517 
G01 X-52.2941 Y19.5812 
G01 X-52.4339 Y19.6391 
G01 X-52.5598 Y19.7232 
G01 X-52.6668 Y19.8302 
G01 X-52.7509 Y19.9561 
G01 X-52.8088 Y20.0959 
G01 X-52.8383 Y20.2443 
G01 X-52.8383 Y20.3957 
G01 X-52.8088 Y20.5441 
G01 X-52.7509 Y20.6839 
G01 X-52.6668 Y20.8098 
G00 Z2.5400 
G00 X-59.0411 Y8.1375 
G01 Z-0.1200 F254.00 
G01 X-59.1572 Y8.1967 F508.00 
G01 X-59.1572 Y8.1672 
G01 X-59.0917 Y8.1401 
G01 X-59.0527 Y8.1140 
G01 X-59.0411 Y8.1375 
G00 Z2.5400 
G00 X-59.9827 Y8.1672 
G01 Z-0.1200 F254.00 
G01 X-59.9827 Y8.1967 F508.00 
G01 X-60.1125 Y8.1306 
G01 X-60.2443 Y8.0348 
G01 X-60.3595 Y7.9196 
G01 X-60.4553 Y7.7878 
G01 X-60.5292 Y7.6427 
G01 X-60.5796 Y7.4877 
G01 X-60.6050 Y7.3268 
G01 X-60.6050 Y6.7627 
G01 X-60.5796 Y6.7627 
G01 X-60.5796 Y7.3448 
G01 X-60.5408 Y7.5399 
G01 X-60.4647 Y7.7236 
G01 X-60.3542 Y7.8890 
G01 X-60.2136 Y8.0296 
G01 X-60.0482 Y8.1401 
G01 X-59.9827 Y8.1672 
G00 Z2.5400 
G00 X-58.5975 Y7.6017 
G01 Z-0.1200 F254.00 
G01 X-58.6123 Y7.5717 F508.00 
G01 X-58.5992 Y7.5399 
G01 X-58.5603 Y7.3448 
G01 X-58.5603 Y6.7627 
G01 X-58.5349 Y6.7627 
G01 X-58.5349 Y7.3268 
G01 X-58.5604 Y7.4877 
G01 X-58.5975 Y7.6017 
G00 Z2.5400 
G00 X-58.5603 Y5.9372 
G01 Z-0.1200 F254.00 
G01 X-58.5603 Y5.3552 F508.00 
G01 X-58.5992 Y5.1601 
G01 X-58.6753 Y4.9764 
G01 X-58.7858 Y4.8110 
G01 X-58.9264 Y4.6704 
G01 X-59.0917 Y4.5599 
G01 X-59.1572 Y4.5328 
G01 X-59.1572 Y4.5033 
G01 X-59.0275 Y4.5694 
G01 X-58.8957 Y4.6652 
G01 X-58.7805 Y4.7803 
G01 X-58.6847 Y4.9122 
G01 X-58.6108 Y5.0573 
G01 X-58.5604 Y5.2123 
G01 X-58.5349 Y5.3732 
G01 X-58.5349 Y5.9372 
G01 X-58.5603 Y5.9372 
G00 Z2.5400 
G00 X-60.5796 Y5.9372 
G01 Z-0.1200 F254.00 
G01 X-60.6050 Y5.9372 F508.00 
G01 X-60.6050 Y5.3732 
G01 X-60.5796 Y5.2123 
G01 X-60.5292 Y5.0573 
G01 X-60.4553 Y4.9122 
G01 X-60.3595 Y4.7803 
G01 X-60.2443 Y4.6652 
G01 X-60.1125 Y4.5694 
G01 X-59.9827 Y4.5033 
G01 X-59.9827 Y4.5328 
G01 X-60.0482 Y4.5599 
G01 X-60.2136 Y4.6704 
G01 X-60.3542 Y4.8110 
G01 X-60.4647 Y4.9764 
G01 X-60.5408 Y5.1601 
G01 X-60.5796 Y5.3552 
G01 X-60.5796 Y5.9372 
G00 Z2.5400 
G00 X-5.6154 Y3.2133 
G01 Z-0.1200 F254.00 
G01 X-5.6833 Y3.1454 F508.00 
G01 X-5.7720 Y3.1087 
G01 X-9.4680 Y3.1087 
G01 X-9.5567 Y3.1454 
G01 X-9.6246 Y3.2133 
G01 X-9.6613 Y3.3020 
G01 X-9.6613 Y4.8980 
G01 X-9.6246 Y4.9867 
G01 X-9.5567 Y5.0546 
G01 X-9.4680 Y5.0913 
G01 X-9.4221 Y5.0913 
G01 X-11.5826 Y7.2517 
G01 X-12.5474 Y7.2517 
G01 X-13.6017 Y6.1974 
G01 X-13.6017 Y5.0913 
G01 X-13.3920 Y5.0913 
G01 X-13.3033 Y5.0546 
G01 X-13.2354 Y4.9867 
G01 X-13.1987 Y4.8980 
G01 X-13.1987 Y3.3020 
G01 X-13.2354 Y3.2133 
G01 X-13.3033 Y3.1454 
G01 X-13.3920 Y3.1087 
G01 X-17.0880 Y3.1087 
G01 X-17.1767 Y3.1454 
G01 X-17.2446 Y3.2133 
G01 X-17.2813 Y3.3020 
G01 X-17.2813 Y3.4417 
G01 X-20.6887 Y3.4417 
G01 X-20.6887 Y1.4620 
G01 X-20.7254 Y1.3733 
G01 X-20.7933 Y1.3054 
G01 X-20.8820 Y1.2687 
G01 X-22.4780 Y1.2687 
G01 X-22.5667 Y1.3054 
G01 X-22.6346 Y1.3733 
G01 X-22.6713 Y1.4620 
G01 X-22.6713 Y6.1580 
G01 X-22.6346 Y6.2467 
G01 X-22.5667 Y6.3146 
G01 X-22.4780 Y6.3513 
G01 X-20.8820 Y6.3513 
G01 X-20.7933 Y6.3146 
G01 X-20.7254 Y6.2467 
G01 X-20.6887 Y6.1580 
G01 X-20.6887 Y4.1783 
G01 X-17.2813 Y4.1783 
G01 X-17.2813 Y4.8980 
G01 X-17.2446 Y4.9867 
G01 X-17.1767 Y5.0546 
G01 X-17.0880 Y5.0913 
G01 X-14.3383 Y5.0913 
G01 X-14.3383 Y6.3985 
G01 X-14.3132 Y6.4922 
G01 X-14.2647 Y6.5761 
G01 X-14.1961 Y6.6447 
G01 X-12.9947 Y7.8461 
G01 X-12.9261 Y7.9147 
G01 X-10.4547 Y10.3861 
G01 X-10.3861 Y10.4547 
G01 X-10.3022 Y10.5032 
G01 X-10.2085 Y10.5283 
G01 X-7.9883 Y10.5283 
G01 X-7.9883 Y16.2962 
G01 X-8.0471 Y16.3205 
G01 X-8.1948 Y16.4192 
G01 X-8.3204 Y16.5448 
G01 X-8.4191 Y16.6925 
G01 X-8.4870 Y16.8566 
G01 X-8.5217 Y17.0308 
G01 X-8.5217 Y18.5292 
G01 X-8.4870 Y18.7034 
G01 X-8.4191 Y18.8675 
G01 X-8.3204 Y19.0152 
G01 X-8.1948 Y19.1408 
G01 X-8.0471 Y19.2395 
G01 X-7.8830 Y19.3074 
G01 X-7.7088 Y19.3421 
G01 X-7.5312 Y19.3421 
G01 X-7.3570 Y19.3074 
G01 X-7.1929 Y19.2395 
G01 X-7.0452 Y19.1408 
G01 X-6.9196 Y19.0152 
G01 X-6.8209 Y18.8675 
G01 X-6.7530 Y18.7034 
G01 X-6.7183 Y18.5292 
G01 X-6.7183 Y17.0308 
G01 X-6.7530 Y16.8566 
G01 X-6.8209 Y16.6925 
G01 X-6.9196 Y16.5448 
G01 X-7.0452 Y16.4192 
G01 X-7.1929 Y16.3205 
G01 X-7.2517 Y16.2962 
G01 X-7.2517 Y10.1115 
G01 X-7.2768 Y10.0178 
G01 X-7.3253 Y9.9339 
G01 X-7.3939 Y9.8653 
G01 X-7.4778 Y9.8168 
G01 X-7.5715 Y9.7917 
G01 X-10.0074 Y9.7917 
G01 X-11.8109 Y7.9883 
G01 X-11.3815 Y7.9883 
G01 X-11.2878 Y7.9632 
G01 X-11.2039 Y7.9147 
G01 X-11.1353 Y7.8461 
G01 X-8.3804 Y5.0913 
G01 X-5.7720 Y5.0913 
G01 X-5.6833 Y5.0546 
G01 X-5.6154 Y4.9867 
G01 X-5.5787 Y4.8980 
G01 X-5.5787 Y3.3020 
G01 X-5.6154 Y3.2133 
G00 Z2.5400 
G00 X-8.9154 Y10.7633 
G01 Z-0.1200 F254.00 
G01 X-8.9833 Y10.6954 F508.00 
G01 X-9.0720 Y10.6587 
G01 X-10.6680 Y10.6587 
G01 X-10.7567 Y10.6954 
G01 X-10.8246 Y10.7633 
G01 X-10.8613 Y10.8520 
G01 X-10.8613 Y12.3317 
G01 X-11.2774 Y12.3317 
G01 X-14.0178 Y9.5913 
G01 X-13.3920 Y9.5913 
G01 X-13.3033 Y9.5546 
G01 X-13.2354 Y9.4867 
G01 X-13.1987 Y9.3980 
G01 X-13.1987 Y7.8020 
G01 X-13.2354 Y7.7133 
G01 X-13.3033 Y7.6454 
G01 X-13.3920 Y7.6087 
G01 X-17.0880 Y7.6087 
G01 X-17.1767 Y7.6454 
G01 X-17.2446 Y7.7133 
G01 X-17.2813 Y7.8020 
G01 X-17.2813 Y8.5217 
G01 X-29.0574 Y8.5217 
G01 X-29.5787 Y8.0004 
G01 X-29.5787 Y5.2720 
G01 X-29.6154 Y5.1833 
G01 X-29.6833 Y5.1154 
G01 X-29.7720 Y5.0787 
G01 X-31.3680 Y5.0787 
G01 X-31.4567 Y5.1154 
G01 X-31.5246 Y5.1833 
G01 X-31.5613 Y5.2720 
G01 X-31.5613 Y9.9680 
G01 X-31.5246 Y10.0567 
G01 X-31.4567 Y10.1246 
G01 X-31.3680 Y10.1613 
G01 X-29.7720 Y10.1613 
G01 X-29.6833 Y10.1246 
G01 X-29.6154 Y10.0567 
G01 X-29.5787 Y9.9680 
G01 X-29.5787 Y9.0421 
G01 X-29.5047 Y9.1161 
G01 X-29.4361 Y9.1847 
G01 X-29.3522 Y9.2332 
G01 X-29.2585 Y9.2583 
G01 X-17.2813 Y9.2583 
G01 X-17.2813 Y9.3980 
G01 X-17.2446 Y9.4867 
G01 X-17.1767 Y9.5546 
G01 X-17.0880 Y9.5913 
G01 X-15.0596 Y9.5913 
G01 X-11.7247 Y12.9261 
G01 X-11.6561 Y12.9947 
G01 X-11.5722 Y13.0432 
G01 X-11.4785 Y13.0683 
G01 X-10.8613 Y13.0683 
G01 X-10.8613 Y14.5480 
G01 X-10.8246 Y14.6367 
G01 X-10.7567 Y14.7046 
G01 X-10.6680 Y14.7413 
G01 X-10.5283 Y14.7413 
G01 X-10.5283 Y16.2962 
G01 X-10.5871 Y16.3205 
G01 X-10.7348 Y16.4192 
G01 X-10.8604 Y16.5448 
G01 X-10.9591 Y16.6925 
G01 X-11.0270 Y16.8566 
G01 X-11.0617 Y17.0308 
G01 X-11.0617 Y18.5292 
G01 X-11.0270 Y18.7034 
G01 X-10.9591 Y18.8675 
G01 X-10.8604 Y19.0152 
G01 X-10.7348 Y19.1408 
G01 X-10.5871 Y19.2395 
G01 X-10.4230 Y19.3074 
G01 X-10.2488 Y19.3421 
G01 X-10.0712 Y19.3421 
G01 X-9.8970 Y19.3074 
G01 X-9.7329 Y19.2395 
G01 X-9.5852 Y19.1408 
G01 X-9.4596 Y19.0152 
G01 X-9.3609 Y18.8675 
G01 X-9.2930 Y18.7034 
G01 X-9.2583 Y18.5292 
G01 X-9.2583 Y17.0308 
G01 X-9.2930 Y16.8566 
G01 X-9.3609 Y16.6925 
G01 X-9.4596 Y16.5448 
G01 X-9.5852 Y16.4192 
G01 X-9.7329 Y16.3205 
G01 X-9.7917 Y16.2962 
G01 X-9.7917 Y14.7413 
G01 X-9.0720 Y14.7413 
G01 X-8.9833 Y14.7046 
G01 X-8.9154 Y14.6367 
G01 X-8.8787 Y14.5480 
G01 X-8.8787 Y10.8520 
G01 X-8.9154 Y10.7633 
G00 Z2.5400 
G00 X-11.1915 Y10.7863 
G01 Z-0.1200 F254.00 
G01 X-11.1201 Y10.6139 F508.00 
G01 X-11.1054 Y10.5884 
G01 X-11.0978 Y10.5600 
G01 X-11.0865 Y10.5329 
G01 X-11.0827 Y10.5038 
G01 X-11.0751 Y10.4754 
G01 X-11.0751 Y10.4460 
G01 X-11.0712 Y10.4169 
G01 X-11.0751 Y10.3877 
G01 X-11.0751 Y10.3583 
G01 X-11.0827 Y10.3300 
G01 X-11.0865 Y10.3008 
G01 X-11.0978 Y10.2737 
G01 X-11.1054 Y10.2453 
G01 X-11.1201 Y10.2198 
G01 X-11.1313 Y10.1927 
G01 X-11.1492 Y10.1694 
G01 X-11.1639 Y10.1439 
G01 X-11.1847 Y10.1231 
G01 X-11.2026 Y10.0998 
G01 X-11.2259 Y10.0820 
G01 X-12.1511 Y9.1568 
G01 X-12.2524 Y9.0982 
G01 X-12.3655 Y9.0679 
G01 X-12.4825 Y9.0679 
G01 X-12.5956 Y9.0982 
G01 X-12.6969 Y9.1568 
G01 X-12.7797 Y9.2395 
G01 X-12.8382 Y9.3409 
G01 X-12.8685 Y9.4539 
G01 X-12.8685 Y9.4637 
G01 X-12.9732 Y9.7163 
G01 X-12.9975 Y9.7585 
G01 X-13.0102 Y9.8058 
G01 X-13.0117 Y9.8095 
G01 X-13.0123 Y9.8135 
G01 X-13.0130 Y9.8163 
G01 X-13.0278 Y9.8715 
G01 X-13.0279 Y9.9299 
G01 X-13.0279 Y9.9886 
G01 X-13.0432 Y10.0178 
G01 X-13.0683 Y10.1115 
G01 X-13.0683 Y10.2085 
G01 X-13.0432 Y10.3022 
G01 X-12.9947 Y10.3861 
G01 X-12.9261 Y10.4547 
G01 X-12.8422 Y10.5032 
G01 X-12.7485 Y10.5283 
G01 X-12.6515 Y10.5283 
G01 X-12.6218 Y10.5203 
G01 X-11.9917 Y11.1505 
G01 X-11.9089 Y11.2332 
G01 X-11.8930 Y11.2424 
G01 X-11.7581 Y11.6041 
G01 X-11.7019 Y11.6831 
G01 X-11.6271 Y11.7449 
G01 X-11.5389 Y11.7851 
G01 X-11.4433 Y11.8012 
G01 X-11.3468 Y11.7920 
G01 X-11.2559 Y11.7581 
G01 X-11.1769 Y11.7019 
G01 X-11.1151 Y11.6271 
G01 X-11.0748 Y11.5389 
G01 X-11.0588 Y11.4433 
G01 X-11.0680 Y11.3468 
G01 X-11.2039 Y10.9823 
G01 X-11.1915 Y10.9361 
G01 X-11.1915 Y10.7863 
G00 Z2.5400 
G00 X-13.6017 Y18.1483 
G01 Z-0.1200 F254.00 
G01 X-13.6017 Y18.5292 F508.00 
G01 X-13.5670 Y18.7034 
G01 X-13.4991 Y18.8675 
G01 X-13.4004 Y19.0152 
G01 X-13.2748 Y19.1408 
G01 X-13.1271 Y19.2395 
G01 X-13.0966 Y19.2521 
G01 X-13.0557 Y19.3229 
G01 X-10.5157 Y21.8629 
G01 X-10.4329 Y21.9457 
G01 X-10.3316 Y22.0042 
G01 X-10.2185 Y22.0345 
G01 X-3.9941 Y22.0345 
G01 X-2.9845 Y23.0441 
G01 X-2.9845 Y25.8393 
G01 X-3.3655 Y26.2203 
G01 X-3.3655 Y22.8015 
G01 X-3.3958 Y22.6884 
G01 X-3.4543 Y22.5871 
G01 X-3.5371 Y22.5043 
G01 X-3.6384 Y22.4458 
G01 X-3.7515 Y22.4155 
G01 X-7.6785 Y22.4155 
G01 X-7.7916 Y22.4458 
G01 X-7.8929 Y22.5043 
G01 X-7.9757 Y22.5871 
G01 X-8.0342 Y22.6884 
G01 X-8.0645 Y22.8015 
G01 X-8.0645 Y23.9521 
G01 X-8.1948 Y24.0392 
G01 X-8.3204 Y24.1648 
G01 X-8.4191 Y24.3125 
G01 X-8.4870 Y24.4766 
G01 X-8.5217 Y24.6508 
G01 X-8.5217 Y24.9555 
G01 X-9.2583 Y24.9555 
G01 X-9.2583 Y24.6508 
G01 X-9.2930 Y24.4766 
G01 X-9.3609 Y24.3125 
G01 X-9.4596 Y24.1648 
G01 X-9.5852 Y24.0392 
G01 X-9.7329 Y23.9405 
G01 X-9.8970 Y23.8726 
G01 X-10.0712 Y23.8379 
G01 X-10.2488 Y23.8379 
G01 X-10.4230 Y23.8726 
G01 X-10.5871 Y23.9405 
G01 X-10.7348 Y24.0392 
G01 X-10.8604 Y24.1648 
G01 X-10.9591 Y24.3125 
G01 X-11.0270 Y24.4766 
G01 X-11.0617 Y24.6508 
G01 X-11.0617 Y26.1492 
G01 X-11.0270 Y26.3234 
G01 X-10.9591 Y26.4875 
G01 X-10.8604 Y26.6352 
G01 X-10.7348 Y26.7608 
G01 X-10.5871 Y26.8595 
G01 X-10.4230 Y26.9274 
G01 X-10.2488 Y26.9621 
G01 X-10.0712 Y26.9621 
G01 X-9.8970 Y26.9274 
G01 X-9.7329 Y26.8595 
G01 X-9.5852 Y26.7608 
G01 X-9.4596 Y26.6352 
G01 X-9.3609 Y26.4875 
G01 X-9.2930 Y26.3234 
G01 X-9.2583 Y26.1492 
G01 X-9.2583 Y25.8445 
G01 X-8.5217 Y25.8445 
G01 X-8.5217 Y26.1492 
G01 X-8.4870 Y26.3234 
G01 X-8.4191 Y26.4875 
G01 X-8.3204 Y26.6352 
G01 X-8.1948 Y26.7608 
G01 X-8.0471 Y26.8595 
G01 X-7.8830 Y26.9274 
G01 X-7.7088 Y26.9621 
G01 X-7.5312 Y26.9621 
G01 X-7.3570 Y26.9274 
G01 X-7.1929 Y26.8595 
G01 X-7.0452 Y26.7608 
G01 X-6.9196 Y26.6352 
G01 X-6.8209 Y26.4875 
G01 X-6.7530 Y26.3234 
G01 X-6.7183 Y26.1492 
G01 X-6.7183 Y24.6508 
G01 X-6.7530 Y24.4766 
G01 X-6.8209 Y24.3125 
G01 X-6.9196 Y24.1648 
G01 X-7.0452 Y24.0392 
G01 X-7.1755 Y23.9521 
G01 X-7.1755 Y23.3045 
G01 X-4.2545 Y23.3045 
G01 X-4.2545 Y24.3763 
G01 X-4.2809 Y24.3125 
G01 X-4.3796 Y24.1648 
G01 X-4.5052 Y24.0392 
G01 X-4.6529 Y23.9405 
G01 X-4.8170 Y23.8726 
G01 X-4.9912 Y23.8379 
G01 X-5.1688 Y23.8379 
G01 X-5.3430 Y23.8726 
G01 X-5.5071 Y23.9405 
G01 X-5.6548 Y24.0392 
G01 X-5.7804 Y24.1648 
G01 X-5.8791 Y24.3125 
G01 X-5.9470 Y24.4766 
G01 X-5.9817 Y24.6508 
G01 X-5.9817 Y26.1492 
G01 X-5.9470 Y26.3234 
G01 X-5.8791 Y26.4875 
G01 X-5.7804 Y26.6352 
G01 X-5.6548 Y26.7608 
G01 X-5.5071 Y26.8595 
G01 X-5.4483 Y26.8838 
G01 X-5.4483 Y27.1955 
G01 X-5.6312 Y27.1955 
G01 X-5.7199 Y27.2322 
G01 X-5.7878 Y27.3001 
G01 X-5.8245 Y27.3888 
G01 X-5.8245 Y27.5717 
G01 X-8.9385 Y27.5717 
G01 X-9.0322 Y27.5968 
G01 X-9.1161 Y27.6453 
G01 X-9.1847 Y27.7139 
G01 X-9.4612 Y27.9903 
G01 X-9.4646 Y27.9853 
G01 X-9.5893 Y27.8606 
G01 X-9.7359 Y27.7626 
G01 X-9.8988 Y27.6951 
G01 X-10.0718 Y27.6607 
G01 X-10.2482 Y27.6607 
G01 X-10.4212 Y27.6951 
G01 X-10.5841 Y27.7626 
G01 X-10.7307 Y27.8606 
G01 X-10.8554 Y27.9853 
G01 X-10.9534 Y28.1319 
G01 X-11.0209 Y28.2948 
G01 X-11.0553 Y28.4678 
G01 X-11.0553 Y29.9522 
G01 X-11.0209 Y30.1252 
G01 X-10.9534 Y30.2881 
G01 X-10.8554 Y30.4347 
G01 X-10.7307 Y30.5594 
G01 X-10.5841 Y30.6574 
G01 X-10.4212 Y30.7249 
G01 X-10.2482 Y30.7593 
G01 X-10.0718 Y30.7593 
G01 X-9.8988 Y30.7249 
G01 X-9.7359 Y30.6574 
G01 X-9.5893 Y30.5594 
G01 X-9.4646 Y30.4347 
G01 X-9.3666 Y30.2881 
G01 X-9.2991 Y30.1252 
G01 X-9.2647 Y29.9522 
G01 X-9.2647 Y28.8356 
G01 X-8.7374 Y28.3083 
G01 X-5.8245 Y28.3083 
G01 X-5.8245 Y28.4912 
G01 X-5.7878 Y28.5799 
G01 X-5.7199 Y28.6478 
G01 X-5.6312 Y28.6845 
G01 X-4.5288 Y28.6845 
G01 X-4.4401 Y28.6478 
G01 X-4.3722 Y28.5799 
G01 X-4.3355 Y28.4912 
G01 X-4.3355 Y27.3888 
G01 X-4.3722 Y27.3001 
G01 X-4.4401 Y27.2322 
G01 X-4.5288 Y27.1955 
G01 X-4.7117 Y27.1955 
G01 X-4.7117 Y26.8838 
G01 X-4.6529 Y26.8595 
G01 X-4.5052 Y26.7608 
G01 X-4.3796 Y26.6352 
G01 X-4.2809 Y26.4875 
G01 X-4.2545 Y26.4237 
G01 X-4.2545 Y31.8085 
G01 X-4.2242 Y31.9216 
G01 X-4.1657 Y32.0229 
G01 X-4.0829 Y32.1057 
G01 X-3.9816 Y32.1642 
G01 X-3.8685 Y32.1945 
G01 X-3.3707 Y32.1945 
G01 X-2.9135 Y32.6517 
G01 X-2.2669 Y32.6517 
G01 X-1.7145 Y33.2041 
G01 X-1.7145 Y33.4593 
G01 X-2.1717 Y33.9165 
G01 X-2.1717 Y34.6635 
G01 X-1.6435 Y35.1917 
G01 X-0.8965 Y35.1917 
G01 X-0.4445 Y34.7397 
G01 X-0.4445 Y40.1955 
G01 X-2.0903 Y40.1955 
G01 X-1.6383 Y39.7435 
G01 X-1.6383 Y38.9965 
G01 X-2.0955 Y38.5393 
G01 X-2.0955 Y37.0257 
G01 X-1.6383 Y36.5685 
G01 X-1.6383 Y35.8215 
G01 X-2.1665 Y35.2933 
G01 X-2.9135 Y35.2933 
G01 X-3.3655 Y35.7453 
G01 X-3.3655 Y35.1207 
G01 X-2.9083 Y34.6635 
G01 X-2.9083 Y33.9165 
G01 X-3.2670 Y33.5578 
G01 X-3.2154 Y33.5281 
G01 X-3.1327 Y33.4453 
G01 X-3.0742 Y33.3440 
G01 X-3.0439 Y33.2309 
G01 X-3.0439 Y33.1139 
G01 X-3.0516 Y33.0849 
G01 X-3.0742 Y33.0008 
G01 X-3.1327 Y32.8995 
G01 X-3.2154 Y32.8167 
G01 X-3.3359 Y32.6963 
G01 X-3.4187 Y32.6135 
G01 X-3.5200 Y32.5550 
G01 X-3.6331 Y32.5247 
G01 X-3.9641 Y32.5247 
G01 X-4.2488 Y32.4068 
G01 X-4.4668 Y32.1888 
G01 X-4.5847 Y31.9041 
G01 X-4.5847 Y29.4007 
G01 X-4.6150 Y29.2876 
G01 X-4.6735 Y29.1863 
G01 X-4.7563 Y29.1035 
G01 X-4.8576 Y29.0450 
G01 X-4.9707 Y29.0147 
G01 X-5.6836 Y29.0147 
G01 X-5.7732 Y29.0387 
G01 X-5.7966 Y29.0450 
G01 X-5.8429 Y29.0717 
G01 X-5.8980 Y29.1035 
G01 X-5.9808 Y29.1863 
G01 X-6.0393 Y29.2876 
G01 X-6.0449 Y29.3085 
G01 X-6.0696 Y29.4007 
G01 X-6.0696 Y29.5177 
G01 X-6.0456 Y29.6073 
G01 X-6.0393 Y29.6308 
G01 X-6.0126 Y29.6770 
G01 X-5.9808 Y29.7321 
G01 X-5.9271 Y29.7858 
G01 X-5.7405 Y30.2362 
G01 X-5.7405 Y30.7238 
G01 X-5.9271 Y31.1742 
G01 X-6.1472 Y31.3943 
G01 X-6.2299 Y31.4771 
G01 X-6.2885 Y31.5784 
G01 X-6.3103 Y31.6599 
G01 X-6.3188 Y31.6915 
G01 X-6.3188 Y31.8085 
G01 X-6.2898 Y31.9168 
G01 X-6.2885 Y31.9216 
G01 X-6.2299 Y32.0229 
G01 X-5.9271 Y32.3258 
G01 X-5.7405 Y32.7762 
G01 X-5.7405 Y33.2638 
G01 X-5.9271 Y33.7142 
G01 X-6.0584 Y33.8455 
G01 X-6.6194 Y33.8455 
G01 X-6.5419 Y33.8134 
G01 X-6.3953 Y33.7154 
G01 X-6.2706 Y33.5907 
G01 X-6.1726 Y33.4441 
G01 X-6.1051 Y33.2811 
G01 X-6.0707 Y33.1082 
G01 X-6.0707 Y32.9318 
G01 X-6.1051 Y32.7588 
G01 X-6.1726 Y32.5959 
G01 X-6.2706 Y32.4493 
G01 X-6.3953 Y32.3246 
G01 X-6.5419 Y32.2266 
G01 X-6.7048 Y32.1591 
G01 X-6.8778 Y32.1247 
G01 X-8.3622 Y32.1247 
G01 X-8.5351 Y32.1591 
G01 X-8.6981 Y32.2266 
G01 X-8.8447 Y32.3246 
G01 X-8.9694 Y32.4493 
G01 X-9.0674 Y32.5959 
G01 X-9.1349 Y32.7588 
G01 X-9.1693 Y32.9318 
G01 X-9.1693 Y33.1082 
G01 X-9.1349 Y33.2811 
G01 X-9.0674 Y33.4441 
G01 X-8.9694 Y33.5907 
G01 X-8.8447 Y33.7154 
G01 X-8.6981 Y33.8134 
G01 X-8.6206 Y33.8455 
G01 X-9.1816 Y33.8455 
G01 X-9.3129 Y33.7142 
G01 X-9.4995 Y33.2638 
G01 X-9.4995 Y32.7762 
G01 X-9.3129 Y32.3258 
G01 X-9.0100 Y32.0229 
G01 X-8.9515 Y31.9216 
G01 X-8.9212 Y31.8085 
G01 X-8.9212 Y31.6915 
G01 X-8.9515 Y31.5784 
G01 X-9.0100 Y31.4771 
G01 X-9.0928 Y31.3943 
G01 X-9.3189 Y31.1682 
G01 X-9.3368 Y31.1449 
G01 X-9.3601 Y31.1270 
G01 X-9.3809 Y31.1062 
G01 X-9.4063 Y31.0915 
G01 X-9.4296 Y31.0737 
G01 X-9.4568 Y31.0624 
G01 X-9.4822 Y31.0477 
G01 X-9.5106 Y31.0401 
G01 X-9.5378 Y31.0289 
G01 X-9.5669 Y31.0250 
G01 X-9.5953 Y31.0174 
G01 X-9.6247 Y31.0174 
G01 X-9.6538 Y31.0136 
G01 X-9.6829 Y31.0174 
G01 X-9.7123 Y31.0174 
G01 X-9.7407 Y31.0250 
G01 X-9.7698 Y31.0289 
G01 X-9.7970 Y31.0401 
G01 X-9.8254 Y31.0477 
G01 X-9.8508 Y31.0624 
G01 X-9.9162 Y31.0895 
G01 X-10.4038 Y31.0895 
G01 X-10.8542 Y30.9029 
G01 X-11.0743 Y30.6828 
G01 X-11.1571 Y30.6000 
G01 X-11.2584 Y30.5415 
G01 X-11.3399 Y30.5197 
G01 X-11.3715 Y30.5112 
G01 X-11.4885 Y30.5112 
G01 X-11.5968 Y30.5402 
G01 X-11.6016 Y30.5415 
G01 X-11.7029 Y30.6000 
G01 X-12.0058 Y30.9029 
G01 X-12.4562 Y31.0895 
G01 X-12.9438 Y31.0895 
G01 X-13.3942 Y30.9029 
G01 X-13.6143 Y30.6828 
G01 X-13.6971 Y30.6000 
G01 X-13.7984 Y30.5415 
G01 X-13.8799 Y30.5197 
G01 X-13.9115 Y30.5112 
G01 X-14.0285 Y30.5112 
G01 X-14.1368 Y30.5402 
G01 X-14.1416 Y30.5415 
G01 X-14.2429 Y30.6000 
G01 X-14.5458 Y30.9029 
G01 X-14.9962 Y31.0895 
G01 X-15.4838 Y31.0895 
G01 X-15.6406 Y31.0245 
G01 X-15.6661 Y31.0098 
G01 X-15.6944 Y31.0022 
G01 X-15.7216 Y30.9910 
G01 X-15.7507 Y30.9872 
G01 X-15.7791 Y30.9795 
G01 X-15.8085 Y30.9796 
G01 X-15.8376 Y30.9757 
G01 X-15.8667 Y30.9796 
G01 X-15.8962 Y30.9796 
G01 X-15.9245 Y30.9872 
G01 X-15.9536 Y30.9910 
G01 X-15.9808 Y31.0022 
G01 X-16.0092 Y31.0099 
G01 X-16.0346 Y31.0245 
G01 X-16.0618 Y31.0358 
G01 X-16.0851 Y31.0537 
G01 X-16.1106 Y31.0684 
G01 X-16.1313 Y31.0892 
G01 X-16.1546 Y31.1070 
G01 X-16.1725 Y31.1303 
G01 X-16.9927 Y31.9505 
G01 X-17.0512 Y32.0519 
G01 X-17.0815 Y32.1649 
G01 X-17.0815 Y42.6358 
G01 X-17.0512 Y42.7488 
G01 X-16.9927 Y42.8502 
G01 X-16.9099 Y42.9329 
G01 X-16.7829 Y43.0600 
G01 X-16.6816 Y43.1185 
G01 X-16.5685 Y43.1488 
G01 X-16.4515 Y43.1488 
G01 X-16.4225 Y43.1410 
G01 X-16.3384 Y43.1185 
G01 X-16.2371 Y43.0600 
G01 X-16.1543 Y42.9772 
G01 X-15.9342 Y42.7571 
G01 X-15.4838 Y42.5705 
G01 X-14.9962 Y42.5705 
G01 X-14.5458 Y42.7571 
G01 X-14.2011 Y43.1018 
G01 X-14.0805 Y43.3928 
G01 X-14.0679 Y43.4318 
G01 X-14.0582 Y43.4466 
G01 X-14.0515 Y43.4629 
G01 X-14.0265 Y43.4955 
G01 X-14.0041 Y43.5300 
G01 X-13.9910 Y43.5418 
G01 X-13.9802 Y43.5558 
G01 X-13.9476 Y43.5808 
G01 X-13.9171 Y43.6083 
G01 X-13.9014 Y43.6163 
G01 X-13.8874 Y43.6270 
G01 X-13.8494 Y43.6428 
G01 X-13.8128 Y43.6614 
G01 X-13.7956 Y43.6651 
G01 X-13.7792 Y43.6718 
G01 X-13.7385 Y43.6772 
G01 X-13.6984 Y43.6857 
G01 X-13.6807 Y43.6848 
G01 X-13.6632 Y43.6871 
G01 X-13.6225 Y43.6818 
G01 X-13.5898 Y43.6800 
G01 X-13.5953 Y43.7078 
G01 X-13.5953 Y45.1922 
G01 X-13.5898 Y45.2200 
G01 X-13.6225 Y45.2182 
G01 X-13.6632 Y45.2129 
G01 X-13.6807 Y45.2152 
G01 X-13.6984 Y45.2143 
G01 X-13.7385 Y45.2228 
G01 X-13.7792 Y45.2282 
G01 X-13.7956 Y45.2349 
G01 X-13.8128 Y45.2386 
G01 X-13.8494 Y45.2572 
G01 X-13.8874 Y45.2729 
G01 X-13.9014 Y45.2837 
G01 X-13.9171 Y45.2917 
G01 X-13.9476 Y45.3192 
G01 X-13.9802 Y45.3442 
G01 X-13.9910 Y45.3582 
G01 X-14.0041 Y45.3700 
G01 X-14.0265 Y45.4045 
G01 X-14.0515 Y45.4370 
G01 X-14.0582 Y45.4534 
G01 X-14.0679 Y45.4682 
G01 X-14.0805 Y45.5072 
G01 X-14.2011 Y45.7982 
G01 X-14.5458 Y46.1429 
G01 X-14.9962 Y46.3295 
G01 X-15.4838 Y46.3295 
G01 X-15.9342 Y46.1429 
G01 X-16.1543 Y45.9228 
G01 X-16.2371 Y45.8400 
G01 X-16.3384 Y45.7815 
G01 X-16.4199 Y45.7597 
G01 X-16.4515 Y45.7512 
G01 X-16.5685 Y45.7512 
G01 X-16.6768 Y45.7802 
G01 X-16.6816 Y45.7815 
G01 X-16.7829 Y45.8400 
G01 X-17.0858 Y46.1429 
G01 X-17.5362 Y46.3295 
G01 X-18.0238 Y46.3295 
G01 X-18.4742 Y46.1429 
G01 X-18.6943 Y45.9228 
G01 X-18.7771 Y45.8400 
G01 X-18.8784 Y45.7815 
G01 X-18.9599 Y45.7597 
G01 X-18.9915 Y45.7512 
G01 X-19.1085 Y45.7512 
G01 X-19.2168 Y45.7802 
G01 X-19.2216 Y45.7815 
G01 X-19.3229 Y45.8400 
G01 X-19.6258 Y46.1429 
G01 X-20.0762 Y46.3295 
G01 X-20.4596 Y46.3295 
G01 X-21.2217 Y45.5674 
G01 X-21.2217 Y43.1315 
G01 X-21.2468 Y43.0378 
G01 X-21.2953 Y42.9539 
G01 X-22.5653 Y41.6839 
G01 X-22.6339 Y41.6153 
G01 X-22.7178 Y41.5668 
G01 X-22.8115 Y41.5417 
G01 X-27.9885 Y41.5417 
G01 X-28.0822 Y41.5668 
G01 X-28.1661 Y41.6153 
G01 X-29.2100 Y42.6591 
G01 X-30.1853 Y41.6839 
G01 X-30.2539 Y41.6153 
G01 X-30.3378 Y41.5668 
G01 X-30.4315 Y41.5417 
G01 X-30.5285 Y41.5417 
G01 X-30.6222 Y41.5668 
G01 X-30.7061 Y41.6153 
G01 X-31.7500 Y42.6591 
G01 X-32.7253 Y41.6839 
G01 X-32.7939 Y41.6153 
G01 X-32.8778 Y41.5668 
G01 X-32.9715 Y41.5417 
G01 X-32.9755 Y41.5378 
G01 X-32.9755 Y39.7422 
G01 X-32.8819 Y39.5162 
G01 X-32.8672 Y39.4908 
G01 X-32.8596 Y39.4624 
G01 X-32.8483 Y39.4352 
G01 X-32.8445 Y39.4061 
G01 X-32.8369 Y39.3777 
G01 X-32.8369 Y39.3483 
G01 X-32.8331 Y39.3192 
G01 X-32.8369 Y39.2901 
G01 X-32.8369 Y39.2607 
G01 X-32.8445 Y39.2323 
G01 X-32.8483 Y39.2032 
G01 X-32.8596 Y39.1760 
G01 X-32.8672 Y39.1476 
G01 X-32.8819 Y39.1222 
G01 X-32.8931 Y39.0950 
G01 X-32.9110 Y39.0717 
G01 X-32.9257 Y39.0463 
G01 X-32.9465 Y39.0255 
G01 X-32.9644 Y39.0022 
G01 X-32.9877 Y38.9843 
G01 X-33.0085 Y38.9635 
G01 X-33.0339 Y38.9488 
G01 X-33.0572 Y38.9309 
G01 X-33.0844 Y38.9197 
G01 X-33.1098 Y38.9050 
G01 X-33.1382 Y38.8974 
G01 X-33.1654 Y38.8861 
G01 X-33.1945 Y38.8823 
G01 X-33.2229 Y38.8747 
G01 X-33.2523 Y38.8747 
G01 X-33.2814 Y38.8709 
G01 X-33.3105 Y38.8747 
G01 X-49.6841 Y38.8747 
G01 X-49.9688 Y38.7568 
G01 X-50.1868 Y38.5388 
G01 X-50.3047 Y38.2541 
G01 X-50.3047 Y37.5587 
G01 X-50.3350 Y37.4457 
G01 X-50.3935 Y37.3443 
G01 X-50.4317 Y37.3061 
G01 X-50.4317 Y36.7668 
G01 X-50.4191 Y36.7972 
G01 X-50.3093 Y36.9616 
G01 X-50.1696 Y37.1013 
G01 X-50.0052 Y37.2111 
G01 X-49.9745 Y37.2238 
G01 X-49.9745 Y38.1585 
G01 X-49.9442 Y38.2716 
G01 X-49.8857 Y38.3729 
G01 X-49.8029 Y38.4557 
G01 X-49.7016 Y38.5142 
G01 X-49.5885 Y38.5445 
G01 X-23.1347 Y38.5445 
G01 X-22.4775 Y39.8588 
G01 X-22.4853 Y39.8978 
G01 X-22.4853 Y41.3822 
G01 X-22.4509 Y41.5551 
G01 X-22.3834 Y41.7181 
G01 X-22.2854 Y41.8647 
G01 X-22.1607 Y41.9894 
G01 X-22.0141 Y42.0874 
G01 X-21.8512 Y42.1549 
G01 X-21.6782 Y42.1893 
G01 X-21.5018 Y42.1893 
G01 X-21.3288 Y42.1549 
G01 X-21.1659 Y42.0874 
G01 X-21.0193 Y41.9894 
G01 X-20.8946 Y41.8647 
G01 X-20.7966 Y41.7181 
G01 X-20.7645 Y41.6406 
G01 X-20.7645 Y43.0162 
G01 X-20.8907 Y43.1006 
G01 X-21.0154 Y43.2253 
G01 X-21.1134 Y43.3719 
G01 X-21.1809 Y43.5348 
G01 X-21.2153 Y43.7078 
G01 X-21.2153 Y45.1922 
G01 X-21.1809 Y45.3651 
G01 X-21.1134 Y45.5281 
G01 X-21.0154 Y45.6747 
G01 X-20.8907 Y45.7994 
G01 X-20.7441 Y45.8974 
G01 X-20.5812 Y45.9649 
G01 X-20.4082 Y45.9993 
G01 X-20.2318 Y45.9993 
G01 X-20.0588 Y45.9649 
G01 X-19.8959 Y45.8974 
G01 X-19.7493 Y45.7994 
G01 X-19.6246 Y45.6747 
G01 X-19.5266 Y45.5281 
G01 X-19.4591 Y45.3651 
G01 X-19.4247 Y45.1922 
G01 X-19.4247 Y43.7078 
G01 X-19.4591 Y43.5348 
G01 X-19.5266 Y43.3719 
G01 X-19.6246 Y43.2253 
G01 X-19.7493 Y43.1006 
G01 X-19.8755 Y43.0162 
G01 X-19.8755 Y41.6406 
G01 X-19.8434 Y41.7181 
G01 X-19.7454 Y41.8647 
G01 X-19.6207 Y41.9894 
G01 X-19.4741 Y42.0874 
G01 X-19.3112 Y42.1549 
G01 X-19.1382 Y42.1893 
G01 X-18.9618 Y42.1893 
G01 X-18.7888 Y42.1549 
G01 X-18.6259 Y42.0874 
G01 X-18.4793 Y41.9894 
G01 X-18.3546 Y41.8647 
G01 X-18.2566 Y41.7181 
G01 X-18.1891 Y41.5551 
G01 X-18.1547 Y41.3822 
G01 X-18.1547 Y39.8978 
G01 X-18.1891 Y39.7248 
G01 X-18.2566 Y39.5619 
G01 X-18.3546 Y39.4153 
G01 X-18.4793 Y39.2906 
G01 X-18.6055 Y39.2062 
G01 X-18.6055 Y36.3045 
G01 X-18.4988 Y36.3045 
G01 X-18.4101 Y36.2678 
G01 X-18.3422 Y36.1999 
G01 X-18.3055 Y36.1112 
G01 X-18.3055 Y35.0088 
G01 X-18.3422 Y34.9201 
G01 X-18.4101 Y34.8522 
G01 X-18.4988 Y34.8155 
G01 X-19.6012 Y34.8155 
G01 X-19.6899 Y34.8522 
G01 X-19.7578 Y34.9201 
G01 X-19.7945 Y35.0088 
G01 X-19.7945 Y36.1112 
G01 X-19.7578 Y36.1999 
G01 X-19.6899 Y36.2678 
G01 X-19.6012 Y36.3045 
G01 X-19.4945 Y36.3045 
G01 X-19.4945 Y39.2062 
G01 X-19.6207 Y39.2906 
G01 X-19.7454 Y39.4153 
G01 X-19.8434 Y39.5619 
G01 X-19.8755 Y39.6394 
G01 X-19.8755 Y32.9615 
G01 X-19.9058 Y32.8484 
G01 X-19.9643 Y32.7471 
G01 X-20.0471 Y32.6643 
G01 X-20.1484 Y32.6058 
G01 X-20.2615 Y32.5755 
G01 X-41.4655 Y32.5755 
G01 X-41.4655 Y27.1145 
G01 X-36.7715 Y27.1145 
G01 X-36.6584 Y27.0842 
G01 X-36.5571 Y27.0257 
G01 X-35.2871 Y25.7557 
G01 X-35.2043 Y25.6729 
G01 X-35.1634 Y25.6021 
G01 X-35.1329 Y25.5895 
G01 X-34.9852 Y25.4908 
G01 X-34.8596 Y25.3652 
G01 X-34.7609 Y25.2175 
G01 X-34.6930 Y25.0534 
G01 X-34.6583 Y24.8792 
G01 X-34.6583 Y23.3808 
G01 X-34.6930 Y23.2066 
G01 X-34.7609 Y23.0425 
G01 X-34.8596 Y22.8948 
G01 X-34.9129 Y22.8415 
G01 X-33.2931 Y21.2217 
G01 X-32.6465 Y21.2217 
G01 X-32.1183 Y20.6935 
G01 X-32.1183 Y19.9465 
G01 X-32.6465 Y19.4183 
G01 X-33.3935 Y19.4183 
G01 X-33.9217 Y19.9465 
G01 X-33.9217 Y20.5931 
G01 X-35.9157 Y22.5871 
G01 X-35.9566 Y22.6579 
G01 X-35.9871 Y22.6705 
G01 X-36.1348 Y22.7692 
G01 X-36.2604 Y22.8948 
G01 X-36.3591 Y23.0425 
G01 X-36.4270 Y23.2066 
G01 X-36.4617 Y23.3808 
G01 X-36.4617 Y24.8792 
G01 X-36.4270 Y25.0534 
G01 X-36.3591 Y25.2175 
G01 X-36.2604 Y25.3652 
G01 X-36.2071 Y25.4185 
G01 X-37.0141 Y26.2255 
G01 X-41.9685 Y26.2255 
G01 X-42.0816 Y26.2558 
G01 X-42.1829 Y26.3143 
G01 X-42.2657 Y26.3971 
G01 X-42.3242 Y26.4984 
G01 X-42.3545 Y26.6115 
G01 X-42.3545 Y33.0785 
G01 X-42.3242 Y33.1916 
G01 X-42.2657 Y33.2929 
G01 X-42.1829 Y33.3757 
G01 X-42.0816 Y33.4342 
G01 X-41.9685 Y33.4645 
G01 X-20.7645 Y33.4645 
G01 X-20.7645 Y39.6394 
G01 X-20.7966 Y39.5619 
G01 X-20.8946 Y39.4153 
G01 X-21.0193 Y39.2906 
G01 X-21.1659 Y39.1926 
G01 X-21.3288 Y39.1251 
G01 X-21.5018 Y39.0907 
G01 X-21.6782 Y39.0907 
G01 X-21.8505 Y39.1250 
G01 X-22.4423 Y37.9415 
G01 X-22.4458 Y37.9284 
G01 X-22.4684 Y37.8893 
G01 X-22.4886 Y37.8489 
G01 X-22.4976 Y37.8388 
G01 X-22.5043 Y37.8271 
G01 X-22.5363 Y37.7951 
G01 X-22.5663 Y37.7613 
G01 X-22.5775 Y37.7539 
G01 X-22.5871 Y37.7443 
G01 X-22.6262 Y37.7217 
G01 X-22.6639 Y37.6968 
G01 X-22.6767 Y37.6925 
G01 X-22.6884 Y37.6858 
G01 X-22.7321 Y37.6741 
G01 X-22.7750 Y37.6598 
G01 X-22.7884 Y37.6590 
G01 X-22.8015 Y37.6555 
G01 X-22.8467 Y37.6555 
G01 X-22.8918 Y37.6528 
G01 X-22.9050 Y37.6555 
G01 X-49.0855 Y37.6555 
G01 X-49.0855 Y37.2238 
G01 X-49.0548 Y37.2111 
G01 X-48.8904 Y37.1013 
G01 X-48.7507 Y36.9616 
G01 X-48.6409 Y36.7972 
G01 X-48.5653 Y36.6146 
G01 X-48.5267 Y36.4208 
G01 X-48.5267 Y34.6992 
G01 X-48.5653 Y34.5053 
G01 X-48.6409 Y34.3228 
G01 X-48.7507 Y34.1584 
G01 X-48.8904 Y34.0187 
G01 X-49.0548 Y33.9089 
G01 X-49.2373 Y33.8333 
G01 X-49.4312 Y33.7947 
G01 X-49.6288 Y33.7947 
G01 X-49.8223 Y33.8332 
G01 X-49.4536 Y33.4645 
G01 X-49.2647 Y33.4645 
G01 X-48.7746 Y33.6675 
G01 X-48.3995 Y34.0426 
G01 X-48.3600 Y34.1380 
G01 X-48.3591 Y34.1439 
G01 X-48.3376 Y34.1920 
G01 X-48.3175 Y34.2407 
G01 X-48.3139 Y34.2454 
G01 X-48.3115 Y34.2508 
G01 X-48.2783 Y34.2917 
G01 X-48.2462 Y34.3335 
G01 X-48.2415 Y34.3371 
G01 X-48.2378 Y34.3417 
G01 X-48.1952 Y34.3727 
G01 X-48.1534 Y34.4048 
G01 X-48.1479 Y34.4070 
G01 X-48.1431 Y34.4105 
G01 X-48.0939 Y34.4294 
G01 X-48.0453 Y34.4496 
G01 X-48.0394 Y34.4503 
G01 X-48.0338 Y34.4525 
G01 X-47.9814 Y34.4580 
G01 X-47.9375 Y34.4637 
G01 X-47.9547 Y34.5053 
G01 X-47.9933 Y34.6992 
G01 X-47.9933 Y36.4208 
G01 X-47.9547 Y36.6146 
G01 X-47.8791 Y36.7972 
G01 X-47.7693 Y36.9616 
G01 X-47.6296 Y37.1013 
G01 X-47.4652 Y37.2111 
G01 X-47.2826 Y37.2867 
G01 X-47.0888 Y37.3253 
G01 X-46.8912 Y37.3253 
G01 X-46.6973 Y37.2867 
G01 X-46.5148 Y37.2111 
G01 X-46.3504 Y37.1013 
G01 X-46.2107 Y36.9616 
G01 X-46.1009 Y36.7972 
G01 X-46.0253 Y36.6146 
G01 X-45.9867 Y36.4208 
G01 X-45.9867 Y34.6992 
G01 X-46.0253 Y34.5053 
G01 X-46.0425 Y34.4637 
G01 X-45.9986 Y34.4580 
G01 X-45.9462 Y34.4525 
G01 X-45.9406 Y34.4503 
G01 X-45.9347 Y34.4496 
G01 X-45.8861 Y34.4294 
G01 X-45.8369 Y34.4105 
G01 X-45.8321 Y34.4070 
G01 X-45.8266 Y34.4048 
G01 X-45.7848 Y34.3727 
G01 X-45.7422 Y34.3417 
G01 X-45.7385 Y34.3371 
G01 X-45.7338 Y34.3335 
G01 X-45.7017 Y34.2917 
G01 X-45.6685 Y34.2508 
G01 X-45.6661 Y34.2454 
G01 X-45.6625 Y34.2407 
G01 X-45.6424 Y34.1920 
G01 X-45.6209 Y34.1439 
G01 X-45.6200 Y34.1380 
G01 X-45.5805 Y34.0426 
G01 X-45.2054 Y33.6675 
G01 X-44.7152 Y33.4645 
G01 X-44.1847 Y33.4645 
G01 X-43.6946 Y33.6675 
G01 X-43.3195 Y34.0426 
G01 X-43.1367 Y34.4840 
G01 X-43.1291 Y34.5124 
G01 X-43.1144 Y34.5378 
G01 X-43.1031 Y34.5650 
G01 X-43.0853 Y34.5883 
G01 X-43.0706 Y34.6137 
G01 X-43.0498 Y34.6345 
G01 X-43.0319 Y34.6578 
G01 X-43.0086 Y34.6757 
G01 X-42.9878 Y34.6965 
G01 X-42.9624 Y34.7112 
G01 X-42.9391 Y34.7291 
G01 X-42.9119 Y34.7403 
G01 X-42.8865 Y34.7550 
G01 X-42.8581 Y34.7626 
G01 X-42.8309 Y34.7739 
G01 X-42.8018 Y34.7777 
G01 X-42.7734 Y34.7853 
G01 X-42.7440 Y34.7853 
G01 X-42.7149 Y34.7891 
G01 X-42.6858 Y34.7853 
G01 X-31.6455 Y34.7853 
G01 X-31.5325 Y34.7550 
G01 X-31.4311 Y34.6965 
G01 X-31.3483 Y34.6137 
G01 X-31.3295 Y34.5949 
G01 X-31.2482 Y34.5136 
G01 X-31.1980 Y34.4277 
G01 X-31.1882 Y34.4108 
G01 X-31.1745 Y34.3596 
G01 X-31.1579 Y34.2977 
G01 X-31.1579 Y34.1807 
G01 X-31.1882 Y34.0676 
G01 X-31.2467 Y33.9663 
G01 X-31.3282 Y33.8848 
G01 X-31.4139 Y33.8348 
G01 X-31.4309 Y33.8250 
G01 X-31.4820 Y33.8113 
G01 X-31.5439 Y33.7947 
G01 X-42.0641 Y33.7947 
G01 X-42.3488 Y33.6768 
G01 X-42.5668 Y33.4588 
G01 X-42.6847 Y33.1741 
G01 X-42.6847 Y26.5159 
G01 X-42.5668 Y26.2312 
