(.../pcb-gcode-3.6.2.4/pcb-gcode.ulp)
(Copyright 2005 - 2012 by John Johnson)
(See readme.txt for licensing terms.)
(This file generated from the board:)
(.../eagle/ghf_sensor/ghf_sensor.brd)
(Current profile is .../pcb-gcode-3.6.2.4/profiles/generic.pp  )
(This file generated 2018/03/30 1:14)
(Settings from pcb-machine.h)
(spindle on time = 3.0000)
(  Tool Size)
(0.1778 )
(spindle speed = 30000.0000)
(tool change at 0.0000 0.0000 25.4000 )
(feed rate xy = F508.00 )
(feed rate z  = F254.00 )
(Z Axis Settings)
(  High     Up        Down     Drill)
(12.7000 	2.5400 	-0.1200 	-0.8128 )
(Settings from pcb-defaults.h)
(isolate min = 0.0254)
(isolate max = 0.5080)
(isolate step = 0.1270)
(Generated top outlines, top drill, bottom outlines, bottom drill, )
(Unit of measure: mm)
(Metric Mode)
G21
(Absolute Coordinates)
G90
S30000
G00 Z12.7000 
G00 X0.0000 Y0.0000 
M03
G04 P3.000000
G00 Z2.5400 
G00 X4.4783 Y16.6258 
G01 Z-0.1200 F254.00 
G01 X4.3935 Y16.7526 F508.00 
G01 X4.3351 Y16.8936 
G01 X4.3053 Y17.0433 
G01 X4.3053 Y18.5167 
G01 X4.3351 Y18.6664 
G01 X4.3935 Y18.8074 
G01 X4.4783 Y18.9342 
G01 X4.5862 Y19.0421 
G01 X4.7130 Y19.1269 
G01 X4.8540 Y19.1853 
G01 X5.0037 Y19.2151 
G01 X5.1563 Y19.2151 
G01 X5.3060 Y19.1853 
G01 X5.4470 Y19.1269 
G01 X5.5738 Y19.0421 
G01 X5.6817 Y18.9342 
G01 X5.7665 Y18.8074 
G01 X5.8249 Y18.6664 
G01 X5.8547 Y18.5167 
G01 X5.8547 Y17.0433 
G01 X5.8249 Y16.8936 
G01 X5.7665 Y16.7526 
G01 X5.6817 Y16.6258 
G01 X5.5738 Y16.5178 
G01 X5.4470 Y16.4331 
G01 X5.3060 Y16.3747 
G01 X5.1563 Y16.3449 
G01 X5.0037 Y16.3449 
G01 X4.8540 Y16.3747 
G01 X4.7130 Y16.4331 
G01 X4.5862 Y16.5178 
G01 X4.4783 Y16.6258 
G00 Z2.5400 
G00 X7.0183 Y16.6258 
G01 Z-0.1200 F254.00 
G01 X6.9335 Y16.7526 F508.00 
G01 X6.8751 Y16.8936 
G01 X6.8453 Y17.0433 
G01 X6.8453 Y18.5167 
G01 X6.8751 Y18.6664 
G01 X6.9335 Y18.8074 
G01 X7.0183 Y18.9342 
G01 X7.1262 Y19.0421 
G01 X7.2530 Y19.1269 
G01 X7.3940 Y19.1853 
G01 X7.5437 Y19.2151 
G01 X7.6963 Y19.2151 
G01 X7.8460 Y19.1853 
G01 X7.9870 Y19.1269 
G01 X8.1138 Y19.0421 
G01 X8.2217 Y18.9342 
G01 X8.3065 Y18.8074 
G01 X8.3649 Y18.6664 
G01 X8.3947 Y18.5167 
G01 X8.3947 Y17.0433 
G01 X8.3649 Y16.8936 
G01 X8.3065 Y16.7526 
G01 X8.2217 Y16.6258 
G01 X8.1138 Y16.5178 
G01 X7.9870 Y16.4331 
G01 X7.8460 Y16.3747 
G01 X7.6963 Y16.3449 
G01 X7.5437 Y16.3449 
G01 X7.3940 Y16.3747 
G01 X7.2530 Y16.4331 
G01 X7.1262 Y16.5178 
G01 X7.0183 Y16.6258 
G00 Z2.5400 
G00 X9.5582 Y16.6258 
G01 Z-0.1200 F254.00 
G01 X9.4735 Y16.7526 F508.00 
G01 X9.4151 Y16.8936 
G01 X9.3853 Y17.0433 
G01 X9.3853 Y18.5167 
G01 X9.4151 Y18.6664 
G01 X9.4735 Y18.8074 
G01 X9.5582 Y18.9342 
G01 X9.6662 Y19.0421 
G01 X9.7930 Y19.1269 
G01 X9.9340 Y19.1853 
G01 X10.0837 Y19.2151 
G01 X10.2363 Y19.2151 
G01 X10.3860 Y19.1853 
G01 X10.5270 Y19.1269 
G01 X10.6538 Y19.0421 
G01 X10.7617 Y18.9342 
G01 X10.8465 Y18.8074 
G01 X10.9049 Y18.6664 
G01 X10.9347 Y18.5167 
G01 X10.9347 Y17.0433 
G01 X10.9049 Y16.8936 
G01 X10.8465 Y16.7526 
G01 X10.7617 Y16.6258 
G01 X10.6538 Y16.5178 
G01 X10.5270 Y16.4331 
G01 X10.3860 Y16.3747 
G01 X10.2363 Y16.3449 
G01 X10.0837 Y16.3449 
G01 X9.9340 Y16.3747 
G01 X9.7930 Y16.4331 
G01 X9.6662 Y16.5178 
G01 X9.5582 Y16.6258 
G00 Z2.5400 
G00 X12.0983 Y16.6258 
G01 Z-0.1200 F254.00 
G01 X12.0135 Y16.7526 F508.00 
G01 X11.9551 Y16.8936 
G01 X11.9253 Y17.0433 
G01 X11.9253 Y18.5167 
G01 X11.9551 Y18.6664 
G01 X12.0135 Y18.8074 
G01 X12.0983 Y18.9342 
G01 X12.2062 Y19.0421 
G01 X12.3330 Y19.1269 
G01 X12.4740 Y19.1853 
G01 X12.6237 Y19.2151 
G01 X12.7763 Y19.2151 
G01 X12.9260 Y19.1853 
G01 X13.0670 Y19.1269 
G01 X13.1938 Y19.0421 
G01 X13.3017 Y18.9342 
G01 X13.3865 Y18.8074 
G01 X13.4449 Y18.6664 
G01 X13.4747 Y18.5167 
G01 X13.4747 Y17.0433 
G01 X13.4449 Y16.8936 
G01 X13.3865 Y16.7526 
G01 X13.3017 Y16.6258 
G01 X13.1938 Y16.5178 
G01 X13.0670 Y16.4331 
G01 X12.9260 Y16.3747 
G01 X12.7763 Y16.3449 
G01 X12.6237 Y16.3449 
G01 X12.4740 Y16.3747 
G01 X12.3330 Y16.4331 
G01 X12.2062 Y16.5178 
G01 X12.0983 Y16.6258 
G00 Z2.5400 
G00 X12.0983 Y24.2458 
G01 Z-0.1200 F254.00 
G01 X12.0135 Y24.3726 F508.00 
G01 X11.9551 Y24.5136 
G01 X11.9253 Y24.6633 
G01 X11.9253 Y26.1367 
G01 X11.9551 Y26.2864 
G01 X12.0135 Y26.4274 
G01 X12.0983 Y26.5542 
G01 X12.2062 Y26.6621 
G01 X12.3330 Y26.7469 
G01 X12.4740 Y26.8053 
G01 X12.6237 Y26.8351 
G01 X12.7763 Y26.8351 
G01 X12.9260 Y26.8053 
G01 X13.0670 Y26.7469 
G01 X13.1938 Y26.6621 
G01 X13.3017 Y26.5542 
G01 X13.3865 Y26.4274 
G01 X13.4449 Y26.2864 
G01 X13.4747 Y26.1367 
G01 X13.4747 Y24.6633 
G01 X13.4449 Y24.5136 
G01 X13.3865 Y24.3726 
G01 X13.3017 Y24.2458 
G01 X13.1938 Y24.1379 
G01 X13.0670 Y24.0531 
G01 X12.9260 Y23.9947 
G01 X12.7763 Y23.9649 
G01 X12.6237 Y23.9649 
G01 X12.4740 Y23.9947 
G01 X12.3330 Y24.0531 
G01 X12.2062 Y24.1379 
G01 X12.0983 Y24.2458 
G00 Z2.5400 
G00 X10.7617 Y24.2458 
G01 Z-0.1200 F254.00 
G01 X10.6538 Y24.1379 F508.00 
G01 X10.5270 Y24.0531 
G01 X10.3860 Y23.9947 
G01 X10.2363 Y23.9649 
G01 X10.0837 Y23.9649 
G01 X9.9340 Y23.9947 
G01 X9.7930 Y24.0531 
G01 X9.6662 Y24.1379 
G01 X9.5582 Y24.2458 
G01 X9.4735 Y24.3726 
G01 X9.4151 Y24.5136 
G01 X9.3853 Y24.6633 
G01 X9.3853 Y26.1367 
G01 X9.4151 Y26.2864 
G01 X9.4735 Y26.4274 
G01 X9.5582 Y26.5542 
G01 X9.6662 Y26.6621 
G01 X9.7930 Y26.7469 
G01 X9.9340 Y26.8053 
G01 X10.0837 Y26.8351 
G01 X10.2363 Y26.8351 
G01 X10.3860 Y26.8053 
G01 X10.5270 Y26.7469 
G01 X10.6538 Y26.6621 
G01 X10.7617 Y26.5542 
G01 X10.8465 Y26.4274 
G01 X10.9049 Y26.2864 
G01 X10.9347 Y26.1367 
G01 X10.9347 Y24.6633 
G01 X10.9049 Y24.5136 
G01 X10.8465 Y24.3726 
G01 X10.7617 Y24.2458 
G00 Z2.5400 
G00 X8.2217 Y24.2458 
G01 Z-0.1200 F254.00 
G01 X8.1138 Y24.1379 F508.00 
G01 X7.9870 Y24.0531 
G01 X7.8460 Y23.9947 
G01 X7.6963 Y23.9649 
G01 X7.5437 Y23.9649 
G01 X7.3940 Y23.9947 
G01 X7.2530 Y24.0531 
G01 X7.1262 Y24.1379 
G01 X7.0183 Y24.2458 
G01 X6.9335 Y24.3726 
G01 X6.8751 Y24.5136 
G01 X6.8453 Y24.6633 
G01 X6.8453 Y26.1367 
G01 X6.8751 Y26.2864 
G01 X6.9335 Y26.4274 
G01 X7.0183 Y26.5542 
G01 X7.1262 Y26.6621 
G01 X7.2530 Y26.7469 
G01 X7.3940 Y26.8053 
G01 X7.5437 Y26.8351 
G01 X7.6963 Y26.8351 
G01 X7.8460 Y26.8053 
G01 X7.9870 Y26.7469 
G01 X8.1138 Y26.6621 
G01 X8.2217 Y26.5542 
G01 X8.3065 Y26.4274 
G01 X8.3649 Y26.2864 
G01 X8.3947 Y26.1367 
G01 X8.3947 Y24.6633 
G01 X8.3649 Y24.5136 
G01 X8.3065 Y24.3726 
G01 X8.2217 Y24.2458 
G00 Z2.5400 
G00 X5.6817 Y24.2458 
G01 Z-0.1200 F254.00 
G01 X5.5738 Y24.1379 F508.00 
G01 X5.4470 Y24.0531 
G01 X5.3060 Y23.9947 
G01 X5.1563 Y23.9649 
G01 X5.0037 Y23.9649 
G01 X4.8540 Y23.9947 
G01 X4.7130 Y24.0531 
G01 X4.5862 Y24.1379 
G01 X4.4783 Y24.2458 
G01 X4.3935 Y24.3726 
G01 X4.3351 Y24.5136 
G01 X4.3053 Y24.6633 
G01 X4.3053 Y26.1367 
G01 X4.3351 Y26.2864 
G01 X4.3935 Y26.4274 
G01 X4.4783 Y26.5542 
G01 X4.5862 Y26.6621 
G01 X4.7130 Y26.7469 
G01 X4.8540 Y26.8053 
G01 X5.0037 Y26.8351 
G01 X5.1563 Y26.8351 
G01 X5.3060 Y26.8053 
G01 X5.4470 Y26.7469 
G01 X5.5738 Y26.6621 
G01 X5.6817 Y26.5542 
G01 X5.7665 Y26.4274 
G01 X5.8249 Y26.2864 
G01 X5.8547 Y26.1367 
G01 X5.8547 Y24.6633 
G01 X5.8249 Y24.5136 
G01 X5.7665 Y24.3726 
G01 X5.6817 Y24.2458 
G00 Z2.5400 
G00 X3.3147 Y26.3491 
G01 Z-0.1200 F254.00 
G01 X2.8609 Y25.8953 F508.00 
G01 X2.2191 Y25.8953 
G01 X1.7653 Y26.3491 
G01 X1.7653 Y26.9909 
G01 X2.2191 Y27.4447 
G01 X2.8609 Y27.4447 
G01 X3.3147 Y26.9909 
G01 X3.3147 Y26.3491 
G00 Z2.5400 
G00 X3.3147 Y31.4291 
G01 Z-0.1200 F254.00 
G01 X2.8609 Y30.9753 F508.00 
G01 X2.2191 Y30.9753 
G01 X1.7653 Y31.4291 
G01 X1.7653 Y32.0709 
G01 X2.2191 Y32.5247 
G01 X2.8609 Y32.5247 
G01 X3.3147 Y32.0709 
G01 X3.3147 Y31.4291 
G00 Z2.5400 
G00 X3.4891 Y33.5153 
G01 Z-0.1200 F254.00 
G01 X3.0353 Y33.9691 F508.00 
G01 X3.0353 Y34.6109 
G01 X3.4891 Y35.0647 
G01 X4.1309 Y35.0647 
G01 X4.5847 Y34.6109 
G01 X4.5847 Y33.9691 
G01 X4.1309 Y33.5153 
G01 X3.4891 Y33.5153 
G00 Z2.5400 
G00 X2.0447 Y33.9691 
G01 Z-0.1200 F254.00 
G01 X1.5909 Y33.5153 F508.00 
G01 X0.9491 Y33.5153 
G01 X0.4953 Y33.9691 
G01 X0.4953 Y34.6109 
G01 X0.9491 Y35.0647 
G01 X1.5909 Y35.0647 
G01 X2.0447 Y34.6109 
G01 X2.0447 Y33.9691 
G00 Z2.5400 
G00 X2.2191 Y35.4203 
G01 Z-0.1200 F254.00 
G01 X1.7653 Y35.8741 F508.00 
G01 X1.7653 Y36.5159 
G01 X2.2191 Y36.9697 
G01 X2.8609 Y36.9697 
G01 X3.3147 Y36.5159 
G01 X3.3147 Y35.8741 
G01 X2.8609 Y35.4203 
G01 X2.2191 Y35.4203 
G00 Z2.5400 
G00 X2.2191 Y38.5953 
G01 Z-0.1200 F254.00 
G01 X1.7653 Y39.0491 F508.00 
G01 X1.7653 Y39.6909 
G01 X2.2191 Y40.1447 
G01 X2.8609 Y40.1447 
G01 X3.3147 Y39.6909 
G01 X3.3147 Y39.0491 
G01 X2.8609 Y38.5953 
G01 X2.2191 Y38.5953 
G00 Z2.5400 
G00 X6.3692 Y38.5898 
G01 Z-0.1200 F254.00 
G01 X6.4762 Y38.6968 F508.00 
G01 X6.6021 Y38.7809 
G01 X6.7419 Y38.8388 
G01 X6.8903 Y38.8683 
G01 X8.3497 Y38.8683 
G01 X8.4981 Y38.8388 
G01 X8.6379 Y38.7809 
G01 X8.7638 Y38.6968 
G01 X8.8708 Y38.5898 
G01 X8.9549 Y38.4639 
G01 X9.0128 Y38.3241 
G01 X9.0423 Y38.1757 
G01 X9.0423 Y38.0243 
G01 X9.0128 Y37.8759 
G01 X8.9549 Y37.7361 
G01 X8.8708 Y37.6102 
G01 X8.7638 Y37.5032 
G01 X8.6379 Y37.4191 
G01 X8.4981 Y37.3612 
G01 X8.3497 Y37.3317 
G01 X6.8903 Y37.3317 
G01 X6.7419 Y37.3612 
G01 X6.6021 Y37.4191 
G01 X6.4762 Y37.5032 
G01 X6.3692 Y37.6102 
G01 X6.2851 Y37.7361 
G01 X6.2272 Y37.8759 
G01 X6.1977 Y38.0243 
G01 X6.1977 Y38.1757 
G01 X6.2272 Y38.3241 
G01 X6.2851 Y38.4639 
G01 X6.3692 Y38.5898 
G00 Z2.5400 
G00 X6.3692 Y40.1502 
G01 Z-0.1200 F254.00 
G01 X6.2851 Y40.2761 F508.00 
G01 X6.2272 Y40.4159 
G01 X6.1977 Y40.5643 
G01 X6.1977 Y40.7157 
G01 X6.2272 Y40.8641 
G01 X6.2851 Y41.0039 
G01 X6.3692 Y41.1298 
G01 X6.4762 Y41.2368 
G01 X6.6021 Y41.3209 
G01 X6.7419 Y41.3788 
G01 X6.8903 Y41.4083 
G01 X8.3497 Y41.4083 
G01 X8.4981 Y41.3788 
G01 X8.6379 Y41.3209 
G01 X8.7638 Y41.2368 
G01 X8.8708 Y41.1298 
G01 X8.9549 Y41.0039 
G01 X9.0128 Y40.8641 
G01 X9.0423 Y40.7157 
G01 X9.0423 Y40.5643 
G01 X9.0128 Y40.4159 
G01 X8.9549 Y40.2761 
G01 X8.8708 Y40.1502 
G01 X8.7638 Y40.0432 
G01 X8.6379 Y39.9591 
G01 X8.4981 Y39.9012 
G01 X8.3497 Y39.8717 
G01 X6.8903 Y39.8717 
G01 X6.7419 Y39.9012 
G01 X6.6021 Y39.9591 
G01 X6.4762 Y40.0432 
G01 X6.3692 Y40.1502 
G00 Z2.5400 
G00 X6.3692 Y42.6902 
G01 Z-0.1200 F254.00 
G01 X6.2851 Y42.8161 F508.00 
G01 X6.2272 Y42.9559 
G01 X6.1977 Y43.1043 
G01 X6.1977 Y43.2557 
G01 X6.2272 Y43.4041 
G01 X6.2851 Y43.5439 
G01 X6.3692 Y43.6698 
G01 X6.4762 Y43.7768 
G01 X6.6021 Y43.8609 
G01 X6.7419 Y43.9188 
G01 X6.8903 Y43.9483 
G01 X8.3497 Y43.9483 
G01 X8.4981 Y43.9188 
G01 X8.6379 Y43.8609 
G01 X8.7638 Y43.7768 
G01 X8.8708 Y43.6698 
G01 X8.9549 Y43.5439 
G01 X9.0128 Y43.4041 
G01 X9.0423 Y43.2557 
G01 X9.0423 Y43.1043 
G01 X9.0128 Y42.9559 
G01 X8.9549 Y42.8161 
G01 X8.8708 Y42.6902 
G01 X8.7638 Y42.5832 
G01 X8.6379 Y42.4991 
G01 X8.4981 Y42.4412 
G01 X8.3497 Y42.4117 
G01 X6.8903 Y42.4117 
G01 X6.7419 Y42.4412 
G01 X6.6021 Y42.4991 
G01 X6.4762 Y42.5832 
G01 X6.3692 Y42.6902 
G00 Z2.5400 
G00 X9.5632 Y43.3062 
G01 Z-0.1200 F254.00 
G01 X9.4791 Y43.4321 F508.00 
G01 X9.4212 Y43.5719 
G01 X9.3917 Y43.7203 
G01 X9.3917 Y45.1797 
G01 X9.4212 Y45.3281 
G01 X9.4791 Y45.4679 
G01 X9.5632 Y45.5938 
G01 X9.6702 Y45.7008 
G01 X9.7961 Y45.7849 
G01 X9.9359 Y45.8428 
G01 X10.0843 Y45.8723 
G01 X10.2357 Y45.8723 
G01 X10.3841 Y45.8428 
G01 X10.5239 Y45.7849 
G01 X10.6498 Y45.7008 
G01 X10.7568 Y45.5938 
G01 X10.8409 Y45.4679 
G01 X10.8988 Y45.3281 
G01 X10.9283 Y45.1797 
G01 X10.9283 Y43.7203 
G01 X10.8988 Y43.5719 
G01 X10.8409 Y43.4321 
G01 X10.7568 Y43.3062 
G01 X10.6498 Y43.1992 
G01 X10.5239 Y43.1151 
G01 X10.3841 Y43.0572 
G01 X10.2357 Y43.0277 
G01 X10.0843 Y43.0277 
G01 X9.9359 Y43.0572 
G01 X9.7961 Y43.1151 
G01 X9.6702 Y43.1992 
G01 X9.5632 Y43.3062 
G00 Z2.5400 
G00 X12.1032 Y43.3062 
G01 Z-0.1200 F254.00 
G01 X12.0191 Y43.4321 F508.00 
G01 X11.9612 Y43.5719 
G01 X11.9317 Y43.7203 
G01 X11.9317 Y45.1797 
G01 X11.9612 Y45.3281 
G01 X12.0191 Y45.4679 
G01 X12.1032 Y45.5938 
G01 X12.2102 Y45.7008 
G01 X12.3361 Y45.7849 
G01 X12.4759 Y45.8428 
G01 X12.6243 Y45.8723 
G01 X12.7757 Y45.8723 
G01 X12.9241 Y45.8428 
G01 X13.0639 Y45.7849 
G01 X13.1898 Y45.7008 
G01 X13.2968 Y45.5938 
G01 X13.3809 Y45.4679 
G01 X13.4388 Y45.3281 
G01 X13.4683 Y45.1797 
G01 X13.4683 Y43.7203 
G01 X13.4388 Y43.5719 
G01 X13.3809 Y43.4321 
G01 X13.2968 Y43.3062 
G01 X13.1898 Y43.1992 
G01 X13.0639 Y43.1151 
G01 X12.9241 Y43.0572 
G01 X12.7757 Y43.0277 
G01 X12.6243 Y43.0277 
G01 X12.4759 Y43.0572 
G01 X12.3361 Y43.1151 
G01 X12.2102 Y43.1992 
G01 X12.1032 Y43.3062 
G00 Z2.5400 
G00 X14.6432 Y43.3062 
G01 Z-0.1200 F254.00 
G01 X14.5591 Y43.4321 F508.00 
G01 X14.5012 Y43.5719 
G01 X14.4717 Y43.7203 
G01 X14.4717 Y45.1797 
G01 X14.5012 Y45.3281 
G01 X14.5591 Y45.4679 
G01 X14.6432 Y45.5938 
G01 X14.7502 Y45.7008 
G01 X14.8761 Y45.7849 
G01 X15.0159 Y45.8428 
G01 X15.1643 Y45.8723 
G01 X15.3157 Y45.8723 
G01 X15.4641 Y45.8428 
G01 X15.6039 Y45.7849 
G01 X15.7298 Y45.7008 
G01 X15.8368 Y45.5938 
G01 X15.9209 Y45.4679 
G01 X15.9788 Y45.3281 
G01 X16.0083 Y45.1797 
G01 X16.0083 Y43.7203 
G01 X15.9788 Y43.5719 
G01 X15.9209 Y43.4321 
G01 X15.8368 Y43.3062 
G01 X15.7298 Y43.1992 
G01 X15.6039 Y43.1151 
G01 X15.4641 Y43.0572 
G01 X15.3157 Y43.0277 
G01 X15.1643 Y43.0277 
G01 X15.0159 Y43.0572 
G01 X14.8761 Y43.1151 
G01 X14.7502 Y43.1992 
G01 X14.6432 Y43.3062 
G00 Z2.5400 
G00 X17.1832 Y43.3062 
G01 Z-0.1200 F254.00 
G01 X17.0991 Y43.4321 F508.00 
G01 X17.0412 Y43.5719 
G01 X17.0117 Y43.7203 
G01 X17.0117 Y45.1797 
G01 X17.0412 Y45.3281 
G01 X17.0991 Y45.4679 
G01 X17.1832 Y45.5938 
G01 X17.2902 Y45.7008 
G01 X17.4161 Y45.7849 
G01 X17.5559 Y45.8428 
G01 X17.7043 Y45.8723 
G01 X17.8557 Y45.8723 
G01 X18.0041 Y45.8428 
G01 X18.1439 Y45.7849 
G01 X18.2698 Y45.7008 
G01 X18.3768 Y45.5938 
G01 X18.4609 Y45.4679 
G01 X18.5188 Y45.3281 
G01 X18.5483 Y45.1797 
G01 X18.5483 Y43.7203 
G01 X18.5188 Y43.5719 
G01 X18.4609 Y43.4321 
G01 X18.3768 Y43.3062 
G01 X18.2698 Y43.1992 
G01 X18.1439 Y43.1151 
G01 X18.0041 Y43.0572 
G01 X17.8557 Y43.0277 
G01 X17.7043 Y43.0277 
G01 X17.5559 Y43.0572 
G01 X17.4161 Y43.1151 
G01 X17.2902 Y43.1992 
G01 X17.1832 Y43.3062 
G00 Z2.5400 
G00 X19.7232 Y43.3062 
G01 Z-0.1200 F254.00 
G01 X19.6391 Y43.4321 F508.00 
G01 X19.5812 Y43.5719 
G01 X19.5517 Y43.7203 
G01 X19.5517 Y45.1797 
G01 X19.5812 Y45.3281 
G01 X19.6391 Y45.4679 
G01 X19.7232 Y45.5938 
G01 X19.8302 Y45.7008 
G01 X19.9561 Y45.7849 
G01 X20.0959 Y45.8428 
G01 X20.2443 Y45.8723 
G01 X20.3957 Y45.8723 
G01 X20.5441 Y45.8428 
G01 X20.6839 Y45.7849 
G01 X20.8098 Y45.7008 
G01 X20.9168 Y45.5938 
G01 X21.0009 Y45.4679 
G01 X21.0588 Y45.3281 
G01 X21.0883 Y45.1797 
G01 X21.0883 Y43.7203 
G01 X21.0588 Y43.5719 
G01 X21.0009 Y43.4321 
G01 X20.9168 Y43.3062 
G01 X20.8098 Y43.1992 
G01 X20.6839 Y43.1151 
G01 X20.5441 Y43.0572 
G01 X20.3957 Y43.0277 
G01 X20.2443 Y43.0277 
G01 X20.0959 Y43.0572 
G01 X19.9561 Y43.1151 
G01 X19.8302 Y43.1992 
G01 X19.7232 Y43.3062 
G00 Z2.5400 
G00 X19.6468 Y41.7838 
G01 Z-0.1200 F254.00 
G01 X19.7309 Y41.6579 F508.00 
G01 X19.7888 Y41.5181 
G01 X19.8183 Y41.3697 
G01 X19.8183 Y39.9103 
G01 X19.7888 Y39.7619 
G01 X19.7309 Y39.6221 
G01 X19.6468 Y39.4962 
G01 X19.5398 Y39.3892 
G01 X19.4139 Y39.3051 
G01 X19.2741 Y39.2472 
G01 X19.1257 Y39.2177 
G01 X18.9743 Y39.2177 
G01 X18.8259 Y39.2472 
G01 X18.6861 Y39.3051 
G01 X18.5602 Y39.3892 
G01 X18.4532 Y39.4962 
G01 X18.3691 Y39.6221 
G01 X18.3112 Y39.7619 
G01 X18.2817 Y39.9103 
G01 X18.2817 Y41.3697 
G01 X18.3112 Y41.5181 
G01 X18.3691 Y41.6579 
G01 X18.4532 Y41.7838 
G01 X18.5602 Y41.8908 
G01 X18.6861 Y41.9749 
G01 X18.8259 Y42.0328 
G01 X18.9743 Y42.0623 
G01 X19.1257 Y42.0623 
G01 X19.2741 Y42.0328 
G01 X19.4139 Y41.9749 
G01 X19.5398 Y41.8908 
G01 X19.6468 Y41.7838 
G00 Z2.5400 
G00 X20.9932 Y41.7838 
G01 Z-0.1200 F254.00 
G01 X21.1002 Y41.8908 F508.00 
G01 X21.2261 Y41.9749 
G01 X21.3659 Y42.0328 
G01 X21.5143 Y42.0623 
G01 X21.6657 Y42.0623 
G01 X21.8141 Y42.0328 
G01 X21.9539 Y41.9749 
G01 X22.0798 Y41.8908 
G01 X22.1868 Y41.7838 
G01 X22.2709 Y41.6579 
G01 X22.3288 Y41.5181 
G01 X22.3583 Y41.3697 
G01 X22.3583 Y39.9103 
G01 X22.3288 Y39.7619 
G01 X22.2709 Y39.6221 
G01 X22.1868 Y39.4962 
G01 X22.0798 Y39.3892 
G01 X21.9539 Y39.3051 
G01 X21.8141 Y39.2472 
G01 X21.6657 Y39.2177 
G01 X21.5143 Y39.2177 
G01 X21.3659 Y39.2472 
G01 X21.2261 Y39.3051 
G01 X21.1002 Y39.3892 
G01 X20.9932 Y39.4962 
G01 X20.9091 Y39.6221 
G01 X20.8512 Y39.7619 
G01 X20.8217 Y39.9103 
G01 X20.8217 Y41.3697 
G01 X20.8512 Y41.5181 
G01 X20.9091 Y41.6579 
G01 X20.9932 Y41.7838 
G00 Z2.5400 
G00 X22.2632 Y43.3062 
G01 Z-0.1200 F254.00 
G01 X22.1791 Y43.4321 F508.00 
G01 X22.1212 Y43.5719 
G01 X22.0917 Y43.7203 
G01 X22.0917 Y45.1797 
G01 X22.1212 Y45.3281 
G01 X22.1791 Y45.4679 
G01 X22.2632 Y45.5938 
G01 X22.3702 Y45.7008 
G01 X22.4961 Y45.7849 
G01 X22.6359 Y45.8428 
G01 X22.7843 Y45.8723 
G01 X22.9357 Y45.8723 
G01 X23.0841 Y45.8428 
G01 X23.2239 Y45.7849 
G01 X23.3498 Y45.7008 
G01 X23.4568 Y45.5938 
G01 X23.5409 Y45.4679 
G01 X23.5988 Y45.3281 
G01 X23.6283 Y45.1797 
G01 X23.6283 Y43.7203 
G01 X23.5988 Y43.5719 
G01 X23.5409 Y43.4321 
G01 X23.4568 Y43.3062 
G01 X23.3498 Y43.1992 
G01 X23.2239 Y43.1151 
G01 X23.0841 Y43.0572 
G01 X22.9357 Y43.0277 
G01 X22.7843 Y43.0277 
G01 X22.6359 Y43.0572 
G01 X22.4961 Y43.1151 
G01 X22.3702 Y43.1992 
G01 X22.2632 Y43.3062 
G00 Z2.5400 
G00 X24.8032 Y43.3062 
G01 Z-0.1200 F254.00 
G01 X24.7191 Y43.4321 F508.00 
G01 X24.6612 Y43.5719 
G01 X24.6317 Y43.7203 
G01 X24.6317 Y45.1797 
G01 X24.6612 Y45.3281 
G01 X24.7191 Y45.4679 
G01 X24.8032 Y45.5938 
G01 X24.9102 Y45.7008 
G01 X25.0361 Y45.7849 
G01 X25.1759 Y45.8428 
G01 X25.3243 Y45.8723 
G01 X25.4757 Y45.8723 
G01 X25.6241 Y45.8428 
G01 X25.7639 Y45.7849 
G01 X25.8898 Y45.7008 
G01 X25.9968 Y45.5938 
G01 X26.0809 Y45.4679 
G01 X26.1388 Y45.3281 
G01 X26.1683 Y45.1797 
G01 X26.1683 Y43.7203 
G01 X26.1388 Y43.5719 
G01 X26.0809 Y43.4321 
G01 X25.9968 Y43.3062 
G01 X25.8898 Y43.1992 
G01 X25.7639 Y43.1151 
G01 X25.6241 Y43.0572 
G01 X25.4757 Y43.0277 
G01 X25.3243 Y43.0277 
G01 X25.1759 Y43.0572 
G01 X25.0361 Y43.1151 
G01 X24.9102 Y43.1992 
G01 X24.8032 Y43.3062 
G00 Z2.5400 
G00 X27.3432 Y43.3062 
G01 Z-0.1200 F254.00 
G01 X27.2591 Y43.4321 F508.00 
G01 X27.2012 Y43.5719 
G01 X27.1717 Y43.7203 
G01 X27.1717 Y45.1797 
G01 X27.2012 Y45.3281 
G01 X27.2591 Y45.4679 
G01 X27.3432 Y45.5938 
G01 X27.4502 Y45.7008 
G01 X27.5761 Y45.7849 
G01 X27.7159 Y45.8428 
G01 X27.8643 Y45.8723 
G01 X28.0157 Y45.8723 
G01 X28.1641 Y45.8428 
G01 X28.3039 Y45.7849 
G01 X28.4298 Y45.7008 
G01 X28.5368 Y45.5938 
G01 X28.6209 Y45.4679 
G01 X28.6788 Y45.3281 
G01 X28.7083 Y45.1797 
G01 X28.7083 Y43.7203 
G01 X28.6788 Y43.5719 
G01 X28.6209 Y43.4321 
G01 X28.5368 Y43.3062 
G01 X28.4298 Y43.1992 
G01 X28.3039 Y43.1151 
G01 X28.1641 Y43.0572 
G01 X28.0157 Y43.0277 
G01 X27.8643 Y43.0277 
G01 X27.7159 Y43.0572 
G01 X27.5761 Y43.1151 
G01 X27.4502 Y43.1992 
G01 X27.3432 Y43.3062 
G00 Z2.5400 
G00 X29.8832 Y43.3062 
G01 Z-0.1200 F254.00 
G01 X29.7991 Y43.4321 F508.00 
G01 X29.7412 Y43.5719 
G01 X29.7117 Y43.7203 
G01 X29.7117 Y45.1797 
G01 X29.7412 Y45.3281 
G01 X29.7991 Y45.4679 
G01 X29.8832 Y45.5938 
G01 X29.9902 Y45.7008 
G01 X30.1161 Y45.7849 
G01 X30.2559 Y45.8428 
G01 X30.4043 Y45.8723 
G01 X30.5557 Y45.8723 
G01 X30.7041 Y45.8428 
G01 X30.8439 Y45.7849 
G01 X30.9698 Y45.7008 
G01 X31.0768 Y45.5938 
G01 X31.1609 Y45.4679 
G01 X31.2188 Y45.3281 
G01 X31.2483 Y45.1797 
G01 X31.2483 Y43.7203 
G01 X31.2188 Y43.5719 
G01 X31.1609 Y43.4321 
G01 X31.0768 Y43.3062 
G01 X30.9698 Y43.1992 
G01 X30.8439 Y43.1151 
G01 X30.7041 Y43.0572 
G01 X30.5557 Y43.0277 
G01 X30.4043 Y43.0277 
G01 X30.2559 Y43.0572 
G01 X30.1161 Y43.1151 
G01 X29.9902 Y43.1992 
G01 X29.8832 Y43.3062 
G00 Z2.5400 
G00 X29.8068 Y41.7838 
G01 Z-0.1200 F254.00 
G01 X29.8909 Y41.6579 F508.00 
G01 X29.9488 Y41.5181 
G01 X29.9783 Y41.3697 
G01 X29.9783 Y39.9103 
G01 X29.9488 Y39.7619 
G01 X29.8909 Y39.6221 
G01 X29.8068 Y39.4962 
G01 X29.6998 Y39.3892 
G01 X29.5739 Y39.3051 
G01 X29.4341 Y39.2472 
G01 X29.2857 Y39.2177 
G01 X29.1343 Y39.2177 
G01 X28.9859 Y39.2472 
G01 X28.8461 Y39.3051 
G01 X28.7202 Y39.3892 
G01 X28.6132 Y39.4962 
G01 X28.5291 Y39.6221 
G01 X28.4712 Y39.7619 
G01 X28.4417 Y39.9103 
G01 X28.4417 Y41.3697 
G01 X28.4712 Y41.5181 
G01 X28.5291 Y41.6579 
G01 X28.6132 Y41.7838 
G01 X28.7202 Y41.8908 
G01 X28.8461 Y41.9749 
G01 X28.9859 Y42.0328 
G01 X29.1343 Y42.0623 
G01 X29.2857 Y42.0623 
G01 X29.4341 Y42.0328 
G01 X29.5739 Y41.9749 
G01 X29.6998 Y41.8908 
G01 X29.8068 Y41.7838 
G00 Z2.5400 
G00 X31.1532 Y41.7838 
G01 Z-0.1200 F254.00 
G01 X31.2602 Y41.8908 F508.00 
G01 X31.3861 Y41.9749 
G01 X31.5259 Y42.0328 
G01 X31.6743 Y42.0623 
G01 X31.8257 Y42.0623 
G01 X31.9741 Y42.0328 
G01 X32.1139 Y41.9749 
G01 X32.2398 Y41.8908 
G01 X32.3468 Y41.7838 
G01 X32.4309 Y41.6579 
G01 X32.4888 Y41.5181 
G01 X32.5183 Y41.3697 
G01 X32.5183 Y39.9103 
G01 X32.4888 Y39.7619 
G01 X32.4309 Y39.6221 
G01 X32.3468 Y39.4962 
G01 X32.2398 Y39.3892 
G01 X32.1139 Y39.3051 
G01 X31.9741 Y39.2472 
G01 X31.8257 Y39.2177 
G01 X31.6743 Y39.2177 
G01 X31.5259 Y39.2472 
G01 X31.3861 Y39.3051 
G01 X31.2602 Y39.3892 
G01 X31.1532 Y39.4962 
G01 X31.0691 Y39.6221 
G01 X31.0112 Y39.7619 
G01 X30.9817 Y39.9103 
G01 X30.9817 Y41.3697 
G01 X31.0112 Y41.5181 
G01 X31.0691 Y41.6579 
G01 X31.1532 Y41.7838 
G00 Z2.5400 
G00 X32.4232 Y43.3062 
G01 Z-0.1200 F254.00 
G01 X32.3391 Y43.4321 F508.00 
G01 X32.2812 Y43.5719 
G01 X32.2517 Y43.7203 
G01 X32.2517 Y45.1797 
G01 X32.2812 Y45.3281 
G01 X32.3391 Y45.4679 
G01 X32.4232 Y45.5938 
G01 X32.5302 Y45.7008 
G01 X32.6561 Y45.7849 
G01 X32.7959 Y45.8428 
G01 X32.9443 Y45.8723 
G01 X33.0957 Y45.8723 
G01 X33.2441 Y45.8428 
G01 X33.3839 Y45.7849 
G01 X33.5098 Y45.7008 
G01 X33.6168 Y45.5938 
G01 X33.7009 Y45.4679 
G01 X33.7588 Y45.3281 
G01 X33.7883 Y45.1797 
G01 X33.7883 Y43.7203 
G01 X33.7588 Y43.5719 
G01 X33.7009 Y43.4321 
G01 X33.6168 Y43.3062 
G01 X33.5098 Y43.1992 
G01 X33.3839 Y43.1151 
G01 X33.2441 Y43.0572 
G01 X33.0957 Y43.0277 
G01 X32.9443 Y43.0277 
G01 X32.7959 Y43.0572 
G01 X32.6561 Y43.1151 
G01 X32.5302 Y43.1992 
G01 X32.4232 Y43.3062 
G00 Z2.5400 
G00 X34.9632 Y43.3062 
G01 Z-0.1200 F254.00 
G01 X34.8791 Y43.4321 F508.00 
G01 X34.8212 Y43.5719 
G01 X34.7917 Y43.7203 
G01 X34.7917 Y45.1797 
G01 X34.8212 Y45.3281 
G01 X34.8791 Y45.4679 
G01 X34.9632 Y45.5938 
G01 X35.0702 Y45.7008 
G01 X35.1961 Y45.7849 
G01 X35.3359 Y45.8428 
G01 X35.4843 Y45.8723 
G01 X35.6357 Y45.8723 
G01 X35.7841 Y45.8428 
G01 X35.9239 Y45.7849 
G01 X36.0498 Y45.7008 
G01 X36.1568 Y45.5938 
G01 X36.2409 Y45.4679 
G01 X36.2988 Y45.3281 
G01 X36.3283 Y45.1797 
G01 X36.3283 Y43.7203 
G01 X36.2988 Y43.5719 
G01 X36.2409 Y43.4321 
G01 X36.1568 Y43.3062 
G01 X36.0498 Y43.1992 
G01 X35.9239 Y43.1151 
G01 X35.7841 Y43.0572 
G01 X35.6357 Y43.0277 
G01 X35.4843 Y43.0277 
G01 X35.3359 Y43.0572 
G01 X35.1961 Y43.1151 
G01 X35.0702 Y43.1992 
G01 X34.9632 Y43.3062 
G00 Z2.5400 
G00 X37.5032 Y43.3062 
G01 Z-0.1200 F254.00 
G01 X37.4191 Y43.4321 F508.00 
G01 X37.3612 Y43.5719 
G01 X37.3317 Y43.7203 
G01 X37.3317 Y45.1797 
G01 X37.3612 Y45.3281 
G01 X37.4191 Y45.4679 
G01 X37.5032 Y45.5938 
G01 X37.6102 Y45.7008 
G01 X37.7361 Y45.7849 
G01 X37.8759 Y45.8428 
G01 X38.0243 Y45.8723 
G01 X38.1757 Y45.8723 
G01 X38.3241 Y45.8428 
G01 X38.4639 Y45.7849 
G01 X38.5898 Y45.7008 
G01 X38.6968 Y45.5938 
G01 X38.7809 Y45.4679 
G01 X38.8388 Y45.3281 
G01 X38.8683 Y45.1797 
G01 X38.8683 Y43.7203 
G01 X38.8388 Y43.5719 
G01 X38.7809 Y43.4321 
G01 X38.6968 Y43.3062 
G01 X38.5898 Y43.1992 
G01 X38.4639 Y43.1151 
G01 X38.3241 Y43.0572 
G01 X38.1757 Y43.0277 
G01 X38.0243 Y43.0277 
G01 X37.8759 Y43.0572 
G01 X37.7361 Y43.1151 
G01 X37.6102 Y43.1992 
G01 X37.5032 Y43.3062 
G00 Z2.5400 
G00 X43.8914 Y37.0027 
G01 Z-0.1200 F254.00 
G01 X44.0349 Y37.0986 F508.00 
G01 X44.1944 Y37.1646 
G01 X44.3637 Y37.1983 
G01 X44.5363 Y37.1983 
G01 X44.7056 Y37.1646 
G01 X44.8651 Y37.0986 
G01 X45.0086 Y37.0027 
G01 X45.1307 Y36.8806 
G01 X45.2266 Y36.7371 
G01 X45.2926 Y36.5776 
G01 X45.3263 Y36.4083 
G01 X45.3263 Y34.7117 
G01 X45.2926 Y34.5424 
G01 X45.2266 Y34.3829 
G01 X45.1307 Y34.2394 
G01 X45.0086 Y34.1173 
G01 X44.8651 Y34.0214 
G01 X44.7056 Y33.9554 
G01 X44.5363 Y33.9217 
G01 X44.3637 Y33.9217 
G01 X44.1944 Y33.9554 
G01 X44.0349 Y34.0214 
G01 X43.8914 Y34.1173 
G01 X43.7693 Y34.2394 
G01 X43.6734 Y34.3829 
G01 X43.6074 Y34.5424 
G01 X43.5737 Y34.7117 
G01 X43.5737 Y36.4083 
G01 X43.6074 Y36.5776 
G01 X43.6734 Y36.7371 
G01 X43.7693 Y36.8806 
G01 X43.8914 Y37.0027 
G00 Z2.5400 
G00 X46.4314 Y37.0027 
G01 Z-0.1200 F254.00 
G01 X46.5749 Y37.0986 F508.00 
G01 X46.7344 Y37.1646 
G01 X46.9037 Y37.1983 
G01 X47.0763 Y37.1983 
G01 X47.2456 Y37.1646 
G01 X47.4051 Y37.0986 
G01 X47.5486 Y37.0027 
G01 X47.6707 Y36.8806 
G01 X47.7666 Y36.7371 
G01 X47.8326 Y36.5776 
G01 X47.8663 Y36.4083 
G01 X47.8663 Y34.7117 
G01 X47.8326 Y34.5424 
G01 X47.7666 Y34.3829 
G01 X47.6707 Y34.2394 
G01 X47.5486 Y34.1173 
G01 X47.4051 Y34.0214 
G01 X47.2456 Y33.9554 
G01 X47.0763 Y33.9217 
G01 X46.9037 Y33.9217 
G01 X46.7344 Y33.9554 
G01 X46.5749 Y34.0214 
G01 X46.4314 Y34.1173 
G01 X46.3093 Y34.2394 
G01 X46.2134 Y34.3829 
G01 X46.1474 Y34.5424 
G01 X46.1137 Y34.7117 
G01 X46.1137 Y36.4083 
G01 X46.1474 Y36.5776 
G01 X46.2134 Y36.7371 
G01 X46.3093 Y36.8806 
G01 X46.4314 Y37.0027 
G00 Z2.5400 
G00 X48.9714 Y37.0027 
G01 Z-0.1200 F254.00 
G01 X49.1149 Y37.0986 F508.00 
G01 X49.2744 Y37.1646 
G01 X49.4437 Y37.1983 
G01 X49.6163 Y37.1983 
G01 X49.7856 Y37.1646 
G01 X49.9451 Y37.0986 
G01 X50.0886 Y37.0027 
G01 X50.2107 Y36.8806 
G01 X50.3066 Y36.7371 
G01 X50.3726 Y36.5776 
G01 X50.4063 Y36.4083 
G01 X50.4063 Y34.7117 
G01 X50.3726 Y34.5424 
G01 X50.3066 Y34.3829 
G01 X50.2107 Y34.2394 
G01 X50.0886 Y34.1173 
G01 X49.9451 Y34.0214 
G01 X49.7856 Y33.9554 
G01 X49.6163 Y33.9217 
G01 X49.4437 Y33.9217 
G01 X49.2744 Y33.9554 
G01 X49.1149 Y34.0214 
G01 X48.9714 Y34.1173 
G01 X48.8493 Y34.2394 
G01 X48.7534 Y34.3829 
G01 X48.6874 Y34.5424 
G01 X48.6537 Y34.7117 
G01 X48.6537 Y36.4083 
G01 X48.6874 Y36.5776 
G01 X48.7534 Y36.7371 
G01 X48.8493 Y36.8806 
G01 X48.9714 Y37.0027 
G00 Z2.5400 
G00 X51.5114 Y37.0027 
G01 Z-0.1200 F254.00 
G01 X51.6549 Y37.0986 F508.00 
G01 X51.8144 Y37.1646 
G01 X51.9837 Y37.1983 
G01 X52.1563 Y37.1983 
G01 X52.3256 Y37.1646 
G01 X52.4851 Y37.0986 
G01 X52.6286 Y37.0027 
G01 X52.7507 Y36.8806 
G01 X52.8466 Y36.7371 
G01 X52.9126 Y36.5776 
G01 X52.9463 Y36.4083 
G01 X52.9463 Y34.7117 
G01 X52.9126 Y34.5424 
G01 X52.8466 Y34.3829 
G01 X52.7507 Y34.2394 
G01 X52.6286 Y34.1173 
G01 X52.4851 Y34.0214 
G01 X52.3256 Y33.9554 
G01 X52.1563 Y33.9217 
G01 X51.9837 Y33.9217 
G01 X51.8144 Y33.9554 
G01 X51.6549 Y34.0214 
G01 X51.5114 Y34.1173 
G01 X51.3893 Y34.2394 
G01 X51.2934 Y34.3829 
G01 X51.2274 Y34.5424 
G01 X51.1937 Y34.7117 
G01 X51.1937 Y36.4083 
G01 X51.2274 Y36.5776 
G01 X51.2934 Y36.7371 
G01 X51.3893 Y36.8806 
G01 X51.5114 Y37.0027 
G00 Z2.5400 
G00 X56.3753 Y37.1509 
G01 Z-0.1200 F254.00 
G01 X56.8291 Y37.6047 F508.00 
G01 X57.4709 Y37.6047 
G01 X57.9247 Y37.1509 
G01 X57.9247 Y36.5091 
G01 X57.4709 Y36.0553 
G01 X56.8291 Y36.0553 
G01 X56.3753 Y36.5091 
G01 X56.3753 Y37.1509 
G00 Z2.5400 
G00 X56.3753 Y41.5891 
G01 Z-0.1200 F254.00 
G01 X56.3753 Y42.2309 F508.00 
G01 X56.8291 Y42.6847 
G01 X57.4709 Y42.6847 
G01 X57.9247 Y42.2309 
G01 X57.9247 Y41.5891 
G01 X57.4709 Y41.1353 
G01 X56.8291 Y41.1353 
G01 X56.3753 Y41.5891 
G00 Z2.5400 
G00 X64.5010 Y40.0342 
G01 Z-0.1200 F254.00 
G01 X64.6664 Y40.1447 F508.00 
G01 X64.8501 Y40.2208 
G01 X65.0452 Y40.2596 
G01 X67.0348 Y40.2596 
G01 X67.2299 Y40.2208 
G01 X67.4136 Y40.1447 
G01 X67.5790 Y40.0342 
G01 X67.7196 Y39.8936 
G01 X67.8301 Y39.7282 
G01 X67.9062 Y39.5445 
G01 X67.9450 Y39.3494 
G01 X67.9450 Y39.1506 
G01 X67.9062 Y38.9555 
G01 X67.8301 Y38.7717 
G01 X67.7196 Y38.6064 
G01 X67.5790 Y38.4658 
G01 X67.4136 Y38.3553 
G01 X67.2299 Y38.2792 
G01 X67.0348 Y38.2403 
G01 X65.0452 Y38.2403 
G01 X64.8501 Y38.2792 
G01 X64.6664 Y38.3553 
G01 X64.5010 Y38.4658 
G01 X64.3604 Y38.6064 
G01 X64.2499 Y38.7717 
G01 X64.1738 Y38.9555 
G01 X64.1350 Y39.1506 
G01 X64.1350 Y39.3494 
G01 X64.1738 Y39.5445 
G01 X64.2499 Y39.7282 
G01 X64.3604 Y39.8936 
G01 X64.5010 Y40.0342 
G00 Z2.5400 
G00 X64.5010 Y35.0342 
G01 Z-0.1200 F254.00 
G01 X64.6664 Y35.1447 F508.00 
G01 X64.8501 Y35.2208 
G01 X65.0452 Y35.2596 
G01 X67.0348 Y35.2596 
G01 X67.2299 Y35.2208 
G01 X67.4136 Y35.1447 
G01 X67.5790 Y35.0342 
G01 X67.7196 Y34.8936 
G01 X67.8301 Y34.7282 
G01 X67.9062 Y34.5445 
G01 X67.9450 Y34.3494 
G01 X67.9450 Y34.1506 
G01 X67.9062 Y33.9555 
G01 X67.8301 Y33.7717 
G01 X67.7196 Y33.6064 
G01 X67.5790 Y33.4658 
G01 X67.4136 Y33.3553 
G01 X67.2299 Y33.2792 
G01 X67.0348 Y33.2403 
G01 X65.0452 Y33.2403 
G01 X64.8501 Y33.2792 
G01 X64.6664 Y33.3553 
G01 X64.5010 Y33.4658 
G01 X64.3604 Y33.6064 
G01 X64.2499 Y33.7717 
G01 X64.1738 Y33.9555 
G01 X64.1350 Y34.1506 
G01 X64.1350 Y34.3494 
G01 X64.1738 Y34.5445 
G01 X64.2499 Y34.7282 
G01 X64.3604 Y34.8936 
G01 X64.5010 Y35.0342 
G00 Z2.5400 
G00 X64.5010 Y30.0342 
G01 Z-0.1200 F254.00 
G01 X64.6664 Y30.1447 F508.00 
G01 X64.8501 Y30.2208 
G01 X65.0452 Y30.2596 
G01 X67.0348 Y30.2596 
G01 X67.2299 Y30.2208 
G01 X67.4136 Y30.1447 
G01 X67.5790 Y30.0342 
G01 X67.7196 Y29.8936 
G01 X67.8301 Y29.7282 
G01 X67.9062 Y29.5445 
G01 X67.9450 Y29.3494 
G01 X67.9450 Y29.1506 
G01 X67.9062 Y28.9555 
G01 X67.8301 Y28.7718 
G01 X67.7196 Y28.6064 
G01 X67.5790 Y28.4658 
G01 X67.4136 Y28.3553 
G01 X67.2299 Y28.2792 
G01 X67.0348 Y28.2403 
G01 X65.0452 Y28.2403 
G01 X64.8501 Y28.2792 
G01 X64.6664 Y28.3553 
G01 X64.5010 Y28.4658 
G01 X64.3604 Y28.6064 
G01 X64.2499 Y28.7718 
G01 X64.1738 Y28.9555 
G01 X64.1350 Y29.1506 
G01 X64.1350 Y29.3494 
G01 X64.1738 Y29.5445 
G01 X64.2499 Y29.7282 
G01 X64.3604 Y29.8936 
G01 X64.5010 Y30.0342 
G00 Z2.5400 
G00 X64.5010 Y25.0342 
G01 Z-0.1200 F254.00 
G01 X64.6664 Y25.1447 F508.00 
G01 X64.8501 Y25.2208 
G01 X65.0452 Y25.2596 
G01 X67.0348 Y25.2596 
G01 X67.2299 Y25.2208 
G01 X67.4136 Y25.1447 
G01 X67.5790 Y25.0342 
G01 X67.7196 Y24.8936 
G01 X67.8301 Y24.7282 
G01 X67.9062 Y24.5445 
G01 X67.9450 Y24.3494 
G01 X67.9450 Y24.1506 
G01 X67.9062 Y23.9555 
G01 X67.8301 Y23.7718 
G01 X67.7196 Y23.6064 
G01 X67.5790 Y23.4658 
G01 X67.4136 Y23.3553 
G01 X67.2299 Y23.2792 
G01 X67.0348 Y23.2403 
G01 X65.0452 Y23.2403 
G01 X64.8501 Y23.2792 
G01 X64.6664 Y23.3553 
G01 X64.5010 Y23.4658 
G01 X64.3604 Y23.6064 
G01 X64.2499 Y23.7718 
G01 X64.1738 Y23.9555 
G01 X64.1350 Y24.1506 
G01 X64.1350 Y24.3494 
G01 X64.1738 Y24.5445 
G01 X64.2499 Y24.7282 
G01 X64.3604 Y24.8936 
G01 X64.5010 Y25.0342 
G00 Z2.5400 
G00 X52.6668 Y23.3498 
G01 Z-0.1200 F254.00 
G01 X52.7509 Y23.2239 F508.00 
G01 X52.8088 Y23.0841 
G01 X52.8383 Y22.9357 
G01 X52.8383 Y22.7843 
G01 X52.8088 Y22.6359 
G01 X52.7509 Y22.4961 
G01 X52.6668 Y22.3702 
G01 X52.5598 Y22.2632 
G01 X52.4339 Y22.1791 
G01 X52.2941 Y22.1212 
G01 X52.1457 Y22.0917 
G01 X51.9943 Y22.0917 
G01 X51.8459 Y22.1212 
G01 X51.7061 Y22.1791 
G01 X51.5802 Y22.2632 
G01 X51.4732 Y22.3702 
G01 X51.3891 Y22.4961 
G01 X51.3312 Y22.6359 
G01 X51.3017 Y22.7843 
G01 X51.3017 Y22.9357 
G01 X51.3312 Y23.0841 
G01 X51.3891 Y23.2239 
G01 X51.4732 Y23.3498 
G01 X51.5802 Y23.4568 
G01 X51.7061 Y23.5409 
G01 X51.8459 Y23.5988 
G01 X51.9943 Y23.6283 
G01 X52.1457 Y23.6283 
G01 X52.2941 Y23.5988 
G01 X52.4339 Y23.5409 
G01 X52.5598 Y23.4568 
G01 X52.6668 Y23.3498 
G00 Z2.5400 
G00 X52.6668 Y20.8098 
G01 Z-0.1200 F254.00 
G01 X52.7509 Y20.6839 F508.00 
G01 X52.8088 Y20.5441 
G01 X52.8383 Y20.3957 
G01 X52.8383 Y20.2443 
G01 X52.8088 Y20.0959 
G01 X52.7509 Y19.9561 
G01 X52.6668 Y19.8302 
G01 X52.5598 Y19.7232 
G01 X52.4339 Y19.6391 
G01 X52.2941 Y19.5812 
G01 X52.1457 Y19.5517 
G01 X51.9943 Y19.5517 
G01 X51.8459 Y19.5812 
G01 X51.7061 Y19.6391 
G01 X51.5802 Y19.7232 
G01 X51.4732 Y19.8302 
G01 X51.3891 Y19.9561 
G01 X51.3312 Y20.0959 
G01 X51.3017 Y20.2443 
G01 X51.3017 Y20.3957 
G01 X51.3312 Y20.5441 
G01 X51.3891 Y20.6839 
G01 X51.4732 Y20.8098 
G01 X51.5802 Y20.9168 
G01 X51.7061 Y21.0009 
G01 X51.8459 Y21.0588 
G01 X51.9943 Y21.0883 
G01 X52.1457 Y21.0883 
G01 X52.2941 Y21.0588 
G01 X52.4339 Y21.0009 
G01 X52.5598 Y20.9168 
G01 X52.6668 Y20.8098 
G00 Z2.5400 
G00 X52.6668 Y18.2698 
G01 Z-0.1200 F254.00 
G01 X52.7509 Y18.1439 F508.00 
G01 X52.8088 Y18.0041 
G01 X52.8383 Y17.8557 
G01 X52.8383 Y17.7043 
G01 X52.8088 Y17.5559 
G01 X52.7509 Y17.4161 
G01 X52.6668 Y17.2902 
G01 X52.5598 Y17.1832 
G01 X52.4339 Y17.0991 
G01 X52.2941 Y17.0412 
G01 X52.1457 Y17.0117 
G01 X51.9943 Y17.0117 
G01 X51.8459 Y17.0412 
G01 X51.7061 Y17.0991 
G01 X51.5802 Y17.1832 
G01 X51.4732 Y17.2902 
G01 X51.3891 Y17.4161 
G01 X51.3312 Y17.5559 
G01 X51.3017 Y17.7043 
G01 X51.3017 Y17.8557 
G01 X51.3312 Y18.0041 
G01 X51.3891 Y18.1439 
G01 X51.4732 Y18.2698 
G01 X51.5802 Y18.3768 
G01 X51.7061 Y18.4609 
G01 X51.8459 Y18.5188 
G01 X51.9943 Y18.5483 
G01 X52.1457 Y18.5483 
G01 X52.2941 Y18.5188 
G01 X52.4339 Y18.4609 
G01 X52.5598 Y18.3768 
G01 X52.6668 Y18.2698 
G00 Z2.5400 
G00 X52.6668 Y15.7298 
G01 Z-0.1200 F254.00 
G01 X52.7509 Y15.6039 F508.00 
G01 X52.8088 Y15.4641 
G01 X52.8383 Y15.3157 
G01 X52.8383 Y15.1643 
G01 X52.8088 Y15.0159 
G01 X52.7509 Y14.8761 
G01 X52.6668 Y14.7502 
G01 X52.5598 Y14.6432 
G01 X52.4339 Y14.5591 
G01 X52.2941 Y14.5012 
G01 X52.1457 Y14.4717 
G01 X51.9943 Y14.4717 
G01 X51.8459 Y14.5012 
G01 X51.7061 Y14.5591 
G01 X51.5802 Y14.6432 
G01 X51.4732 Y14.7502 
G01 X51.3891 Y14.8761 
G01 X51.3312 Y15.0159 
G01 X51.3017 Y15.1643 
G01 X51.3017 Y15.3157 
G01 X51.3312 Y15.4641 
G01 X51.3891 Y15.6039 
G01 X51.4732 Y15.7298 
G01 X51.5802 Y15.8368 
G01 X51.7061 Y15.9209 
G01 X51.8459 Y15.9788 
G01 X51.9943 Y16.0083 
G01 X52.1457 Y16.0083 
G01 X52.2941 Y15.9788 
G01 X52.4339 Y15.9209 
G01 X52.5598 Y15.8368 
G01 X52.6668 Y15.7298 
G00 Z2.5400 
G00 X53.9264 Y8.0296 
G01 Z-0.1200 F254.00 
G01 X54.0917 Y8.1401 F508.00 
G01 X54.2755 Y8.2162 
G01 X54.4706 Y8.2550 
G01 X54.6694 Y8.2550 
G01 X54.8645 Y8.2162 
G01 X55.0482 Y8.1401 
G01 X55.2136 Y8.0296 
G01 X55.3542 Y7.8890 
G01 X55.4647 Y7.7236 
G01 X55.5408 Y7.5399 
G01 X55.5796 Y7.3448 
G01 X55.5796 Y5.3552 
G01 X55.5408 Y5.1601 
G01 X55.4647 Y4.9764 
G01 X55.3542 Y4.8110 
G01 X55.2136 Y4.6704 
G01 X55.0482 Y4.5599 
G01 X54.8645 Y4.4838 
G01 X54.6694 Y4.4450 
G01 X54.4706 Y4.4450 
G01 X54.2755 Y4.4838 
G01 X54.0917 Y4.5599 
G01 X53.9264 Y4.6704 
G01 X53.7858 Y4.8110 
G01 X53.6753 Y4.9764 
G01 X53.5992 Y5.1601 
G01 X53.5603 Y5.3552 
G01 X53.5603 Y7.3448 
G01 X53.5992 Y7.5399 
G01 X53.6753 Y7.7236 
G01 X53.7858 Y7.8890 
G01 X53.9264 Y8.0296 
G00 Z2.5400 
G00 X50.3542 Y7.8890 
G01 Z-0.1200 F254.00 
G01 X50.4647 Y7.7236 F508.00 
G01 X50.5408 Y7.5399 
G01 X50.5796 Y7.3448 
G01 X50.5796 Y5.3552 
G01 X50.5408 Y5.1601 
G01 X50.4647 Y4.9764 
G01 X50.3542 Y4.8110 
G01 X50.2136 Y4.6704 
G01 X50.0482 Y4.5599 
G01 X49.8645 Y4.4838 
G01 X49.6694 Y4.4450 
G01 X49.4706 Y4.4450 
G01 X49.2755 Y4.4838 
G01 X49.0917 Y4.5599 
G01 X48.9264 Y4.6704 
G01 X48.7858 Y4.8110 
G01 X48.6753 Y4.9764 
G01 X48.5992 Y5.1601 
G01 X48.5603 Y5.3552 
G01 X48.5603 Y7.3448 
G01 X48.5992 Y7.5399 
G01 X48.6753 Y7.7236 
G01 X48.7858 Y7.8890 
G01 X48.9264 Y8.0296 
G01 X49.0917 Y8.1401 
G01 X49.2755 Y8.2162 
G01 X49.4706 Y8.2550 
G01 X49.6694 Y8.2550 
G01 X49.8645 Y8.2162 
G01 X50.0482 Y8.1401 
G01 X50.2136 Y8.0296 
G01 X50.3542 Y7.8890 
G00 Z2.5400 
G00 X45.3542 Y7.8890 
G01 Z-0.1200 F254.00 
G01 X45.4647 Y7.7236 F508.00 
G01 X45.5408 Y7.5399 
G01 X45.5796 Y7.3448 
G01 X45.5796 Y5.3552 
G01 X45.5408 Y5.1601 
G01 X45.4647 Y4.9764 
G01 X45.3542 Y4.8110 
G01 X45.2136 Y4.6704 
G01 X45.0482 Y4.5599 
G01 X44.8645 Y4.4838 
G01 X44.6694 Y4.4450 
G01 X44.4706 Y4.4450 
G01 X44.2755 Y4.4838 
G01 X44.0917 Y4.5599 
G01 X43.9264 Y4.6704 
G01 X43.7858 Y4.8110 
G01 X43.6753 Y4.9764 
G01 X43.5992 Y5.1601 
G01 X43.5603 Y5.3552 
G01 X43.5603 Y7.3448 
G01 X43.5992 Y7.5399 
G01 X43.6753 Y7.7236 
G01 X43.7858 Y7.8890 
G01 X43.9264 Y8.0296 
G01 X44.0917 Y8.1401 
G01 X44.2755 Y8.2162 
G01 X44.4706 Y8.2550 
G01 X44.6694 Y8.2550 
G01 X44.8645 Y8.2162 
G01 X45.0482 Y8.1401 
G01 X45.2136 Y8.0296 
G01 X45.3542 Y7.8890 
G00 Z2.5400 
G00 X39.9875 Y8.1459 
G01 Z-0.1200 F254.00 
G01 X39.9875 Y7.0941 F508.00 
G01 X39.9701 Y7.0521 
G01 X39.9379 Y7.0199 
G01 X39.8959 Y7.0025 
G01 X38.8441 Y7.0025 
G01 X38.8021 Y7.0199 
G01 X38.7699 Y7.0521 
G01 X38.7525 Y7.0941 
G01 X38.7525 Y8.1459 
G01 X38.7699 Y8.1879 
G01 X38.8021 Y8.2201 
G01 X38.8441 Y8.2375 
G01 X39.0525 Y8.2375 
G01 X39.0525 Y13.3525 
G01 X38.8441 Y13.3525 
G01 X38.8021 Y13.3699 
G01 X38.7699 Y13.4021 
G01 X38.7525 Y13.4441 
G01 X38.7525 Y14.4959 
G01 X38.7699 Y14.5379 
G01 X38.8021 Y14.5701 
G01 X38.8441 Y14.5875 
G01 X39.8959 Y14.5875 
G01 X39.9379 Y14.5701 
G01 X39.9701 Y14.5379 
G01 X39.9875 Y14.4959 
G01 X39.9875 Y13.4441 
G01 X39.9701 Y13.4021 
G01 X39.9379 Y13.3699 
G01 X39.8959 Y13.3525 
G01 X39.6875 Y13.3525 
G01 X39.6875 Y8.2375 
G01 X39.8959 Y8.2375 
G01 X39.9379 Y8.2201 
G01 X39.9701 Y8.1879 
G01 X39.9875 Y8.1459 
G00 Z2.5400 
G00 X40.3191 Y19.5453 
G01 Z-0.1200 F254.00 
G01 X39.8653 Y19.9991 F508.00 
G01 X39.8653 Y20.6409 
G01 X40.3191 Y21.0947 
G01 X40.9609 Y21.0947 
G01 X41.4147 Y20.6409 
G01 X41.4147 Y19.9991 
G01 X40.9609 Y19.5453 
G01 X40.3191 Y19.5453 
G00 Z2.5400 
G00 X38.5938 Y22.8679 
G01 Z-0.1200 F254.00 
G01 X38.4670 Y22.7831 F508.00 
G01 X38.3260 Y22.7247 
G01 X38.1763 Y22.6949 
G01 X38.0237 Y22.6949 
G01 X37.8740 Y22.7247 
G01 X37.7330 Y22.7831 
G01 X37.6062 Y22.8679 
G01 X37.4982 Y22.9758 
G01 X37.4135 Y23.1026 
G01 X37.3551 Y23.2436 
G01 X37.3253 Y23.3933 
G01 X37.3253 Y24.8667 
G01 X37.3551 Y25.0164 
G01 X37.4135 Y25.1574 
G01 X37.4982 Y25.2842 
G01 X37.6062 Y25.3921 
G01 X37.7330 Y25.4769 
G01 X37.8740 Y25.5353 
G01 X38.0237 Y25.5651 
G01 X38.1763 Y25.5651 
G01 X38.3260 Y25.5353 
G01 X38.4670 Y25.4769 
G01 X38.5938 Y25.3921 
G01 X38.7017 Y25.2842 
G01 X38.7865 Y25.1574 
G01 X38.8449 Y25.0164 
G01 X38.8747 Y24.8667 
G01 X38.8747 Y23.3933 
G01 X38.8449 Y23.2436 
G01 X38.7865 Y23.1026 
G01 X38.7017 Y22.9758 
G01 X38.5938 Y22.8679 
G00 Z2.5400 
G00 X36.0538 Y22.8679 
G01 Z-0.1200 F254.00 
G01 X35.9270 Y22.7831 F508.00 
G01 X35.7860 Y22.7247 
G01 X35.6363 Y22.6949 
G01 X35.4837 Y22.6949 
G01 X35.3340 Y22.7247 
G01 X35.1930 Y22.7831 
G01 X35.0662 Y22.8679 
G01 X34.9582 Y22.9758 
G01 X34.8735 Y23.1026 
G01 X34.8151 Y23.2436 
G01 X34.7853 Y23.3933 
G01 X34.7853 Y24.8667 
G01 X34.8151 Y25.0164 
G01 X34.8735 Y25.1574 
G01 X34.9582 Y25.2842 
G01 X35.0662 Y25.3921 
G01 X35.1930 Y25.4769 
G01 X35.3340 Y25.5353 
G01 X35.4837 Y25.5651 
G01 X35.6363 Y25.5651 
G01 X35.7860 Y25.5353 
G01 X35.9270 Y25.4769 
G01 X36.0538 Y25.3921 
G01 X36.1617 Y25.2842 
G01 X36.2465 Y25.1574 
G01 X36.3049 Y25.0164 
G01 X36.3347 Y24.8667 
G01 X36.3347 Y23.3933 
G01 X36.3049 Y23.2436 
G01 X36.2465 Y23.1026 
G01 X36.1617 Y22.9758 
G01 X36.0538 Y22.8679 
G00 Z2.5400 
G00 X33.7947 Y20.6409 
G01 Z-0.1200 F254.00 
G01 X33.7947 Y19.9991 F508.00 
G01 X33.3409 Y19.5453 
G01 X32.6991 Y19.5453 
G01 X32.2453 Y19.9991 
G01 X32.2453 Y20.6409 
G01 X32.6991 Y21.0947 
G01 X33.3409 Y21.0947 
G01 X33.7947 Y20.6409 
G00 Z2.5400 
G00 X33.5098 Y27.9592 
G01 Z-0.1200 F254.00 
G01 X33.3839 Y27.8751 F508.00 
G01 X33.2441 Y27.8172 
G01 X33.0957 Y27.7877 
G01 X32.9443 Y27.7877 
G01 X32.7959 Y27.8172 
G01 X32.6561 Y27.8751 
G01 X32.5302 Y27.9592 
G01 X32.4232 Y28.0662 
G01 X32.3391 Y28.1921 
G01 X32.2812 Y28.3319 
G01 X32.2517 Y28.4803 
G01 X32.2517 Y29.9397 
G01 X32.2812 Y30.0881 
G01 X32.3391 Y30.2279 
G01 X32.4232 Y30.3538 
G01 X32.5302 Y30.4608 
G01 X32.6561 Y30.5449 
G01 X32.7959 Y30.6028 
G01 X32.9443 Y30.6323 
G01 X33.0957 Y30.6323 
G01 X33.2441 Y30.6028 
G01 X33.3839 Y30.5449 
G01 X33.5098 Y30.4608 
G01 X33.6168 Y30.3538 
G01 X33.7009 Y30.2279 
G01 X33.7588 Y30.0881 
G01 X33.7883 Y29.9397 
G01 X33.7883 Y28.4803 
G01 X33.7588 Y28.3319 
G01 X33.7009 Y28.1921 
G01 X33.6168 Y28.0662 
G01 X33.5098 Y27.9592 
G00 Z2.5400 
G00 X34.9632 Y28.0662 
G01 Z-0.1200 F254.00 
G01 X34.8791 Y28.1921 F508.00 
G01 X34.8212 Y28.3319 
G01 X34.7917 Y28.4803 
G01 X34.7917 Y29.9397 
G01 X34.8212 Y30.0881 
G01 X34.8791 Y30.2279 
G01 X34.9632 Y30.3538 
G01 X35.0702 Y30.4608 
G01 X35.1961 Y30.5449 
G01 X35.3359 Y30.6028 
G01 X35.4843 Y30.6323 
G01 X35.6357 Y30.6323 
G01 X35.7841 Y30.6028 
G01 X35.9239 Y30.5449 
G01 X36.0498 Y30.4608 
G01 X36.1568 Y30.3538 
G01 X36.2409 Y30.2279 
G01 X36.2988 Y30.0881 
G01 X36.3283 Y29.9397 
G01 X36.3283 Y28.4803 
G01 X36.2988 Y28.3319 
G01 X36.2409 Y28.1921 
G01 X36.1568 Y28.0662 
G01 X36.0498 Y27.9592 
G01 X35.9239 Y27.8751 
G01 X35.7841 Y27.8172 
G01 X35.6357 Y27.7877 
G01 X35.4843 Y27.7877 
G01 X35.3359 Y27.8172 
G01 X35.1961 Y27.8751 
G01 X35.0702 Y27.9592 
G01 X34.9632 Y28.0662 
G00 Z2.5400 
G00 X37.5032 Y28.0662 
G01 Z-0.1200 F254.00 
G01 X37.4191 Y28.1921 F508.00 
G01 X37.3612 Y28.3319 
G01 X37.3317 Y28.4803 
G01 X37.3317 Y29.9397 
G01 X37.3612 Y30.0881 
G01 X37.4191 Y30.2279 
G01 X37.5032 Y30.3538 
G01 X37.6102 Y30.4608 
G01 X37.7361 Y30.5449 
G01 X37.8759 Y30.6028 
G01 X38.0243 Y30.6323 
G01 X38.1757 Y30.6323 
G01 X38.3241 Y30.6028 
G01 X38.4639 Y30.5449 
G01 X38.5898 Y30.4608 
G01 X38.6968 Y30.3538 
G01 X38.7809 Y30.2279 
G01 X38.8388 Y30.0881 
G01 X38.8683 Y29.9397 
G01 X38.8683 Y28.4803 
G01 X38.8388 Y28.3319 
G01 X38.7809 Y28.1921 
G01 X38.6968 Y28.0662 
G01 X38.5898 Y27.9592 
G01 X38.4639 Y27.8751 
G01 X38.3241 Y27.8172 
G01 X38.1757 Y27.7877 
G01 X38.0243 Y27.7877 
G01 X37.8759 Y27.8172 
G01 X37.7361 Y27.8751 
G01 X37.6102 Y27.9592 
G01 X37.5032 Y28.0662 
G00 Z2.5400 
G00 X31.0768 Y28.0662 
G01 Z-0.1200 F254.00 
G01 X30.9698 Y27.9592 F508.00 
G01 X30.8439 Y27.8751 
G01 X30.7041 Y27.8172 
G01 X30.5557 Y27.7877 
G01 X30.4043 Y27.7877 
G01 X30.2559 Y27.8172 
G01 X30.1161 Y27.8751 
G01 X29.9902 Y27.9592 
G01 X29.8832 Y28.0662 
G01 X29.7991 Y28.1921 
G01 X29.7412 Y28.3319 
G01 X29.7117 Y28.4803 
G01 X29.7117 Y29.9397 
G01 X29.7412 Y30.0881 
G01 X29.7991 Y30.2279 
G01 X29.8832 Y30.3538 
G01 X29.9902 Y30.4608 
G01 X30.1161 Y30.5449 
G01 X30.2559 Y30.6028 
G01 X30.4043 Y30.6323 
G01 X30.5557 Y30.6323 
G01 X30.7041 Y30.6028 
G01 X30.8439 Y30.5449 
G01 X30.9698 Y30.4608 
G01 X31.0768 Y30.3538 
G01 X31.1609 Y30.2279 
G01 X31.2188 Y30.0881 
G01 X31.2483 Y29.9397 
G01 X31.2483 Y28.4803 
G01 X31.2188 Y28.3319 
G01 X31.1609 Y28.1921 
G01 X31.0768 Y28.0662 
G00 Z2.5400 
G00 X28.5368 Y28.0662 
G01 Z-0.1200 F254.00 
G01 X28.4298 Y27.9592 F508.00 
G01 X28.3039 Y27.8751 
G01 X28.1641 Y27.8172 
G01 X28.0157 Y27.7877 
G01 X27.8643 Y27.7877 
G01 X27.7159 Y27.8172 
G01 X27.5761 Y27.8751 
G01 X27.4502 Y27.9592 
G01 X27.3432 Y28.0662 
G01 X27.2591 Y28.1921 
G01 X27.2012 Y28.3319 
G01 X27.1717 Y28.4803 
G01 X27.1717 Y29.9397 
G01 X27.2012 Y30.0881 
G01 X27.2591 Y30.2279 
G01 X27.3432 Y30.3538 
G01 X27.4502 Y30.4608 
G01 X27.5761 Y30.5449 
G01 X27.7159 Y30.6028 
G01 X27.8643 Y30.6323 
G01 X28.0157 Y30.6323 
G01 X28.1641 Y30.6028 
G01 X28.3039 Y30.5449 
G01 X28.4298 Y30.4608 
G01 X28.5368 Y30.3538 
G01 X28.6209 Y30.2279 
G01 X28.6788 Y30.0881 
G01 X28.7083 Y29.9397 
G01 X28.7083 Y28.4803 
G01 X28.6788 Y28.3319 
G01 X28.6209 Y28.1921 
G01 X28.5368 Y28.0662 
G00 Z2.5400 
G00 X25.9968 Y28.0662 
G01 Z-0.1200 F254.00 
G01 X25.8898 Y27.9592 F508.00 
G01 X25.7639 Y27.8751 
G01 X25.6241 Y27.8172 
G01 X25.4757 Y27.7877 
G01 X25.3243 Y27.7877 
G01 X25.1759 Y27.8172 
G01 X25.0361 Y27.8751 
G01 X24.9102 Y27.9592 
G01 X24.8032 Y28.0662 
G01 X24.7191 Y28.1921 
G01 X24.6612 Y28.3319 
G01 X24.6317 Y28.4803 
G01 X24.6317 Y29.9397 
G01 X24.6612 Y30.0881 
G01 X24.7191 Y30.2279 
G01 X24.8032 Y30.3538 
G01 X24.9102 Y30.4608 
G01 X25.0361 Y30.5449 
G01 X25.1759 Y30.6028 
G01 X25.3243 Y30.6323 
G01 X25.4757 Y30.6323 
G01 X25.6241 Y30.6028 
G01 X25.7639 Y30.5449 
G01 X25.8898 Y30.4608 
G01 X25.9968 Y30.3538 
G01 X26.0809 Y30.2279 
G01 X26.1388 Y30.0881 
G01 X26.1683 Y29.9397 
G01 X26.1683 Y28.4803 
G01 X26.1388 Y28.3319 
G01 X26.0809 Y28.1921 
G01 X25.9968 Y28.0662 
G00 Z2.5400 
G00 X23.4568 Y28.0662 
G01 Z-0.1200 F254.00 
G01 X23.3498 Y27.9592 F508.00 
G01 X23.2239 Y27.8751 
G01 X23.0841 Y27.8172 
G01 X22.9357 Y27.7877 
G01 X22.7843 Y27.7877 
G01 X22.6359 Y27.8172 
G01 X22.4961 Y27.8751 
G01 X22.3702 Y27.9592 
G01 X22.2632 Y28.0662 
G01 X22.1791 Y28.1921 
G01 X22.1212 Y28.3319 
G01 X22.0917 Y28.4803 
G01 X22.0917 Y29.9397 
G01 X22.1212 Y30.0881 
G01 X22.1791 Y30.2279 
G01 X22.2632 Y30.3538 
G01 X22.3702 Y30.4608 
G01 X22.4961 Y30.5449 
G01 X22.6359 Y30.6028 
G01 X22.7843 Y30.6323 
G01 X22.9357 Y30.6323 
G01 X23.0841 Y30.6028 
G01 X23.2239 Y30.5449 
G01 X23.3498 Y30.4608 
G01 X23.4568 Y30.3538 
G01 X23.5409 Y30.2279 
G01 X23.5988 Y30.0881 
G01 X23.6283 Y29.9397 
G01 X23.6283 Y28.4803 
G01 X23.5988 Y28.3319 
G01 X23.5409 Y28.1921 
G01 X23.4568 Y28.0662 
G00 Z2.5400 
G00 X20.9168 Y28.0662 
G01 Z-0.1200 F254.00 
G01 X20.8098 Y27.9592 F508.00 
G01 X20.6839 Y27.8751 
G01 X20.5441 Y27.8172 
G01 X20.3957 Y27.7877 
G01 X20.2443 Y27.7877 
G01 X20.0959 Y27.8172 
G01 X19.9561 Y27.8751 
G01 X19.8302 Y27.9592 
G01 X19.7232 Y28.0662 
G01 X19.6391 Y28.1921 
G01 X19.5812 Y28.3319 
G01 X19.5517 Y28.4803 
G01 X19.5517 Y29.9397 
G01 X19.5812 Y30.0881 
G01 X19.6391 Y30.2279 
G01 X19.7232 Y30.3538 
G01 X19.8302 Y30.4608 
G01 X19.9561 Y30.5449 
G01 X20.0959 Y30.6028 
G01 X20.2443 Y30.6323 
G01 X20.3957 Y30.6323 
G01 X20.5441 Y30.6028 
G01 X20.6839 Y30.5449 
G01 X20.8098 Y30.4608 
G01 X20.9168 Y30.3538 
G01 X21.0009 Y30.2279 
G01 X21.0588 Y30.0881 
G01 X21.0883 Y29.9397 
G01 X21.0883 Y28.4803 
G01 X21.0588 Y28.3319 
G01 X21.0009 Y28.1921 
G01 X20.9168 Y28.0662 
G00 Z2.5400 
G00 X18.3768 Y28.0662 
G01 Z-0.1200 F254.00 
G01 X18.2698 Y27.9592 F508.00 
G01 X18.1439 Y27.8751 
G01 X18.0041 Y27.8172 
G01 X17.8557 Y27.7877 
G01 X17.7043 Y27.7877 
G01 X17.5559 Y27.8172 
G01 X17.4161 Y27.8751 
G01 X17.2902 Y27.9592 
G01 X17.1832 Y28.0662 
G01 X17.0991 Y28.1921 
G01 X17.0412 Y28.3319 
G01 X17.0117 Y28.4803 
G01 X17.0117 Y29.9397 
G01 X17.0412 Y30.0881 
G01 X17.0991 Y30.2279 
G01 X17.1832 Y30.3538 
G01 X17.2902 Y30.4608 
G01 X17.4161 Y30.5449 
G01 X17.5559 Y30.6028 
G01 X17.7043 Y30.6323 
G01 X17.8557 Y30.6323 
G01 X18.0041 Y30.6028 
G01 X18.1439 Y30.5449 
G01 X18.2698 Y30.4608 
G01 X18.3768 Y30.3538 
G01 X18.4609 Y30.2279 
G01 X18.5188 Y30.0881 
G01 X18.5483 Y29.9397 
G01 X18.5483 Y28.4803 
G01 X18.5188 Y28.3319 
G01 X18.4609 Y28.1921 
G01 X18.3768 Y28.0662 
G00 Z2.5400 
G00 X15.8368 Y28.0662 
G01 Z-0.1200 F254.00 
G01 X15.7298 Y27.9592 F508.00 
G01 X15.6039 Y27.8751 
G01 X15.4641 Y27.8172 
G01 X15.3157 Y27.7877 
G01 X15.1643 Y27.7877 
G01 X15.0159 Y27.8172 
G01 X14.8761 Y27.8751 
G01 X14.7502 Y27.9592 
G01 X14.6432 Y28.0662 
G01 X14.5591 Y28.1921 
G01 X14.5012 Y28.3319 
G01 X14.4717 Y28.4803 
G01 X14.4717 Y29.9397 
G01 X14.5012 Y30.0881 
G01 X14.5591 Y30.2279 
G01 X14.6432 Y30.3538 
G01 X14.7502 Y30.4608 
G01 X14.8761 Y30.5449 
G01 X15.0159 Y30.6028 
G01 X15.1643 Y30.6323 
G01 X15.3157 Y30.6323 
G01 X15.4641 Y30.6028 
G01 X15.6039 Y30.5449 
G01 X15.7298 Y30.4608 
G01 X15.8368 Y30.3538 
G01 X15.9209 Y30.2279 
G01 X15.9788 Y30.0881 
G01 X16.0083 Y29.9397 
G01 X16.0083 Y28.4803 
G01 X15.9788 Y28.3319 
G01 X15.9209 Y28.1921 
G01 X15.8368 Y28.0662 
G00 Z2.5400 
G00 X13.2968 Y28.0662 
G01 Z-0.1200 F254.00 
G01 X13.1898 Y27.9592 F508.00 
G01 X13.0639 Y27.8751 
G01 X12.9241 Y27.8172 
G01 X12.7757 Y27.7877 
G01 X12.6243 Y27.7877 
G01 X12.4759 Y27.8172 
G01 X12.3361 Y27.8751 
G01 X12.2102 Y27.9592 
G01 X12.1032 Y28.0662 
G01 X12.0191 Y28.1921 
G01 X11.9612 Y28.3319 
G01 X11.9317 Y28.4803 
G01 X11.9317 Y29.9397 
G01 X11.9612 Y30.0881 
G01 X12.0191 Y30.2279 
G01 X12.1032 Y30.3538 
G01 X12.2102 Y30.4608 
G01 X12.3361 Y30.5449 
G01 X12.4759 Y30.6028 
G01 X12.6243 Y30.6323 
G01 X12.7757 Y30.6323 
G01 X12.9241 Y30.6028 
G01 X13.0639 Y30.5449 
G01 X13.1898 Y30.4608 
G01 X13.2968 Y30.3538 
G01 X13.3809 Y30.2279 
G01 X13.4388 Y30.0881 
G01 X13.4683 Y29.9397 
G01 X13.4683 Y28.4803 
G01 X13.4388 Y28.3319 
G01 X13.3809 Y28.1921 
G01 X13.2968 Y28.0662 
G00 Z2.5400 
G00 X10.7568 Y28.0662 
G01 Z-0.1200 F254.00 
G01 X10.6498 Y27.9592 F508.00 
G01 X10.5239 Y27.8751 
G01 X10.3841 Y27.8172 
G01 X10.2357 Y27.7877 
G01 X10.0843 Y27.7877 
G01 X9.9359 Y27.8172 
G01 X9.7961 Y27.8751 
G01 X9.6702 Y27.9592 
G01 X9.5632 Y28.0662 
G01 X9.4791 Y28.1921 
G01 X9.4212 Y28.3319 
G01 X9.3917 Y28.4803 
G01 X9.3917 Y29.9397 
G01 X9.4212 Y30.0881 
G01 X9.4791 Y30.2279 
G01 X9.5632 Y30.3538 
G01 X9.6702 Y30.4608 
G01 X9.7961 Y30.5449 
G01 X9.9359 Y30.6028 
G01 X10.0843 Y30.6323 
G01 X10.2357 Y30.6323 
G01 X10.3841 Y30.6028 
G01 X10.5239 Y30.5449 
G01 X10.6498 Y30.4608 
G01 X10.7568 Y30.3538 
G01 X10.8409 Y30.2279 
G01 X10.8988 Y30.0881 
G01 X10.9283 Y29.9397 
G01 X10.9283 Y28.4803 
G01 X10.8988 Y28.3319 
G01 X10.8409 Y28.1921 
G01 X10.7568 Y28.0662 
G00 Z2.5400 
G00 X8.7638 Y29.8832 
G01 Z-0.1200 F254.00 
G01 X8.6379 Y29.7991 F508.00 
G01 X8.4981 Y29.7412 
G01 X8.3497 Y29.7117 
G01 X6.8903 Y29.7117 
G01 X6.7419 Y29.7412 
G01 X6.6021 Y29.7991 
G01 X6.4762 Y29.8832 
G01 X6.3692 Y29.9902 
G01 X6.2851 Y30.1161 
G01 X6.2272 Y30.2559 
G01 X6.1977 Y30.4043 
G01 X6.1977 Y30.5557 
G01 X6.2272 Y30.7041 
G01 X6.2851 Y30.8439 
G01 X6.3692 Y30.9698 
G01 X6.4762 Y31.0768 
G01 X6.6021 Y31.1609 
G01 X6.7419 Y31.2188 
G01 X6.8903 Y31.2483 
G01 X8.3497 Y31.2483 
G01 X8.4981 Y31.2188 
G01 X8.6379 Y31.1609 
G01 X8.7638 Y31.0768 
G01 X8.8708 Y30.9698 
G01 X8.9549 Y30.8439 
G01 X9.0128 Y30.7041 
G01 X9.0423 Y30.5557 
G01 X9.0423 Y30.4043 
G01 X9.0128 Y30.2559 
G01 X8.9549 Y30.1161 
G01 X8.8708 Y29.9902 
G01 X8.7638 Y29.8832 
G00 Z2.5400 
G00 X8.7638 Y32.4232 
G01 Z-0.1200 F254.00 
G01 X8.6379 Y32.3391 F508.00 
G01 X8.4981 Y32.2812 
G01 X8.3497 Y32.2517 
G01 X6.8903 Y32.2517 
G01 X6.7419 Y32.2812 
G01 X6.6021 Y32.3391 
G01 X6.4762 Y32.4232 
G01 X6.3692 Y32.5302 
G01 X6.2851 Y32.6561 
G01 X6.2272 Y32.7959 
G01 X6.1977 Y32.9443 
G01 X6.1977 Y33.0957 
G01 X6.2272 Y33.2441 
G01 X6.2851 Y33.3839 
G01 X6.3692 Y33.5098 
G01 X6.4762 Y33.6168 
G01 X6.6021 Y33.7009 
G01 X6.7419 Y33.7588 
G01 X6.8903 Y33.7883 
G01 X8.3497 Y33.7883 
G01 X8.4981 Y33.7588 
G01 X8.6379 Y33.7009 
G01 X8.7638 Y33.6168 
G01 X8.8708 Y33.5098 
G01 X8.9549 Y33.3839 
G01 X9.0128 Y33.2441 
G01 X9.0423 Y33.0957 
G01 X9.0423 Y32.9443 
G01 X9.0128 Y32.7959 
G01 X8.9549 Y32.6561 
G01 X8.8708 Y32.5302 
G01 X8.7638 Y32.4232 
G00 Z2.5400 
G00 X8.7638 Y34.9632 
G01 Z-0.1200 F254.00 
G01 X8.6379 Y34.8791 F508.00 
G01 X8.4981 Y34.8212 
G01 X8.3497 Y34.7917 
G01 X6.8903 Y34.7917 
G01 X6.7419 Y34.8212 
G01 X6.6021 Y34.8791 
G01 X6.4762 Y34.9632 
G01 X6.3692 Y35.0702 
G01 X6.2851 Y35.1961 
G01 X6.2272 Y35.3359 
G01 X6.1977 Y35.4843 
G01 X6.1977 Y35.6357 
G01 X6.2272 Y35.7841 
G01 X6.2851 Y35.9239 
G01 X6.3692 Y36.0498 
G01 X6.4762 Y36.1568 
G01 X6.6021 Y36.2409 
G01 X6.7419 Y36.2988 
G01 X6.8903 Y36.3283 
G01 X8.3497 Y36.3283 
G01 X8.4981 Y36.2988 
G01 X8.6379 Y36.2409 
G01 X8.7638 Y36.1568 
G01 X8.8708 Y36.0498 
G01 X8.9549 Y35.9239 
G01 X9.0128 Y35.7841 
G01 X9.0423 Y35.6357 
G01 X9.0423 Y35.4843 
G01 X9.0128 Y35.3359 
G01 X8.9549 Y35.1961 
G01 X8.8708 Y35.0702 
G01 X8.7638 Y34.9632 
G00 Z2.5400 
G00 X18.4499 Y34.9921 
G01 Z-0.1200 F254.00 
G01 X18.4325 Y35.0341 F508.00 
G01 X18.4325 Y36.0859 
G01 X18.4499 Y36.1279 
G01 X18.4821 Y36.1601 
G01 X18.5241 Y36.1775 
G01 X19.5759 Y36.1775 
G01 X19.6179 Y36.1601 
G01 X19.6501 Y36.1279 
G01 X19.6675 Y36.0859 
G01 X19.6675 Y35.8775 
G01 X29.8625 Y35.8775 
G01 X29.8625 Y36.0859 
G01 X29.8799 Y36.1279 
G01 X29.9121 Y36.1601 
G01 X29.9541 Y36.1775 
G01 X31.0059 Y36.1775 
G01 X31.0479 Y36.1601 
G01 X31.0801 Y36.1279 
G01 X31.0975 Y36.0859 
G01 X31.0975 Y35.0341 
G01 X31.0801 Y34.9921 
G01 X31.0479 Y34.9599 
G01 X31.0059 Y34.9425 
G01 X29.9541 Y34.9425 
G01 X29.9121 Y34.9599 
G01 X29.8799 Y34.9921 
G01 X29.8625 Y35.0341 
G01 X29.8625 Y35.2425 
G01 X19.6675 Y35.2425 
G01 X19.6675 Y35.0341 
G01 X19.6501 Y34.9921 
G01 X19.6179 Y34.9599 
G01 X19.5759 Y34.9425 
G01 X18.5241 Y34.9425 
G01 X18.4821 Y34.9599 
G01 X18.4499 Y34.9921 
G00 Z2.5400 
G00 X21.9892 Y25.9968 
G01 Z-0.1200 F254.00 
G01 X22.1151 Y26.0809 F508.00 
G01 X22.2549 Y26.1388 
G01 X22.4033 Y26.1683 
G01 X22.5547 Y26.1683 
G01 X22.7031 Y26.1388 
G01 X22.8429 Y26.0809 
G01 X22.9688 Y25.9968 
G01 X23.0758 Y25.8898 
G01 X23.1599 Y25.7639 
G01 X23.2178 Y25.6241 
G01 X23.2473 Y25.4757 
G01 X23.2473 Y25.3243 
G01 X23.2178 Y25.1759 
G01 X23.1599 Y25.0361 
G01 X23.0758 Y24.9102 
G01 X22.9688 Y24.8032 
G01 X22.8429 Y24.7191 
G01 X22.7031 Y24.6612 
G01 X22.5547 Y24.6317 
G01 X22.4033 Y24.6317 
G01 X22.2549 Y24.6612 
G01 X22.1151 Y24.7191 
G01 X21.9892 Y24.8032 
G01 X21.8822 Y24.9102 
G01 X21.7981 Y25.0361 
G01 X21.7402 Y25.1759 
G01 X21.7107 Y25.3243 
G01 X21.7107 Y25.4757 
G01 X21.7402 Y25.6241 
G01 X21.7981 Y25.7639 
G01 X21.8822 Y25.8898 
G01 X21.9892 Y25.9968 
G00 Z2.5400 
G00 X21.9892 Y23.4568 
G01 Z-0.1200 F254.00 
G01 X22.1151 Y23.5409 F508.00 
G01 X22.2549 Y23.5988 
G01 X22.4033 Y23.6283 
G01 X22.5547 Y23.6283 
G01 X22.7031 Y23.5988 
G01 X22.8429 Y23.5409 
G01 X22.9688 Y23.4568 
G01 X23.0758 Y23.3498 
G01 X23.1599 Y23.2239 
G01 X23.2178 Y23.0841 
G01 X23.2473 Y22.9357 
G01 X23.2473 Y22.7843 
G01 X23.2178 Y22.6359 
G01 X23.1599 Y22.4961 
G01 X23.0758 Y22.3702 
G01 X22.9688 Y22.2632 
G01 X22.8429 Y22.1791 
G01 X22.7031 Y22.1212 
G01 X22.5547 Y22.0917 
G01 X22.4033 Y22.0917 
G01 X22.2549 Y22.1212 
G01 X22.1151 Y22.1791 
G01 X21.9892 Y22.2632 
G01 X21.8822 Y22.3702 
G01 X21.7981 Y22.4961 
G01 X21.7402 Y22.6359 
G01 X21.7107 Y22.7843 
G01 X21.7107 Y22.9357 
G01 X21.7402 Y23.0841 
G01 X21.7981 Y23.2239 
G01 X21.8822 Y23.3498 
G01 X21.9892 Y23.4568 
G00 Z2.5400 
G00 X21.9892 Y20.9168 
G01 Z-0.1200 F254.00 
G01 X22.1151 Y21.0009 F508.00 
G01 X22.2549 Y21.0588 
G01 X22.4033 Y21.0883 
G01 X22.5547 Y21.0883 
G01 X22.7031 Y21.0588 
G01 X22.8429 Y21.0009 
G01 X22.9688 Y20.9168 
G01 X23.0758 Y20.8098 
G01 X23.1599 Y20.6839 
G01 X23.2178 Y20.5441 
G01 X23.2473 Y20.3957 
G01 X23.2473 Y20.2443 
G01 X23.2178 Y20.0959 
G01 X23.1599 Y19.9561 
G01 X23.0758 Y19.8302 
G01 X22.9688 Y19.7232 
G01 X22.8429 Y19.6391 
G01 X22.7031 Y19.5812 
G01 X22.5547 Y19.5517 
G01 X22.4033 Y19.5517 
G01 X22.2549 Y19.5812 
G01 X22.1151 Y19.6391 
G01 X21.9892 Y19.7232 
G01 X21.8822 Y19.8302 
G01 X21.7981 Y19.9561 
G01 X21.7402 Y20.0959 
G01 X21.7107 Y20.2443 
G01 X21.7107 Y20.3957 
G01 X21.7402 Y20.5441 
G01 X21.7981 Y20.6839 
G01 X21.8822 Y20.8098 
G01 X21.9892 Y20.9168 
G00 Z2.5400 
G00 X21.9892 Y18.3768 
G01 Z-0.1200 F254.00 
G01 X22.1151 Y18.4609 F508.00 
G01 X22.2549 Y18.5188 
G01 X22.4033 Y18.5483 
G01 X22.5547 Y18.5483 
G01 X22.7031 Y18.5188 
G01 X22.8429 Y18.4609 
G01 X22.9688 Y18.3768 
G01 X23.0758 Y18.2698 
G01 X23.1599 Y18.1439 
G01 X23.2178 Y18.0041 
G01 X23.2473 Y17.8557 
G01 X23.2473 Y17.7043 
G01 X23.2178 Y17.5559 
G01 X23.1599 Y17.4161 
G01 X23.0758 Y17.2902 
G01 X22.9688 Y17.1832 
G01 X22.8429 Y17.0991 
G01 X22.7031 Y17.0412 
G01 X22.5547 Y17.0117 
G01 X22.4033 Y17.0117 
G01 X22.2549 Y17.0412 
G01 X22.1151 Y17.0991 
G01 X21.9892 Y17.1832 
G01 X21.8822 Y17.2902 
G01 X21.7981 Y17.4161 
G01 X21.7402 Y17.5559 
G01 X21.7107 Y17.7043 
G01 X21.7107 Y17.8557 
G01 X21.7402 Y18.0041 
G01 X21.7981 Y18.1439 
G01 X21.8822 Y18.2698 
G01 X21.9892 Y18.3768 
G00 Z2.5400 
G00 X21.8023 Y16.0083 
G01 Z-0.1200 F254.00 
G01 X23.1557 Y16.0083 F508.00 
G01 X23.1977 Y15.9909 
G01 X23.2299 Y15.9587 
G01 X23.2473 Y15.9167 
G01 X23.2473 Y14.5633 
G01 X23.2299 Y14.5213 
G01 X23.1977 Y14.4891 
G01 X23.1557 Y14.4717 
G01 X21.8023 Y14.4717 
G01 X21.7603 Y14.4891 
G01 X21.7281 Y14.5213 
G01 X21.7107 Y14.5633 
G01 X21.7107 Y15.9167 
G01 X21.7281 Y15.9587 
G01 X21.7603 Y15.9909 
G01 X21.8023 Y16.0083 
G00 Z2.5400 
G00 X58.9264 Y8.0296 
G01 Z-0.1200 F254.00 
G01 X59.0917 Y8.1401 F508.00 
G01 X59.2755 Y8.2162 
G01 X59.4706 Y8.2550 
G01 X59.6694 Y8.2550 
G01 X59.8645 Y8.2162 
G01 X60.0482 Y8.1401 
G01 X60.2136 Y8.0296 
G01 X60.3542 Y7.8890 
G01 X60.4647 Y7.7236 
G01 X60.5408 Y7.5399 
G01 X60.5796 Y7.3448 
G01 X60.5796 Y5.3552 
G01 X60.5408 Y5.1601 
G01 X60.4647 Y4.9764 
G01 X60.3542 Y4.8110 
G01 X60.2136 Y4.6704 
G01 X60.0482 Y4.5599 
G01 X59.8645 Y4.4838 
G01 X59.6694 Y4.4450 
G01 X59.4706 Y4.4450 
G01 X59.2755 Y4.4838 
G01 X59.0917 Y4.5599 
G01 X58.9264 Y4.6704 
G01 X58.7858 Y4.8110 
G01 X58.6753 Y4.9764 
G01 X58.5992 Y5.1601 
G01 X58.5603 Y5.3552 
G01 X58.5603 Y7.3448 
G01 X58.5992 Y7.5399 
G01 X58.6753 Y7.7236 
G01 X58.7858 Y7.8890 
G01 X58.9264 Y8.0296 
G00 Z2.5400 
G00 X3.3147 Y44.1291 
G01 Z-0.1200 F254.00 
G01 X2.8609 Y43.6753 F508.00 
G01 X2.2191 Y43.6753 
G01 X1.7653 Y44.1291 
G01 X1.7653 Y44.7709 
G01 X2.2191 Y45.2247 
G01 X2.8609 Y45.2247 
G01 X3.3147 Y44.7709 
G01 X3.3147 Y44.1291 
G00 Z2.5400 
G00 X4.3796 Y16.5448 
G01 Z-0.1200 F254.00 
G01 X4.2809 Y16.6925 F508.00 
G01 X4.2130 Y16.8566 
G01 X4.1783 Y17.0308 
G01 X4.1783 Y18.5292 
G01 X4.2130 Y18.7034 
G01 X4.2809 Y18.8675 
G01 X4.3796 Y19.0152 
G01 X4.5052 Y19.1408 
G01 X4.6529 Y19.2395 
G01 X4.8170 Y19.3074 
G01 X4.9912 Y19.3421 
G01 X5.1688 Y19.3421 
G01 X5.3430 Y19.3074 
G01 X5.5071 Y19.2395 
G01 X5.6548 Y19.1408 
G01 X5.7804 Y19.0152 
G01 X5.8791 Y18.8675 
G01 X5.9470 Y18.7034 
G01 X5.9817 Y18.5292 
G01 X5.9817 Y17.0308 
G01 X5.9470 Y16.8566 
G01 X5.8791 Y16.6925 
G01 X5.7804 Y16.5448 
G01 X5.6548 Y16.4192 
G01 X5.5071 Y16.3205 
G01 X5.3430 Y16.2526 
G01 X5.1688 Y16.2179 
G01 X4.9912 Y16.2179 
G01 X4.8170 Y16.2526 
G01 X4.6529 Y16.3205 
G01 X4.5052 Y16.4192 
G01 X4.3796 Y16.5448 
G00 Z2.5400 
G00 X6.9196 Y16.5448 
G01 Z-0.1200 F254.00 
G01 X6.8209 Y16.6925 F508.00 
G01 X6.7530 Y16.8566 
G01 X6.7183 Y17.0308 
G01 X6.7183 Y18.5292 
G01 X6.7530 Y18.7034 
G01 X6.8209 Y18.8675 
G01 X6.9196 Y19.0152 
G01 X7.0452 Y19.1408 
G01 X7.1929 Y19.2395 
G01 X7.3570 Y19.3074 
G01 X7.5312 Y19.3421 
G01 X7.7088 Y19.3421 
G01 X7.8830 Y19.3074 
G01 X8.0471 Y19.2395 
G01 X8.1948 Y19.1408 
G01 X8.3204 Y19.0152 
G01 X8.4191 Y18.8675 
G01 X8.4870 Y18.7034 
G01 X8.5217 Y18.5292 
G01 X8.5217 Y17.0308 
G01 X8.4870 Y16.8566 
G01 X8.4191 Y16.6925 
G01 X8.3204 Y16.5448 
G01 X8.1948 Y16.4192 
G01 X8.0471 Y16.3205 
G01 X7.8830 Y16.2526 
G01 X7.7088 Y16.2179 
G01 X7.5312 Y16.2179 
G01 X7.3570 Y16.2526 
G01 X7.1929 Y16.3205 
G01 X7.0452 Y16.4192 
G01 X6.9196 Y16.5448 
G00 Z2.5400 
G00 X9.4596 Y16.5448 
G01 Z-0.1200 F254.00 
G01 X9.3609 Y16.6925 F508.00 
G01 X9.2930 Y16.8566 
G01 X9.2583 Y17.0308 
G01 X9.2583 Y18.5292 
G01 X9.2930 Y18.7034 
G01 X9.3609 Y18.8675 
G01 X9.4596 Y19.0152 
G01 X9.5852 Y19.1408 
G01 X9.7329 Y19.2395 
G01 X9.8970 Y19.3074 
G01 X10.0712 Y19.3421 
G01 X10.2488 Y19.3421 
G01 X10.4230 Y19.3074 
G01 X10.5871 Y19.2395 
G01 X10.7348 Y19.1408 
G01 X10.8604 Y19.0152 
G01 X10.9591 Y18.8675 
G01 X11.0270 Y18.7034 
G01 X11.0617 Y18.5292 
G01 X11.0617 Y17.0308 
G01 X11.0270 Y16.8566 
G01 X10.9591 Y16.6925 
G01 X10.8604 Y16.5448 
G01 X10.7348 Y16.4192 
G01 X10.5871 Y16.3205 
G01 X10.4230 Y16.2526 
G01 X10.2488 Y16.2179 
G01 X10.0712 Y16.2179 
G01 X9.8970 Y16.2526 
G01 X9.7329 Y16.3205 
G01 X9.5852 Y16.4192 
G01 X9.4596 Y16.5448 
G00 Z2.5400 
G00 X11.9996 Y16.5448 
G01 Z-0.1200 F254.00 
G01 X11.9009 Y16.6925 F508.00 
G01 X11.8330 Y16.8566 
G01 X11.7983 Y17.0308 
G01 X11.7983 Y18.5292 
G01 X11.8330 Y18.7034 
G01 X11.9009 Y18.8675 
G01 X11.9996 Y19.0152 
G01 X12.1252 Y19.1408 
G01 X12.2729 Y19.2395 
G01 X12.4370 Y19.3074 
G01 X12.6112 Y19.3421 
G01 X12.7888 Y19.3421 
G01 X12.9630 Y19.3074 
G01 X13.1271 Y19.2395 
G01 X13.2748 Y19.1408 
G01 X13.4004 Y19.0152 
G01 X13.4991 Y18.8675 
G01 X13.5670 Y18.7034 
G01 X13.6017 Y18.5292 
G01 X13.6017 Y17.0308 
G01 X13.5670 Y16.8566 
G01 X13.4991 Y16.6925 
G01 X13.4004 Y16.5448 
G01 X13.2748 Y16.4192 
G01 X13.1271 Y16.3205 
G01 X12.9630 Y16.2526 
G01 X12.7888 Y16.2179 
G01 X12.6112 Y16.2179 
G01 X12.4370 Y16.2526 
G01 X12.2729 Y16.3205 
G01 X12.1252 Y16.4192 
G01 X11.9996 Y16.5448 
G00 Z2.5400 
G00 X11.9996 Y24.1648 
G01 Z-0.1200 F254.00 
G01 X11.9009 Y24.3125 F508.00 
G01 X11.8330 Y24.4766 
G01 X11.7983 Y24.6508 
G01 X11.7983 Y26.1492 
G01 X11.8330 Y26.3234 
G01 X11.9009 Y26.4875 
G01 X11.9996 Y26.6352 
G01 X12.1252 Y26.7608 
G01 X12.2729 Y26.8595 
G01 X12.4370 Y26.9274 
G01 X12.6112 Y26.9621 
G01 X12.7888 Y26.9621 
G01 X12.9630 Y26.9274 
G01 X13.1271 Y26.8595 
G01 X13.2748 Y26.7608 
G01 X13.4004 Y26.6352 
G01 X13.4991 Y26.4875 
G01 X13.5670 Y26.3234 
G01 X13.6017 Y26.1492 
G01 X13.6017 Y24.6508 
G01 X13.5670 Y24.4766 
G01 X13.4991 Y24.3125 
G01 X13.4004 Y24.1648 
G01 X13.2748 Y24.0392 
G01 X13.1271 Y23.9405 
G01 X12.9630 Y23.8726 
G01 X12.7888 Y23.8379 
G01 X12.6112 Y23.8379 
G01 X12.4370 Y23.8726 
G01 X12.2729 Y23.9405 
G01 X12.1252 Y24.0392 
G01 X11.9996 Y24.1648 
G00 Z2.5400 
G00 X10.8604 Y24.1648 
G01 Z-0.1200 F254.00 
G01 X10.7348 Y24.0392 F508.00 
G01 X10.5871 Y23.9405 
G01 X10.4230 Y23.8726 
G01 X10.2488 Y23.8379 
G01 X10.0712 Y23.8379 
G01 X9.8970 Y23.8726 
G01 X9.7329 Y23.9405 
G01 X9.5852 Y24.0392 
G01 X9.4596 Y24.1648 
G01 X9.3609 Y24.3125 
G01 X9.2930 Y24.4766 
G01 X9.2583 Y24.6508 
G01 X9.2583 Y26.1492 
G01 X9.2930 Y26.3234 
G01 X9.3609 Y26.4875 
G01 X9.4596 Y26.6352 
G01 X9.5852 Y26.7608 
G01 X9.7329 Y26.8595 
G01 X9.8970 Y26.9274 
G01 X10.0712 Y26.9621 
G01 X10.2488 Y26.9621 
G01 X10.4230 Y26.9274 
G01 X10.5871 Y26.8595 
G01 X10.7348 Y26.7608 
G01 X10.8604 Y26.6352 
G01 X10.9591 Y26.4875 
G01 X11.0270 Y26.3234 
G01 X11.0617 Y26.1492 
G01 X11.0617 Y24.6508 
G01 X11.0270 Y24.4766 
G01 X10.9591 Y24.3125 
G01 X10.8604 Y24.1648 
G00 Z2.5400 
G00 X8.3204 Y24.1648 
G01 Z-0.1200 F254.00 
G01 X8.1948 Y24.0392 F508.00 
G01 X8.0471 Y23.9405 
G01 X7.8830 Y23.8726 
G01 X7.7088 Y23.8379 
G01 X7.5312 Y23.8379 
G01 X7.3570 Y23.8726 
G01 X7.1929 Y23.9405 
G01 X7.0452 Y24.0392 
G01 X6.9196 Y24.1648 
G01 X6.8209 Y24.3125 
G01 X6.7530 Y24.4766 
G01 X6.7183 Y24.6508 
G01 X6.7183 Y26.1492 
G01 X6.7530 Y26.3234 
G01 X6.8209 Y26.4875 
G01 X6.9196 Y26.6352 
G01 X7.0452 Y26.7608 
G01 X7.1929 Y26.8595 
G01 X7.3570 Y26.9274 
G01 X7.5312 Y26.9621 
G01 X7.7088 Y26.9621 
G01 X7.8830 Y26.9274 
G01 X8.0471 Y26.8595 
G01 X8.1948 Y26.7608 
G01 X8.3204 Y26.6352 
G01 X8.4191 Y26.4875 
G01 X8.4870 Y26.3234 
G01 X8.5217 Y26.1492 
G01 X8.5217 Y24.6508 
G01 X8.4870 Y24.4766 
G01 X8.4191 Y24.3125 
G01 X8.3204 Y24.1648 
G00 Z2.5400 
G00 X5.7804 Y24.1648 
G01 Z-0.1200 F254.00 
G01 X5.6548 Y24.0392 F508.00 
G01 X5.5071 Y23.9405 
G01 X5.3430 Y23.8726 
G01 X5.1688 Y23.8379 
G01 X4.9912 Y23.8379 
G01 X4.8170 Y23.8726 
G01 X4.6529 Y23.9405 
G01 X4.5052 Y24.0392 
G01 X4.3796 Y24.1648 
G01 X4.2809 Y24.3125 
G01 X4.2130 Y24.4766 
G01 X4.1783 Y24.6508 
G01 X4.1783 Y26.1492 
G01 X4.2130 Y26.3234 
G01 X4.2809 Y26.4875 
G01 X4.3796 Y26.6352 
G01 X4.5052 Y26.7608 
G01 X4.6529 Y26.8595 
G01 X4.8170 Y26.9274 
G01 X4.9912 Y26.9621 
G01 X5.1688 Y26.9621 
G01 X5.3430 Y26.9274 
G01 X5.5071 Y26.8595 
G01 X5.6548 Y26.7608 
G01 X5.7804 Y26.6352 
G01 X5.8791 Y26.4875 
G01 X5.9470 Y26.3234 
G01 X5.9817 Y26.1492 
G01 X5.9817 Y24.6508 
G01 X5.9470 Y24.4766 
G01 X5.8791 Y24.3125 
G01 X5.7804 Y24.1648 
G00 Z2.5400 
G00 X3.4417 Y26.2965 
G01 Z-0.1200 F254.00 
G01 X2.9135 Y25.7683 F508.00 
G01 X2.1665 Y25.7683 
G01 X1.6383 Y26.2965 
G01 X1.6383 Y27.0435 
G01 X2.1665 Y27.5717 
G01 X2.9135 Y27.5717 
G01 X3.4417 Y27.0435 
G01 X3.4417 Y26.2965 
G00 Z2.5400 
G00 X3.4417 Y31.3765 
G01 Z-0.1200 F254.00 
G01 X2.9135 Y30.8483 F508.00 
G01 X2.1665 Y30.8483 
G01 X1.6383 Y31.3765 
G01 X1.6383 Y32.1235 
G01 X2.1665 Y32.6517 
G01 X2.9135 Y32.6517 
G01 X3.4417 Y32.1235 
G01 X3.4417 Y31.3765 
G00 Z2.5400 
G00 X3.4365 Y33.3883 
G01 Z-0.1200 F254.00 
G01 X2.9083 Y33.9165 F508.00 
G01 X2.9083 Y34.6635 
G01 X3.4365 Y35.1917 
G01 X4.1835 Y35.1917 
G01 X4.7117 Y34.6635 
G01 X4.7117 Y33.9165 
G01 X4.1835 Y33.3883 
G01 X3.4365 Y33.3883 
G00 Z2.5400 
G00 X2.1717 Y33.9165 
G01 Z-0.1200 F254.00 
G01 X1.6435 Y33.3883 F508.00 
G01 X0.8965 Y33.3883 
G01 X0.3683 Y33.9165 
G01 X0.3683 Y34.6635 
G01 X0.8965 Y35.1917 
G01 X1.6435 Y35.1917 
G01 X2.1717 Y34.6635 
G01 X2.1717 Y33.9165 
G00 Z2.5400 
G00 X2.1665 Y35.2933 
G01 Z-0.1200 F254.00 
G01 X1.6383 Y35.8215 F508.00 
G01 X1.6383 Y36.5685 
G01 X2.1665 Y37.0967 
G01 X2.9135 Y37.0967 
G01 X3.4417 Y36.5685 
G01 X3.4417 Y35.8215 
G01 X2.9135 Y35.2933 
G01 X2.1665 Y35.2933 
G00 Z2.5400 
G00 X2.1665 Y38.4683 
G01 Z-0.1200 F254.00 
G01 X1.6383 Y38.9965 F508.00 
G01 X1.6383 Y39.7435 
G01 X2.1665 Y40.2717 
G01 X2.9135 Y40.2717 
G01 X3.4417 Y39.7435 
G01 X3.4417 Y38.9965 
G01 X2.9135 Y38.4683 
G01 X2.1665 Y38.4683 
G00 Z2.5400 
G00 X6.1051 Y38.3612 
G01 Z-0.1200 F254.00 
G01 X6.1726 Y38.5241 F508.00 
G01 X6.2706 Y38.6707 
G01 X6.3953 Y38.7954 
G01 X6.5419 Y38.8934 
G01 X6.7048 Y38.9609 
G01 X6.8778 Y38.9953 
G01 X8.3622 Y38.9953 
G01 X8.5351 Y38.9609 
G01 X8.6981 Y38.8934 
G01 X8.8447 Y38.7954 
G01 X8.9694 Y38.6707 
G01 X9.0674 Y38.5241 
G01 X9.1349 Y38.3612 
G01 X9.1693 Y38.1882 
G01 X9.1693 Y38.0118 
G01 X9.1349 Y37.8388 
G01 X9.0674 Y37.6759 
G01 X8.9694 Y37.5293 
G01 X8.8447 Y37.4046 
G01 X8.6981 Y37.3066 
G01 X8.5351 Y37.2391 
G01 X8.3622 Y37.2047 
G01 X6.8778 Y37.2047 
G01 X6.7048 Y37.2391 
G01 X6.5419 Y37.3066 
G01 X6.3953 Y37.4046 
G01 X6.2706 Y37.5293 
G01 X6.1726 Y37.6759 
G01 X6.1051 Y37.8388 
G01 X6.0707 Y38.0118 
G01 X6.0707 Y38.1882 
G01 X6.1051 Y38.3612 
G00 Z2.5400 
G00 X6.2706 Y40.0693 
G01 Z-0.1200 F254.00 
G01 X6.1726 Y40.2159 F508.00 
G01 X6.1051 Y40.3788 
G01 X6.0707 Y40.5518 
G01 X6.0707 Y40.7282 
G01 X6.1051 Y40.9012 
G01 X6.1726 Y41.0641 
G01 X6.2706 Y41.2107 
G01 X6.3953 Y41.3354 
G01 X6.5419 Y41.4334 
G01 X6.7048 Y41.5009 
G01 X6.8778 Y41.5353 
G01 X8.3622 Y41.5353 
G01 X8.5351 Y41.5009 
G01 X8.6981 Y41.4334 
G01 X8.8447 Y41.3354 
G01 X8.9694 Y41.2107 
G01 X9.0674 Y41.0641 
G01 X9.1349 Y40.9012 
G01 X9.1693 Y40.7282 
G01 X9.1693 Y40.5518 
G01 X9.1349 Y40.3788 
G01 X9.0674 Y40.2159 
G01 X8.9694 Y40.0693 
G01 X8.8447 Y39.9446 
G01 X8.6981 Y39.8466 
G01 X8.5351 Y39.7791 
G01 X8.3622 Y39.7447 
G01 X6.8778 Y39.7447 
G01 X6.7048 Y39.7791 
G01 X6.5419 Y39.8466 
G01 X6.3953 Y39.9446 
G01 X6.2706 Y40.0693 
G00 Z2.5400 
G00 X6.2706 Y42.6093 
G01 Z-0.1200 F254.00 
G01 X6.1726 Y42.7559 F508.00 
G01 X6.1051 Y42.9188 
G01 X6.0707 Y43.0918 
G01 X6.0707 Y43.2682 
G01 X6.1051 Y43.4412 
G01 X6.1726 Y43.6041 
G01 X6.2706 Y43.7507 
G01 X6.3953 Y43.8754 
G01 X6.5419 Y43.9734 
G01 X6.7048 Y44.0409 
G01 X6.8778 Y44.0753 
G01 X8.3622 Y44.0753 
G01 X8.5351 Y44.0409 
G01 X8.6981 Y43.9734 
G01 X8.8447 Y43.8754 
G01 X8.9694 Y43.7507 
G01 X9.0674 Y43.6041 
G01 X9.1349 Y43.4412 
G01 X9.1693 Y43.2682 
G01 X9.1693 Y43.0918 
G01 X9.1349 Y42.9188 
G01 X9.0674 Y42.7559 
G01 X8.9694 Y42.6093 
G01 X8.8447 Y42.4846 
G01 X8.6981 Y42.3866 
G01 X8.5351 Y42.3191 
G01 X8.3622 Y42.2847 
G01 X6.8778 Y42.2847 
G01 X6.7048 Y42.3191 
G01 X6.5419 Y42.3866 
G01 X6.3953 Y42.4846 
G01 X6.2706 Y42.6093 
G00 Z2.5400 
G00 X9.4646 Y43.2253 
G01 Z-0.1200 F254.00 
G01 X9.3666 Y43.3719 F508.00 
G01 X9.2991 Y43.5348 
G01 X9.2647 Y43.7078 
G01 X9.2647 Y45.1922 
G01 X9.2991 Y45.3651 
G01 X9.3666 Y45.5281 
G01 X9.4646 Y45.6747 
G01 X9.5893 Y45.7994 
G01 X9.7359 Y45.8974 
G01 X9.8988 Y45.9649 
G01 X10.0718 Y45.9993 
G01 X10.2482 Y45.9993 
G01 X10.4212 Y45.9649 
G01 X10.5841 Y45.8974 
G01 X10.7307 Y45.7994 
G01 X10.8554 Y45.6747 
G01 X10.9534 Y45.5281 
G01 X11.0209 Y45.3651 
G01 X11.0553 Y45.1922 
G01 X11.0553 Y43.7078 
G01 X11.0209 Y43.5348 
G01 X10.9534 Y43.3719 
G01 X10.8554 Y43.2253 
G01 X10.7307 Y43.1006 
G01 X10.5841 Y43.0026 
G01 X10.4212 Y42.9351 
G01 X10.2482 Y42.9007 
G01 X10.0718 Y42.9007 
G01 X9.8988 Y42.9351 
G01 X9.7359 Y43.0026 
G01 X9.5893 Y43.1006 
G01 X9.4646 Y43.2253 
G00 Z2.5400 
G00 X12.0046 Y43.2253 
G01 Z-0.1200 F254.00 
G01 X11.9066 Y43.3719 F508.00 
G01 X11.8391 Y43.5348 
G01 X11.8047 Y43.7078 
G01 X11.8047 Y45.1922 
G01 X11.8391 Y45.3651 
G01 X11.9066 Y45.5281 
G01 X12.0046 Y45.6747 
G01 X12.1293 Y45.7994 
G01 X12.2759 Y45.8974 
G01 X12.4388 Y45.9649 
G01 X12.6118 Y45.9993 
G01 X12.7882 Y45.9993 
G01 X12.9611 Y45.9649 
G01 X13.1241 Y45.8974 
G01 X13.2707 Y45.7994 
G01 X13.3954 Y45.6747 
G01 X13.4934 Y45.5281 
G01 X13.5609 Y45.3651 
G01 X13.5953 Y45.1922 
G01 X13.5953 Y43.7078 
G01 X13.5609 Y43.5348 
G01 X13.4934 Y43.3719 
G01 X13.3954 Y43.2253 
G01 X13.2707 Y43.1006 
G01 X13.1241 Y43.0026 
G01 X12.9611 Y42.9351 
G01 X12.7882 Y42.9007 
G01 X12.6118 Y42.9007 
G01 X12.4388 Y42.9351 
G01 X12.2759 Y43.0026 
G01 X12.1293 Y43.1006 
G01 X12.0046 Y43.2253 
G00 Z2.5400 
G00 X14.5446 Y43.2253 
G01 Z-0.1200 F254.00 
G01 X14.4466 Y43.3719 F508.00 
G01 X14.3791 Y43.5348 
G01 X14.3447 Y43.7078 
G01 X14.3447 Y45.1922 
G01 X14.3791 Y45.3651 
G01 X14.4466 Y45.5281 
G01 X14.5446 Y45.6747 
G01 X14.6693 Y45.7994 
G01 X14.8159 Y45.8974 
G01 X14.9788 Y45.9649 
G01 X15.1518 Y45.9993 
G01 X15.3282 Y45.9993 
G01 X15.5012 Y45.9649 
G01 X15.6641 Y45.8974 
G01 X15.8107 Y45.7994 
G01 X15.9354 Y45.6747 
G01 X16.0334 Y45.5281 
G01 X16.1009 Y45.3651 
G01 X16.1353 Y45.1922 
G01 X16.1353 Y43.7078 
G01 X16.1009 Y43.5348 
G01 X16.0334 Y43.3719 
G01 X15.9354 Y43.2253 
G01 X15.8107 Y43.1006 
G01 X15.6641 Y43.0026 
G01 X15.5012 Y42.9351 
G01 X15.3282 Y42.9007 
G01 X15.1518 Y42.9007 
G01 X14.9788 Y42.9351 
G01 X14.8159 Y43.0026 
G01 X14.6693 Y43.1006 
G01 X14.5446 Y43.2253 
G00 Z2.5400 
G00 X17.0846 Y43.2253 
G01 Z-0.1200 F254.00 
G01 X16.9866 Y43.3719 F508.00 
G01 X16.9191 Y43.5348 
G01 X16.8847 Y43.7078 
G01 X16.8847 Y45.1922 
G01 X16.9191 Y45.3651 
G01 X16.9866 Y45.5281 
G01 X17.0846 Y45.6747 
G01 X17.2093 Y45.7994 
G01 X17.3559 Y45.8974 
G01 X17.5188 Y45.9649 
G01 X17.6918 Y45.9993 
G01 X17.8682 Y45.9993 
G01 X18.0411 Y45.9649 
G01 X18.2041 Y45.8974 
G01 X18.3507 Y45.7994 
G01 X18.4754 Y45.6747 
G01 X18.5734 Y45.5281 
G01 X18.6409 Y45.3651 
G01 X18.6753 Y45.1922 
G01 X18.6753 Y43.7078 
G01 X18.6409 Y43.5348 
G01 X18.5734 Y43.3719 
G01 X18.4754 Y43.2253 
G01 X18.3507 Y43.1006 
G01 X18.2041 Y43.0026 
G01 X18.0411 Y42.9351 
G01 X17.8682 Y42.9007 
G01 X17.6918 Y42.9007 
G01 X17.5188 Y42.9351 
G01 X17.3559 Y43.0026 
G01 X17.2093 Y43.1006 
G01 X17.0846 Y43.2253 
G00 Z2.5400 
G00 X19.6246 Y43.2253 
G01 Z-0.1200 F254.00 
G01 X19.5266 Y43.3719 F508.00 
G01 X19.4591 Y43.5348 
G01 X19.4247 Y43.7078 
G01 X19.4247 Y45.1922 
G01 X19.4591 Y45.3651 
G01 X19.5266 Y45.5281 
G01 X19.6246 Y45.6747 
G01 X19.7493 Y45.7994 
G01 X19.8959 Y45.8974 
G01 X20.0588 Y45.9649 
G01 X20.2318 Y45.9993 
G01 X20.4082 Y45.9993 
G01 X20.5812 Y45.9649 
G01 X20.7441 Y45.8974 
G01 X20.8907 Y45.7994 
G01 X21.0154 Y45.6747 
G01 X21.1134 Y45.5281 
G01 X21.1809 Y45.3651 
G01 X21.2153 Y45.1922 
G01 X21.2153 Y43.7078 
G01 X21.1809 Y43.5348 
G01 X21.1134 Y43.3719 
G01 X21.0154 Y43.2253 
G01 X20.8907 Y43.1006 
G01 X20.7441 Y43.0026 
G01 X20.5812 Y42.9351 
G01 X20.4082 Y42.9007 
G01 X20.2318 Y42.9007 
G01 X20.0588 Y42.9351 
G01 X19.8959 Y43.0026 
G01 X19.7493 Y43.1006 
G01 X19.6246 Y43.2253 
G00 Z2.5400 
G00 X19.6207 Y41.9894 
G01 Z-0.1200 F254.00 
G01 X19.7454 Y41.8647 F508.00 
G01 X19.8434 Y41.7181 
G01 X19.9109 Y41.5551 
G01 X19.9453 Y41.3822 
G01 X19.9453 Y39.8978 
G01 X19.9109 Y39.7248 
G01 X19.8434 Y39.5619 
G01 X19.7454 Y39.4153 
G01 X19.6207 Y39.2906 
G01 X19.4741 Y39.1926 
G01 X19.3112 Y39.1251 
G01 X19.1382 Y39.0907 
G01 X18.9618 Y39.0907 
G01 X18.7888 Y39.1251 
G01 X18.6259 Y39.1926 
G01 X18.4793 Y39.2906 
G01 X18.3546 Y39.4153 
G01 X18.2566 Y39.5619 
G01 X18.1891 Y39.7248 
G01 X18.1547 Y39.8978 
G01 X18.1547 Y41.3822 
G01 X18.1891 Y41.5551 
G01 X18.2566 Y41.7181 
G01 X18.3546 Y41.8647 
G01 X18.4793 Y41.9894 
G01 X18.6259 Y42.0874 
G01 X18.7888 Y42.1549 
G01 X18.9618 Y42.1893 
G01 X19.1382 Y42.1893 
G01 X19.3112 Y42.1549 
G01 X19.4741 Y42.0874 
G01 X19.6207 Y41.9894 
G00 Z2.5400 
G00 X21.0193 Y41.9894 
G01 Z-0.1200 F254.00 
G01 X21.1659 Y42.0874 F508.00 
G01 X21.3288 Y42.1549 
G01 X21.5018 Y42.1893 
G01 X21.6782 Y42.1893 
G01 X21.8512 Y42.1549 
G01 X22.0141 Y42.0874 
G01 X22.1607 Y41.9894 
G01 X22.2854 Y41.8647 
G01 X22.3834 Y41.7181 
G01 X22.4509 Y41.5551 
G01 X22.4853 Y41.3822 
G01 X22.4853 Y39.8978 
G01 X22.4509 Y39.7248 
G01 X22.3834 Y39.5619 
G01 X22.2854 Y39.4153 
G01 X22.1607 Y39.2906 
G01 X22.0141 Y39.1926 
G01 X21.8512 Y39.1251 
G01 X21.6782 Y39.0907 
G01 X21.5018 Y39.0907 
G01 X21.3288 Y39.1251 
G01 X21.1659 Y39.1926 
G01 X21.0193 Y39.2906 
G01 X20.8946 Y39.4153 
G01 X20.7966 Y39.5619 
G01 X20.7291 Y39.7248 
G01 X20.6947 Y39.8978 
G01 X20.6947 Y41.3822 
G01 X20.7291 Y41.5551 
G01 X20.7966 Y41.7181 
G01 X20.8946 Y41.8647 
G01 X21.0193 Y41.9894 
G00 Z2.5400 
G00 X22.1646 Y43.2253 
G01 Z-0.1200 F254.00 
G01 X22.0666 Y43.3719 F508.00 
G01 X21.9991 Y43.5348 
G01 X21.9647 Y43.7078 
G01 X21.9647 Y45.1922 
G01 X21.9991 Y45.3651 
G01 X22.0666 Y45.5281 
G01 X22.1646 Y45.6747 
G01 X22.2893 Y45.7994 
G01 X22.4359 Y45.8974 
G01 X22.5988 Y45.9649 
G01 X22.7718 Y45.9993 
G01 X22.9482 Y45.9993 
G01 X23.1212 Y45.9649 
G01 X23.2841 Y45.8974 
G01 X23.4307 Y45.7994 
G01 X23.5554 Y45.6747 
G01 X23.6534 Y45.5281 
G01 X23.7209 Y45.3651 
G01 X23.7553 Y45.1922 
G01 X23.7553 Y43.7078 
G01 X23.7209 Y43.5348 
G01 X23.6534 Y43.3719 
G01 X23.5554 Y43.2253 
G01 X23.4307 Y43.1006 
G01 X23.2841 Y43.0026 
G01 X23.1212 Y42.9351 
G01 X22.9482 Y42.9007 
G01 X22.7718 Y42.9007 
G01 X22.5988 Y42.9351 
G01 X22.4359 Y43.0026 
G01 X22.2893 Y43.1006 
G01 X22.1646 Y43.2253 
G00 Z2.5400 
G00 X24.7046 Y43.2253 
G01 Z-0.1200 F254.00 
G01 X24.6066 Y43.3719 F508.00 
G01 X24.5391 Y43.5348 
G01 X24.5047 Y43.7078 
G01 X24.5047 Y45.1922 
G01 X24.5391 Y45.3651 
G01 X24.6066 Y45.5281 
G01 X24.7046 Y45.6747 
G01 X24.8293 Y45.7994 
G01 X24.9759 Y45.8974 
G01 X25.1388 Y45.9649 
G01 X25.3118 Y45.9993 
G01 X25.4882 Y45.9993 
G01 X25.6611 Y45.9649 
G01 X25.8241 Y45.8974 
G01 X25.9707 Y45.7994 
G01 X26.0954 Y45.6747 
G01 X26.1934 Y45.5281 
G01 X26.2609 Y45.3651 
G01 X26.2953 Y45.1922 
G01 X26.2953 Y43.7078 
G01 X26.2609 Y43.5348 
G01 X26.1934 Y43.3719 
G01 X26.0954 Y43.2253 
G01 X25.9707 Y43.1006 
G01 X25.8241 Y43.0026 
G01 X25.6611 Y42.9351 
G01 X25.4882 Y42.9007 
G01 X25.3118 Y42.9007 
G01 X25.1388 Y42.9351 
G01 X24.9759 Y43.0026 
G01 X24.8293 Y43.1006 
G01 X24.7046 Y43.2253 
G00 Z2.5400 
G00 X27.2446 Y43.2253 
G01 Z-0.1200 F254.00 
G01 X27.1466 Y43.3719 F508.00 
G01 X27.0791 Y43.5348 
G01 X27.0447 Y43.7078 
G01 X27.0447 Y45.1922 
G01 X27.0791 Y45.3651 
G01 X27.1466 Y45.5281 
G01 X27.2446 Y45.6747 
G01 X27.3693 Y45.7994 
G01 X27.5159 Y45.8974 
G01 X27.6788 Y45.9649 
G01 X27.8518 Y45.9993 
G01 X28.0282 Y45.9993 
G01 X28.2011 Y45.9649 
G01 X28.3641 Y45.8974 
G01 X28.5107 Y45.7994 
G01 X28.6354 Y45.6747 
G01 X28.7334 Y45.5281 
G01 X28.8009 Y45.3651 
G01 X28.8353 Y45.1922 
G01 X28.8353 Y43.7078 
G01 X28.8009 Y43.5348 
G01 X28.7334 Y43.3719 
G01 X28.6354 Y43.2253 
G01 X28.5107 Y43.1006 
G01 X28.3641 Y43.0026 
G01 X28.2011 Y42.9351 
G01 X28.0282 Y42.9007 
G01 X27.8518 Y42.9007 
G01 X27.6788 Y42.9351 
G01 X27.5159 Y43.0026 
G01 X27.3693 Y43.1006 
G01 X27.2446 Y43.2253 
G00 Z2.5400 
G00 X29.7846 Y43.2253 
G01 Z-0.1200 F254.00 
G01 X29.6866 Y43.3719 F508.00 
G01 X29.6191 Y43.5348 
G01 X29.5847 Y43.7078 
G01 X29.5847 Y45.1922 
G01 X29.6191 Y45.3651 
G01 X29.6866 Y45.5281 
G01 X29.7846 Y45.6747 
G01 X29.9093 Y45.7994 
G01 X30.0559 Y45.8974 
G01 X30.2188 Y45.9649 
G01 X30.3918 Y45.9993 
G01 X30.5682 Y45.9993 
G01 X30.7412 Y45.9649 
G01 X30.9041 Y45.8974 
G01 X31.0507 Y45.7994 
G01 X31.1754 Y45.6747 
G01 X31.2734 Y45.5281 
G01 X31.3409 Y45.3651 
G01 X31.3753 Y45.1922 
G01 X31.3753 Y43.7078 
G01 X31.3409 Y43.5348 
G01 X31.2734 Y43.3719 
G01 X31.1754 Y43.2253 
G01 X31.0507 Y43.1006 
G01 X30.9041 Y43.0026 
G01 X30.7412 Y42.9351 
G01 X30.5682 Y42.9007 
G01 X30.3918 Y42.9007 
G01 X30.2188 Y42.9351 
G01 X30.0559 Y43.0026 
G01 X29.9093 Y43.1006 
G01 X29.7846 Y43.2253 
G00 Z2.5400 
G00 X29.7807 Y41.9894 
G01 Z-0.1200 F254.00 
G01 X29.9054 Y41.8647 F508.00 
G01 X30.0034 Y41.7181 
G01 X30.0709 Y41.5551 
G01 X30.1053 Y41.3822 
G01 X30.1053 Y39.8978 
G01 X30.0709 Y39.7248 
G01 X30.0034 Y39.5619 
G01 X29.9054 Y39.4153 
G01 X29.7807 Y39.2906 
G01 X29.6341 Y39.1926 
G01 X29.4712 Y39.1251 
G01 X29.2982 Y39.0907 
G01 X29.1218 Y39.0907 
G01 X28.9488 Y39.1251 
G01 X28.7859 Y39.1926 
G01 X28.6393 Y39.2906 
G01 X28.5146 Y39.4153 
G01 X28.4166 Y39.5619 
G01 X28.3491 Y39.7248 
G01 X28.3147 Y39.8978 
G01 X28.3147 Y41.3822 
G01 X28.3491 Y41.5551 
G01 X28.4166 Y41.7181 
G01 X28.5146 Y41.8647 
G01 X28.6393 Y41.9894 
G01 X28.7859 Y42.0874 
G01 X28.9488 Y42.1549 
G01 X29.1218 Y42.1893 
G01 X29.2982 Y42.1893 
G01 X29.4712 Y42.1549 
G01 X29.6341 Y42.0874 
G01 X29.7807 Y41.9894 
G00 Z2.5400 
G00 X31.1793 Y41.9894 
G01 Z-0.1200 F254.00 
G01 X31.3259 Y42.0874 F508.00 
G01 X31.4888 Y42.1549 
G01 X31.6618 Y42.1893 
G01 X31.8382 Y42.1893 
G01 X32.0112 Y42.1549 
G01 X32.1741 Y42.0874 
G01 X32.3207 Y41.9894 
G01 X32.4454 Y41.8647 
G01 X32.5434 Y41.7181 
G01 X32.6109 Y41.5551 
G01 X32.6453 Y41.3822 
G01 X32.6453 Y39.8978 
G01 X32.6109 Y39.7248 
G01 X32.5434 Y39.5619 
G01 X32.4454 Y39.4153 
G01 X32.3207 Y39.2906 
G01 X32.1741 Y39.1926 
G01 X32.0112 Y39.1251 
G01 X31.8382 Y39.0907 
G01 X31.6618 Y39.0907 
G01 X31.4888 Y39.1251 
G01 X31.3259 Y39.1926 
G01 X31.1793 Y39.2906 
G01 X31.0546 Y39.4153 
G01 X30.9566 Y39.5619 
G01 X30.8891 Y39.7248 
G01 X30.8547 Y39.8978 
G01 X30.8547 Y41.3822 
G01 X30.8891 Y41.5551 
G01 X30.9566 Y41.7181 
G01 X31.0546 Y41.8647 
G01 X31.1793 Y41.9894 
G00 Z2.5400 
G00 X32.3246 Y43.2253 
G01 Z-0.1200 F254.00 
G01 X32.2266 Y43.3719 F508.00 
G01 X32.1591 Y43.5348 
G01 X32.1247 Y43.7078 
G01 X32.1247 Y45.1922 
G01 X32.1591 Y45.3651 
G01 X32.2266 Y45.5281 
G01 X32.3246 Y45.6747 
G01 X32.4493 Y45.7994 
G01 X32.5959 Y45.8974 
G01 X32.7588 Y45.9649 
G01 X32.9318 Y45.9993 
G01 X33.1082 Y45.9993 
G01 X33.2811 Y45.9649 
G01 X33.4441 Y45.8974 
G01 X33.5907 Y45.7994 
G01 X33.7154 Y45.6747 
G01 X33.8134 Y45.5281 
G01 X33.8809 Y45.3651 
G01 X33.9153 Y45.1922 
G01 X33.9153 Y43.7078 
G01 X33.8809 Y43.5348 
G01 X33.8134 Y43.3719 
G01 X33.7154 Y43.2253 
G01 X33.5907 Y43.1006 
G01 X33.4441 Y43.0026 
G01 X33.2811 Y42.9351 
G01 X33.1082 Y42.9007 
G01 X32.9318 Y42.9007 
G01 X32.7588 Y42.9351 
G01 X32.5959 Y43.0026 
G01 X32.4493 Y43.1006 
G01 X32.3246 Y43.2253 
G00 Z2.5400 
G00 X34.8646 Y43.2253 
G01 Z-0.1200 F254.00 
G01 X34.7666 Y43.3719 F508.00 
G01 X34.6991 Y43.5348 
G01 X34.6647 Y43.7078 
G01 X34.6647 Y45.1922 
G01 X34.6991 Y45.3651 
G01 X34.7666 Y45.5281 
G01 X34.8646 Y45.6747 
G01 X34.9893 Y45.7994 
G01 X35.1359 Y45.8974 
G01 X35.2988 Y45.9649 
G01 X35.4718 Y45.9993 
G01 X35.6482 Y45.9993 
G01 X35.8212 Y45.9649 
G01 X35.9841 Y45.8974 
G01 X36.1307 Y45.7994 
G01 X36.2554 Y45.6747 
G01 X36.3534 Y45.5281 
G01 X36.4209 Y45.3651 
G01 X36.4553 Y45.1922 
G01 X36.4553 Y43.7078 
G01 X36.4209 Y43.5348 
G01 X36.3534 Y43.3719 
G01 X36.2554 Y43.2253 
G01 X36.1307 Y43.1006 
G01 X35.9841 Y43.0026 
G01 X35.8212 Y42.9351 
G01 X35.6482 Y42.9007 
G01 X35.4718 Y42.9007 
G01 X35.2988 Y42.9351 
G01 X35.1359 Y43.0026 
G01 X34.9893 Y43.1006 
G01 X34.8646 Y43.2253 
G00 Z2.5400 
G00 X37.4046 Y43.2253 
G01 Z-0.1200 F254.00 
G01 X37.3066 Y43.3719 F508.00 
G01 X37.2391 Y43.5348 
G01 X37.2047 Y43.7078 
G01 X37.2047 Y45.1922 
G01 X37.2391 Y45.3651 
G01 X37.3066 Y45.5281 
G01 X37.4046 Y45.6747 
G01 X37.5293 Y45.7994 
G01 X37.6759 Y45.8974 
G01 X37.8388 Y45.9649 
G01 X38.0118 Y45.9993 
G01 X38.1882 Y45.9993 
G01 X38.3612 Y45.9649 
G01 X38.5241 Y45.8974 
G01 X38.6707 Y45.7994 
G01 X38.7954 Y45.6747 
G01 X38.8934 Y45.5281 
G01 X38.9609 Y45.3651 
G01 X38.9953 Y45.1922 
G01 X38.9953 Y43.7078 
G01 X38.9609 Y43.5348 
G01 X38.8934 Y43.3719 
G01 X38.7954 Y43.2253 
G01 X38.6707 Y43.1006 
G01 X38.5241 Y43.0026 
G01 X38.3612 Y42.9351 
G01 X38.1882 Y42.9007 
G01 X38.0118 Y42.9007 
G01 X37.8388 Y42.9351 
G01 X37.6759 Y43.0026 
G01 X37.5293 Y43.1006 
G01 X37.4046 Y43.2253 
G00 Z2.5400 
G00 X43.8104 Y37.1013 
G01 Z-0.1200 F254.00 
G01 X43.9748 Y37.2111 F508.00 
G01 X44.1573 Y37.2867 
G01 X44.3512 Y37.3253 
G01 X44.5488 Y37.3253 
G01 X44.7426 Y37.2867 
G01 X44.9252 Y37.2111 
G01 X45.0896 Y37.1013 
G01 X45.2293 Y36.9616 
G01 X45.3391 Y36.7972 
G01 X45.4147 Y36.6146 
G01 X45.4533 Y36.4208 
G01 X45.4533 Y34.6992 
G01 X45.4147 Y34.5053 
G01 X45.3391 Y34.3228 
G01 X45.2293 Y34.1584 
G01 X45.0896 Y34.0187 
G01 X44.9252 Y33.9089 
G01 X44.7426 Y33.8333 
G01 X44.5488 Y33.7947 
G01 X44.3512 Y33.7947 
G01 X44.1573 Y33.8333 
G01 X43.9748 Y33.9089 
G01 X43.8104 Y34.0187 
G01 X43.6707 Y34.1584 
G01 X43.5609 Y34.3228 
G01 X43.4853 Y34.5053 
G01 X43.4467 Y34.6992 
G01 X43.4467 Y36.4208 
G01 X43.4853 Y36.6146 
G01 X43.5609 Y36.7972 
G01 X43.6707 Y36.9616 
G01 X43.8104 Y37.1013 
G00 Z2.5400 
G00 X46.3504 Y37.1013 
G01 Z-0.1200 F254.00 
G01 X46.5148 Y37.2111 F508.00 
G01 X46.6973 Y37.2867 
G01 X46.8912 Y37.3253 
G01 X47.0888 Y37.3253 
G01 X47.2826 Y37.2867 
G01 X47.4652 Y37.2111 
G01 X47.6296 Y37.1013 
G01 X47.7693 Y36.9616 
G01 X47.8791 Y36.7972 
G01 X47.9547 Y36.6146 
G01 X47.9933 Y36.4208 
G01 X47.9933 Y34.6992 
G01 X47.9547 Y34.5053 
G01 X47.8791 Y34.3228 
G01 X47.7693 Y34.1584 
G01 X47.6296 Y34.0187 
G01 X47.4652 Y33.9089 
G01 X47.2826 Y33.8333 
G01 X47.0888 Y33.7947 
G01 X46.8912 Y33.7947 
G01 X46.6973 Y33.8333 
G01 X46.5148 Y33.9089 
G01 X46.3504 Y34.0187 
G01 X46.2107 Y34.1584 
G01 X46.1009 Y34.3228 
G01 X46.0253 Y34.5053 
G01 X45.9867 Y34.6992 
G01 X45.9867 Y36.4208 
G01 X46.0253 Y36.6146 
G01 X46.1009 Y36.7972 
G01 X46.2107 Y36.9616 
G01 X46.3504 Y37.1013 
G00 Z2.5400 
G00 X48.8904 Y37.1013 
G01 Z-0.1200 F254.00 
G01 X49.0548 Y37.2111 F508.00 
G01 X49.2373 Y37.2867 
G01 X49.4312 Y37.3253 
G01 X49.6288 Y37.3253 
G01 X49.8227 Y37.2867 
G01 X50.0052 Y37.2111 
G01 X50.1696 Y37.1013 
G01 X50.3093 Y36.9616 
G01 X50.4191 Y36.7972 
G01 X50.4947 Y36.6146 
G01 X50.5333 Y36.4208 
G01 X50.5333 Y34.6992 
G01 X50.4947 Y34.5053 
G01 X50.4191 Y34.3228 
G01 X50.3093 Y34.1584 
G01 X50.1696 Y34.0187 
G01 X50.0052 Y33.9089 
G01 X49.8227 Y33.8333 
G01 X49.6288 Y33.7947 
G01 X49.4312 Y33.7947 
G01 X49.2373 Y33.8333 
G01 X49.0548 Y33.9089 
G01 X48.8904 Y34.0187 
G01 X48.7507 Y34.1584 
G01 X48.6409 Y34.3228 
G01 X48.5653 Y34.5053 
G01 X48.5267 Y34.6992 
G01 X48.5267 Y36.4208 
G01 X48.5653 Y36.6146 
G01 X48.6409 Y36.7972 
G01 X48.7507 Y36.9616 
G01 X48.8904 Y37.1013 
G00 Z2.5400 
G00 X51.4304 Y37.1013 
G01 Z-0.1200 F254.00 
G01 X51.5948 Y37.2111 F508.00 
G01 X51.7773 Y37.2867 
G01 X51.9712 Y37.3253 
G01 X52.1688 Y37.3253 
G01 X52.3627 Y37.2867 
G01 X52.5452 Y37.2111 
G01 X52.7096 Y37.1013 
G01 X52.8493 Y36.9616 
G01 X52.9591 Y36.7972 
G01 X53.0347 Y36.6146 
G01 X53.0733 Y36.4208 
G01 X53.0733 Y34.6992 
G01 X53.0347 Y34.5053 
G01 X52.9591 Y34.3228 
G01 X52.8493 Y34.1584 
G01 X52.7096 Y34.0187 
G01 X52.5452 Y33.9089 
G01 X52.3627 Y33.8333 
G01 X52.1688 Y33.7947 
G01 X51.9712 Y33.7947 
G01 X51.7773 Y33.8333 
G01 X51.5948 Y33.9089 
G01 X51.4304 Y34.0187 
G01 X51.2907 Y34.1584 
G01 X51.1809 Y34.3228 
G01 X51.1053 Y34.5053 
G01 X51.0667 Y34.6992 
G01 X51.0667 Y36.4208 
G01 X51.1053 Y36.6146 
G01 X51.1809 Y36.7972 
G01 X51.2907 Y36.9616 
G01 X51.4304 Y37.1013 
G00 Z2.5400 
G00 X56.2483 Y37.2035 
G01 Z-0.1200 F254.00 
G01 X56.7765 Y37.7317 F508.00 
G01 X57.5235 Y37.7317 
G01 X58.0517 Y37.2035 
G01 X58.0517 Y36.4565 
G01 X57.5235 Y35.9283 
G01 X56.7765 Y35.9283 
G01 X56.2483 Y36.4565 
G01 X56.2483 Y37.2035 
G00 Z2.5400 
G00 X56.2483 Y41.5365 
G01 Z-0.1200 F254.00 
G01 X56.2483 Y42.2835 F508.00 
G01 X56.7765 Y42.8117 
G01 X57.5235 Y42.8117 
G01 X58.0517 Y42.2835 
G01 X58.0517 Y41.5365 
G01 X57.5235 Y41.0083 
G01 X56.7765 Y41.0083 
G01 X56.2483 Y41.5365 
G00 Z2.5400 
G00 X64.4042 Y40.1170 
G01 Z-0.1200 F254.00 
G01 X64.5489 Y40.2221 F508.00 
G01 X64.7083 Y40.3034 
G01 X64.8785 Y40.3587 
G01 X65.0552 Y40.3866 
G01 X67.0248 Y40.3866 
G01 X67.2015 Y40.3587 
G01 X67.3717 Y40.3034 
G01 X67.5311 Y40.2221 
G01 X67.6758 Y40.1170 
G01 X67.8023 Y39.9905 
G01 X67.9075 Y39.8457 
G01 X67.9887 Y39.6863 
G01 X68.0440 Y39.5162 
G01 X68.0720 Y39.3395 
G01 X68.0720 Y39.1605 
G01 X68.0440 Y38.9838 
G01 X67.9887 Y38.8137 
G01 X67.9075 Y38.6543 
G01 X67.8023 Y38.5095 
G01 X67.6758 Y38.3830 
G01 X67.5311 Y38.2779 
G01 X67.3717 Y38.1966 
G01 X67.2015 Y38.1413 
G01 X67.0248 Y38.1133 
G01 X65.0552 Y38.1133 
G01 X64.8785 Y38.1413 
G01 X64.7083 Y38.1966 
G01 X64.5489 Y38.2779 
G01 X64.4042 Y38.3830 
G01 X64.2777 Y38.5095 
G01 X64.1725 Y38.6543 
G01 X64.0913 Y38.8137 
G01 X64.0360 Y38.9838 
G01 X64.0080 Y39.1605 
G01 X64.0080 Y39.3395 
G01 X64.0360 Y39.5162 
G01 X64.0913 Y39.6863 
G01 X64.1725 Y39.8457 
G01 X64.2777 Y39.9905 
G01 X64.4042 Y40.1170 
G00 Z2.5400 
G00 X64.4042 Y35.1170 
G01 Z-0.1200 F254.00 
G01 X64.5489 Y35.2221 F508.00 
G01 X64.7083 Y35.3034 
G01 X64.8785 Y35.3587 
G01 X65.0552 Y35.3866 
G01 X67.0248 Y35.3866 
G01 X67.2015 Y35.3587 
G01 X67.3717 Y35.3034 
G01 X67.5311 Y35.2221 
G01 X67.6758 Y35.1170 
G01 X67.8023 Y34.9905 
G01 X67.9075 Y34.8457 
G01 X67.9887 Y34.6863 
G01 X68.0440 Y34.5162 
G01 X68.0720 Y34.3395 
G01 X68.0720 Y34.1605 
G01 X68.0440 Y33.9838 
G01 X67.9887 Y33.8137 
G01 X67.9075 Y33.6543 
G01 X67.8023 Y33.5095 
G01 X67.6758 Y33.3830 
G01 X67.5311 Y33.2779 
G01 X67.3717 Y33.1966 
G01 X67.2015 Y33.1413 
G01 X67.0248 Y33.1133 
G01 X65.0552 Y33.1133 
G01 X64.8785 Y33.1413 
G01 X64.7083 Y33.1966 
G01 X64.5489 Y33.2779 
G01 X64.4042 Y33.3830 
G01 X64.2777 Y33.5095 
G01 X64.1725 Y33.6543 
G01 X64.0913 Y33.8137 
G01 X64.0360 Y33.9838 
G01 X64.0080 Y34.1605 
G01 X64.0080 Y34.3395 
G01 X64.0360 Y34.5162 
G01 X64.0913 Y34.6863 
G01 X64.1725 Y34.8457 
G01 X64.2777 Y34.9905 
G01 X64.4042 Y35.1170 
G00 Z2.5400 
G00 X64.4042 Y30.1170 
G01 Z-0.1200 F254.00 
G01 X64.5489 Y30.2221 F508.00 
G01 X64.7083 Y30.3034 
G01 X64.8785 Y30.3587 
G01 X65.0552 Y30.3866 
G01 X67.0248 Y30.3866 
G01 X67.2015 Y30.3587 
G01 X67.3717 Y30.3034 
G01 X67.5311 Y30.2221 
G01 X67.6758 Y30.1170 
G01 X67.8023 Y29.9905 
G01 X67.9075 Y29.8457 
G01 X67.9887 Y29.6863 
G01 X68.0440 Y29.5162 
G01 X68.0720 Y29.3395 
G01 X68.0720 Y29.1605 
G01 X68.0440 Y28.9838 
G01 X67.9887 Y28.8137 
G01 X67.9075 Y28.6543 
G01 X67.8023 Y28.5095 
G01 X67.6758 Y28.3830 
G01 X67.5311 Y28.2779 
G01 X67.3717 Y28.1966 
G01 X67.2015 Y28.1413 
G01 X67.0248 Y28.1134 
G01 X65.0552 Y28.1134 
G01 X64.8785 Y28.1413 
G01 X64.7083 Y28.1966 
G01 X64.5489 Y28.2779 
G01 X64.4042 Y28.3830 
G01 X64.2777 Y28.5095 
G01 X64.1725 Y28.6543 
G01 X64.0913 Y28.8137 
G01 X64.0360 Y28.9838 
G01 X64.0080 Y29.1605 
G01 X64.0080 Y29.3395 
G01 X64.0360 Y29.5162 
G01 X64.0913 Y29.6863 
G01 X64.1725 Y29.8457 
G01 X64.2777 Y29.9905 
G01 X64.4042 Y30.1170 
G00 Z2.5400 
G00 X64.4042 Y25.1170 
G01 Z-0.1200 F254.00 
G01 X64.5489 Y25.2221 F508.00 
G01 X64.7083 Y25.3034 
G01 X64.8785 Y25.3587 
G01 X65.0552 Y25.3866 
G01 X67.0248 Y25.3866 
G01 X67.2015 Y25.3587 
G01 X67.3717 Y25.3034 
G01 X67.5311 Y25.2221 
G01 X67.6758 Y25.1170 
G01 X67.8023 Y24.9905 
G01 X67.9075 Y24.8457 
G01 X67.9887 Y24.6863 
G01 X68.0440 Y24.5162 
G01 X68.0720 Y24.3395 
G01 X68.0720 Y24.1605 
G01 X68.0440 Y23.9838 
G01 X67.9887 Y23.8137 
G01 X67.9075 Y23.6543 
G01 X67.8023 Y23.5095 
G01 X67.6758 Y23.3830 
G01 X67.5311 Y23.2779 
G01 X67.3717 Y23.1966 
G01 X67.2015 Y23.1413 
G01 X67.0248 Y23.1134 
G01 X65.0552 Y23.1134 
G01 X64.8785 Y23.1413 
G01 X64.7083 Y23.1966 
G01 X64.5489 Y23.2779 
G01 X64.4042 Y23.3830 
G01 X64.2777 Y23.5095 
G01 X64.1725 Y23.6543 
G01 X64.0913 Y23.8137 
G01 X64.0360 Y23.9838 
G01 X64.0080 Y24.1605 
G01 X64.0080 Y24.3395 
G01 X64.0360 Y24.5162 
G01 X64.0913 Y24.6863 
G01 X64.1725 Y24.8457 
G01 X64.2777 Y24.9905 
G01 X64.4042 Y25.1170 
G00 Z2.5400 
G00 X52.7654 Y23.4307 
G01 Z-0.1200 F254.00 
G01 X52.8634 Y23.2841 F508.00 
G01 X52.9309 Y23.1212 
G01 X52.9653 Y22.9482 
G01 X52.9653 Y22.7718 
G01 X52.9309 Y22.5988 
G01 X52.8634 Y22.4359 
G01 X52.7654 Y22.2893 
G01 X52.6407 Y22.1646 
G01 X52.4941 Y22.0666 
G01 X52.3312 Y21.9991 
G01 X52.1582 Y21.9647 
G01 X51.9818 Y21.9647 
G01 X51.8088 Y21.9991 
G01 X51.6459 Y22.0666 
G01 X51.4993 Y22.1646 
G01 X51.3746 Y22.2893 
G01 X51.2766 Y22.4359 
G01 X51.2091 Y22.5988 
G01 X51.1747 Y22.7718 
G01 X51.1747 Y22.9482 
G01 X51.2091 Y23.1212 
G01 X51.2766 Y23.2841 
G01 X51.3746 Y23.4307 
G01 X51.4993 Y23.5554 
G01 X51.6459 Y23.6534 
G01 X51.8088 Y23.7209 
G01 X51.9818 Y23.7553 
G01 X52.1582 Y23.7553 
G01 X52.3312 Y23.7209 
G01 X52.4941 Y23.6534 
G01 X52.6407 Y23.5554 
G01 X52.7654 Y23.4307 
G00 Z2.5400 
G00 X52.7654 Y20.8907 
G01 Z-0.1200 F254.00 
G01 X52.8634 Y20.7441 F508.00 
G01 X52.9309 Y20.5812 
G01 X52.9653 Y20.4082 
G01 X52.9653 Y20.2318 
G01 X52.9309 Y20.0588 
G01 X52.8634 Y19.8959 
G01 X52.7654 Y19.7493 
G01 X52.6407 Y19.6246 
G01 X52.4941 Y19.5266 
G01 X52.3312 Y19.4591 
G01 X52.1582 Y19.4247 
G01 X51.9818 Y19.4247 
G01 X51.8088 Y19.4591 
G01 X51.6459 Y19.5266 
G01 X51.4993 Y19.6246 
G01 X51.3746 Y19.7493 
G01 X51.2766 Y19.8959 
G01 X51.2091 Y20.0588 
G01 X51.1747 Y20.2318 
G01 X51.1747 Y20.4082 
G01 X51.2091 Y20.5812 
G01 X51.2766 Y20.7441 
G01 X51.3746 Y20.8907 
G01 X51.4993 Y21.0154 
G01 X51.6459 Y21.1134 
G01 X51.8088 Y21.1809 
G01 X51.9818 Y21.2153 
G01 X52.1582 Y21.2153 
G01 X52.3312 Y21.1809 
G01 X52.4941 Y21.1134 
G01 X52.6407 Y21.0154 
G01 X52.7654 Y20.8907 
G00 Z2.5400 
G00 X52.7654 Y18.3507 
G01 Z-0.1200 F254.00 
G01 X52.8634 Y18.2041 F508.00 
G01 X52.9309 Y18.0411 
G01 X52.9653 Y17.8682 
G01 X52.9653 Y17.6918 
G01 X52.9309 Y17.5188 
G01 X52.8634 Y17.3559 
G01 X52.7654 Y17.2093 
G01 X52.6407 Y17.0846 
G01 X52.4941 Y16.9866 
G01 X52.3312 Y16.9191 
G01 X52.1582 Y16.8847 
G01 X51.9818 Y16.8847 
G01 X51.8088 Y16.9191 
G01 X51.6459 Y16.9866 
G01 X51.4993 Y17.0846 
G01 X51.3746 Y17.2093 
G01 X51.2766 Y17.3559 
G01 X51.2091 Y17.5188 
G01 X51.1747 Y17.6918 
G01 X51.1747 Y17.8682 
G01 X51.2091 Y18.0411 
G01 X51.2766 Y18.2041 
G01 X51.3746 Y18.3507 
G01 X51.4993 Y18.4754 
G01 X51.6459 Y18.5734 
G01 X51.8088 Y18.6409 
G01 X51.9818 Y18.6753 
G01 X52.1582 Y18.6753 
G01 X52.3312 Y18.6409 
G01 X52.4941 Y18.5734 
G01 X52.6407 Y18.4754 
G01 X52.7654 Y18.3507 
G00 Z2.5400 
G00 X52.7654 Y15.8107 
G01 Z-0.1200 F254.00 
G01 X52.8634 Y15.6641 F508.00 
G01 X52.9309 Y15.5012 
G01 X52.9653 Y15.3282 
G01 X52.9653 Y15.1518 
G01 X52.9309 Y14.9788 
G01 X52.8634 Y14.8159 
G01 X52.7654 Y14.6693 
G01 X52.6407 Y14.5446 
G01 X52.4941 Y14.4466 
G01 X52.3312 Y14.3791 
G01 X52.1582 Y14.3447 
G01 X51.9818 Y14.3447 
G01 X51.8088 Y14.3791 
G01 X51.6459 Y14.4466 
G01 X51.4993 Y14.5446 
G01 X51.3746 Y14.6693 
G01 X51.2766 Y14.8159 
G01 X51.2091 Y14.9788 
G01 X51.1747 Y15.1518 
G01 X51.1747 Y15.3282 
G01 X51.2091 Y15.5012 
G01 X51.2766 Y15.6641 
G01 X51.3746 Y15.8107 
G01 X51.4993 Y15.9354 
G01 X51.6459 Y16.0334 
G01 X51.8088 Y16.1009 
G01 X51.9818 Y16.1353 
G01 X52.1582 Y16.1353 
G01 X52.3312 Y16.1009 
G01 X52.4941 Y16.0334 
G01 X52.6407 Y15.9354 
G01 X52.7654 Y15.8107 
G00 Z2.5400 
G00 X53.8295 Y8.1123 
G01 Z-0.1200 F254.00 
G01 X53.9743 Y8.2175 F508.00 
G01 X54.1337 Y8.2987 
G01 X54.3038 Y8.3540 
G01 X54.4805 Y8.3820 
G01 X54.6595 Y8.3820 
G01 X54.8362 Y8.3540 
G01 X55.0063 Y8.2987 
G01 X55.1657 Y8.2175 
G01 X55.3105 Y8.1123 
G01 X55.4370 Y7.9858 
G01 X55.5421 Y7.8411 
G01 X55.6234 Y7.6817 
G01 X55.6787 Y7.5115 
G01 X55.7066 Y7.3348 
G01 X55.7066 Y5.3652 
G01 X55.6787 Y5.1885 
G01 X55.6234 Y5.0183 
G01 X55.5421 Y4.8589 
G01 X55.4370 Y4.7142 
G01 X55.3105 Y4.5877 
G01 X55.1657 Y4.4825 
G01 X55.0063 Y4.4013 
G01 X54.8362 Y4.3460 
G01 X54.6595 Y4.3180 
G01 X54.4805 Y4.3180 
G01 X54.3038 Y4.3460 
G01 X54.1337 Y4.4013 
G01 X53.9743 Y4.4825 
G01 X53.8295 Y4.5877 
G01 X53.7030 Y4.7142 
G01 X53.5979 Y4.8589 
G01 X53.5166 Y5.0183 
G01 X53.4613 Y5.1885 
G01 X53.4333 Y5.3652 
G01 X53.4333 Y7.3348 
G01 X53.4613 Y7.5115 
G01 X53.5166 Y7.6817 
G01 X53.5979 Y7.8411 
G01 X53.7030 Y7.9858 
G01 X53.8295 Y8.1123 
G00 Z2.5400 
G00 X50.4370 Y7.9858 
G01 Z-0.1200 F254.00 
G01 X50.5421 Y7.8411 F508.00 
G01 X50.6234 Y7.6817 
G01 X50.6787 Y7.5115 
G01 X50.7066 Y7.3348 
G01 X50.7066 Y5.3652 
G01 X50.6787 Y5.1885 
G01 X50.6234 Y5.0183 
G01 X50.5421 Y4.8589 
G01 X50.4370 Y4.7142 
G01 X50.3105 Y4.5877 
G01 X50.1657 Y4.4825 
G01 X50.0063 Y4.4013 
G01 X49.8362 Y4.3460 
G01 X49.6595 Y4.3180 
G01 X49.4805 Y4.3180 
G01 X49.3038 Y4.3460 
G01 X49.1337 Y4.4013 
G01 X48.9743 Y4.4825 
G01 X48.8295 Y4.5877 
G01 X48.7030 Y4.7142 
G01 X48.5979 Y4.8589 
G01 X48.5166 Y5.0183 
G01 X48.4613 Y5.1885 
G01 X48.4333 Y5.3652 
G01 X48.4333 Y7.3348 
G01 X48.4613 Y7.5115 
G01 X48.5166 Y7.6817 
G01 X48.5979 Y7.8411 
G01 X48.7030 Y7.9858 
G01 X48.8295 Y8.1123 
G01 X48.9743 Y8.2175 
G01 X49.1337 Y8.2987 
G01 X49.3038 Y8.3540 
G01 X49.4805 Y8.3820 
G01 X49.6595 Y8.3820 
G01 X49.8362 Y8.3540 
G01 X50.0063 Y8.2987 
G01 X50.1657 Y8.2175 
G01 X50.3105 Y8.1123 
G01 X50.4370 Y7.9858 
G00 Z2.5400 
G00 X45.4370 Y7.9858 
G01 Z-0.1200 F254.00 
G01 X45.5421 Y7.8411 F508.00 
G01 X45.6234 Y7.6817 
G01 X45.6787 Y7.5115 
G01 X45.7066 Y7.3348 
G01 X45.7066 Y5.3652 
G01 X45.6787 Y5.1885 
G01 X45.6234 Y5.0183 
G01 X45.5421 Y4.8589 
G01 X45.4370 Y4.7142 
G01 X45.3105 Y4.5877 
G01 X45.1657 Y4.4825 
G01 X45.0063 Y4.4013 
G01 X44.8362 Y4.3460 
G01 X44.6595 Y4.3180 
G01 X44.4805 Y4.3180 
G01 X44.3038 Y4.3460 
G01 X44.1337 Y4.4013 
G01 X43.9743 Y4.4825 
G01 X43.8295 Y4.5877 
G01 X43.7030 Y4.7142 
G01 X43.5979 Y4.8589 
G01 X43.5166 Y5.0183 
G01 X43.4613 Y5.1885 
G01 X43.4333 Y5.3652 
G01 X43.4333 Y7.3348 
G01 X43.4613 Y7.5115 
G01 X43.5166 Y7.6817 
G01 X43.5979 Y7.8411 
G01 X43.7030 Y7.9858 
G01 X43.8295 Y8.1123 
G01 X43.9743 Y8.2175 
G01 X44.1337 Y8.2987 
G01 X44.3038 Y8.3540 
G01 X44.4805 Y8.3820 
G01 X44.6595 Y8.3820 
G01 X44.8362 Y8.3540 
G01 X45.0063 Y8.2987 
G01 X45.1657 Y8.2175 
G01 X45.3105 Y8.1123 
G01 X45.4370 Y7.9858 
G00 Z2.5400 
G00 X40.1145 Y8.1712 
G01 Z-0.1200 F254.00 
G01 X40.1145 Y7.0688 F508.00 
G01 X40.0778 Y6.9801 
G01 X40.0099 Y6.9122 
G01 X39.9212 Y6.8755 
G01 X38.8188 Y6.8755 
G01 X38.7301 Y6.9122 
G01 X38.6622 Y6.9801 
G01 X38.6255 Y7.0688 
G01 X38.6255 Y8.1712 
G01 X38.6622 Y8.2599 
G01 X38.7301 Y8.3278 
G01 X38.8188 Y8.3645 
G01 X38.9255 Y8.3645 
G01 X38.9255 Y13.2255 
G01 X38.8188 Y13.2255 
G01 X38.7301 Y13.2622 
G01 X38.6622 Y13.3301 
G01 X38.6255 Y13.4188 
G01 X38.6255 Y14.5212 
G01 X38.6622 Y14.6099 
G01 X38.7301 Y14.6778 
G01 X38.8188 Y14.7145 
G01 X39.9212 Y14.7145 
G01 X40.0099 Y14.6778 
G01 X40.0778 Y14.6099 
G01 X40.1145 Y14.5212 
G01 X40.1145 Y13.4188 
G01 X40.0778 Y13.3301 
G01 X40.0099 Y13.2622 
G01 X39.9212 Y13.2255 
G01 X39.8145 Y13.2255 
G01 X39.8145 Y8.3645 
G01 X39.9212 Y8.3645 
G01 X40.0099 Y8.3278 
G01 X40.0778 Y8.2599 
G01 X40.1145 Y8.1712 
G00 Z2.5400 
G00 X40.2665 Y19.4183 
G01 Z-0.1200 F254.00 
G01 X39.7383 Y19.9465 F508.00 
G01 X39.7383 Y20.6935 
G01 X40.2665 Y21.2217 
G01 X41.0135 Y21.2217 
G01 X41.5417 Y20.6935 
G01 X41.5417 Y19.9465 
G01 X41.0135 Y19.4183 
G01 X40.2665 Y19.4183 
G00 Z2.5400 
G00 X38.6748 Y22.7692 
G01 Z-0.1200 F254.00 
G01 X38.5271 Y22.6705 F508.00 
G01 X38.3630 Y22.6026 
G01 X38.1888 Y22.5679 
G01 X38.0112 Y22.5679 
G01 X37.8370 Y22.6026 
G01 X37.6729 Y22.6705 
G01 X37.5252 Y22.7692 
G01 X37.3996 Y22.8948 
G01 X37.3009 Y23.0425 
G01 X37.2330 Y23.2066 
G01 X37.1983 Y23.3808 
G01 X37.1983 Y24.8792 
G01 X37.2330 Y25.0534 
G01 X37.3009 Y25.2175 
G01 X37.3996 Y25.3652 
G01 X37.5252 Y25.4908 
G01 X37.6729 Y25.5895 
G01 X37.8370 Y25.6574 
G01 X38.0112 Y25.6921 
G01 X38.1888 Y25.6921 
G01 X38.3630 Y25.6574 
G01 X38.5271 Y25.5895 
G01 X38.6748 Y25.4908 
G01 X38.8004 Y25.3652 
G01 X38.8991 Y25.2175 
G01 X38.9670 Y25.0534 
G01 X39.0017 Y24.8792 
G01 X39.0017 Y23.3808 
G01 X38.9670 Y23.2066 
G01 X38.8991 Y23.0425 
G01 X38.8004 Y22.8948 
G01 X38.6748 Y22.7692 
G00 Z2.5400 
G00 X36.1348 Y22.7692 
G01 Z-0.1200 F254.00 
G01 X35.9871 Y22.6705 F508.00 
G01 X35.8230 Y22.6026 
G01 X35.6488 Y22.5679 
G01 X35.4712 Y22.5679 
G01 X35.2970 Y22.6026 
G01 X35.1329 Y22.6705 
G01 X34.9852 Y22.7692 
G01 X34.8596 Y22.8948 
G01 X34.7609 Y23.0425 
G01 X34.6930 Y23.2066 
G01 X34.6583 Y23.3808 
G01 X34.6583 Y24.8792 
G01 X34.6930 Y25.0534 
G01 X34.7609 Y25.2175 
G01 X34.8596 Y25.3652 
G01 X34.9852 Y25.4908 
G01 X35.1329 Y25.5895 
G01 X35.2970 Y25.6574 
G01 X35.4712 Y25.6921 
G01 X35.6488 Y25.6921 
G01 X35.8230 Y25.6574 
G01 X35.9871 Y25.5895 
G01 X36.1348 Y25.4908 
G01 X36.2604 Y25.3652 
G01 X36.3591 Y25.2175 
G01 X36.4270 Y25.0534 
G01 X36.4617 Y24.8792 
G01 X36.4617 Y23.3808 
G01 X36.4270 Y23.2066 
G01 X36.3591 Y23.0425 
G01 X36.2604 Y22.8948 
G01 X36.1348 Y22.7692 
G00 Z2.5400 
G00 X33.9217 Y20.6935 
G01 Z-0.1200 F254.00 
G01 X33.9217 Y19.9465 F508.00 
G01 X33.3935 Y19.4183 
G01 X32.6465 Y19.4183 
G01 X32.1183 Y19.9465 
G01 X32.1183 Y20.6935 
G01 X32.6465 Y21.2217 
G01 X33.3935 Y21.2217 
G01 X33.9217 Y20.6935 
G00 Z2.5400 
G00 X33.5907 Y27.8606 
G01 Z-0.1200 F254.00 
G01 X33.4441 Y27.7626 F508.00 
G01 X33.2811 Y27.6951 
G01 X33.1082 Y27.6607 
G01 X32.9318 Y27.6607 
G01 X32.7588 Y27.6951 
G01 X32.5959 Y27.7626 
G01 X32.4493 Y27.8606 
G01 X32.3246 Y27.9853 
G01 X32.2266 Y28.1319 
G01 X32.1591 Y28.2948 
G01 X32.1247 Y28.4678 
G01 X32.1247 Y29.9522 
G01 X32.1591 Y30.1252 
G01 X32.2266 Y30.2881 
G01 X32.3246 Y30.4347 
G01 X32.4493 Y30.5594 
G01 X32.5959 Y30.6574 
G01 X32.7588 Y30.7249 
G01 X32.9318 Y30.7593 
G01 X33.1082 Y30.7593 
G01 X33.2811 Y30.7249 
G01 X33.4441 Y30.6574 
G01 X33.5907 Y30.5594 
G01 X33.7154 Y30.4347 
G01 X33.8134 Y30.2881 
G01 X33.8809 Y30.1252 
G01 X33.9153 Y29.9522 
G01 X33.9153 Y28.4678 
G01 X33.8809 Y28.2948 
G01 X33.8134 Y28.1319 
G01 X33.7154 Y27.9853 
G01 X33.5907 Y27.8606 
G00 Z2.5400 
G00 X34.8646 Y27.9853 
G01 Z-0.1200 F254.00 
G01 X34.7666 Y28.1319 F508.00 
G01 X34.6991 Y28.2948 
G01 X34.6647 Y28.4678 
G01 X34.6647 Y29.9522 
G01 X34.6991 Y30.1252 
G01 X34.7666 Y30.2881 
G01 X34.8646 Y30.4347 
G01 X34.9893 Y30.5594 
G01 X35.1359 Y30.6574 
G01 X35.2988 Y30.7249 
G01 X35.4718 Y30.7593 
G01 X35.6482 Y30.7593 
G01 X35.8212 Y30.7249 
G01 X35.9841 Y30.6574 
G01 X36.1307 Y30.5594 
G01 X36.2554 Y30.4347 
G01 X36.3534 Y30.2881 
G01 X36.4209 Y30.1252 
G01 X36.4553 Y29.9522 
G01 X36.4553 Y28.4678 
G01 X36.4209 Y28.2948 
G01 X36.3534 Y28.1319 
G01 X36.2554 Y27.9853 
G01 X36.1307 Y27.8606 
G01 X35.9841 Y27.7626 
G01 X35.8212 Y27.6951 
G01 X35.6482 Y27.6607 
G01 X35.4718 Y27.6607 
G01 X35.2988 Y27.6951 
G01 X35.1359 Y27.7626 
G01 X34.9893 Y27.8606 
G01 X34.8646 Y27.9853 
G00 Z2.5400 
G00 X37.4046 Y27.9853 
G01 Z-0.1200 F254.00 
G01 X37.3066 Y28.1319 F508.00 
G01 X37.2391 Y28.2948 
G01 X37.2047 Y28.4678 
G01 X37.2047 Y29.9522 
G01 X37.2391 Y30.1252 
G01 X37.3066 Y30.2881 
G01 X37.4046 Y30.4347 
G01 X37.5293 Y30.5594 
G01 X37.6759 Y30.6574 
G01 X37.8388 Y30.7249 
G01 X38.0118 Y30.7593 
G01 X38.1882 Y30.7593 
G01 X38.3612 Y30.7249 
G01 X38.5241 Y30.6574 
G01 X38.6707 Y30.5594 
G01 X38.7954 Y30.4347 
G01 X38.8934 Y30.2881 
G01 X38.9609 Y30.1252 
G01 X38.9953 Y29.9522 
G01 X38.9953 Y28.4678 
G01 X38.9609 Y28.2948 
G01 X38.8934 Y28.1319 
G01 X38.7954 Y27.9853 
G01 X38.6707 Y27.8606 
G01 X38.5241 Y27.7626 
G01 X38.3612 Y27.6951 
G01 X38.1882 Y27.6607 
G01 X38.0118 Y27.6607 
G01 X37.8388 Y27.6951 
G01 X37.6759 Y27.7626 
G01 X37.5293 Y27.8606 
G01 X37.4046 Y27.9853 
G00 Z2.5400 
G00 X31.1754 Y27.9853 
G01 Z-0.1200 F254.00 
G01 X31.0507 Y27.8606 F508.00 
G01 X30.9041 Y27.7626 
G01 X30.7412 Y27.6951 
G01 X30.5682 Y27.6607 
G01 X30.3918 Y27.6607 
G01 X30.2188 Y27.6951 
G01 X30.0559 Y27.7626 
G01 X29.9093 Y27.8606 
G01 X29.7846 Y27.9853 
G01 X29.6866 Y28.1319 
G01 X29.6191 Y28.2948 
G01 X29.5847 Y28.4678 
G01 X29.5847 Y29.9522 
G01 X29.6191 Y30.1252 
G01 X29.6866 Y30.2881 
G01 X29.7846 Y30.4347 
G01 X29.9093 Y30.5594 
G01 X30.0559 Y30.6574 
G01 X30.2188 Y30.7249 
G01 X30.3918 Y30.7593 
G01 X30.5682 Y30.7593 
G01 X30.7412 Y30.7249 
G01 X30.9041 Y30.6574 
G01 X31.0507 Y30.5594 
G01 X31.1754 Y30.4347 
G01 X31.2734 Y30.2881 
G01 X31.3409 Y30.1252 
G01 X31.3753 Y29.9522 
G01 X31.3753 Y28.4678 
G01 X31.3409 Y28.2948 
G01 X31.2734 Y28.1319 
G01 X31.1754 Y27.9853 
G00 Z2.5400 
G00 X28.6354 Y27.9853 
G01 Z-0.1200 F254.00 
G01 X28.5107 Y27.8606 F508.00 
G01 X28.3641 Y27.7626 
G01 X28.2011 Y27.6951 
G01 X28.0282 Y27.6607 
G01 X27.8518 Y27.6607 
G01 X27.6788 Y27.6951 
G01 X27.5159 Y27.7626 
G01 X27.3693 Y27.8606 
G01 X27.2446 Y27.9853 
G01 X27.1466 Y28.1319 
G01 X27.0791 Y28.2948 
G01 X27.0447 Y28.4678 
G01 X27.0447 Y29.9522 
G01 X27.0791 Y30.1252 
G01 X27.1466 Y30.2881 
G01 X27.2446 Y30.4347 
G01 X27.3693 Y30.5594 
G01 X27.5159 Y30.6574 
G01 X27.6788 Y30.7249 
G01 X27.8518 Y30.7593 
G01 X28.0282 Y30.7593 
G01 X28.2011 Y30.7249 
G01 X28.3641 Y30.6574 
G01 X28.5107 Y30.5594 
G01 X28.6354 Y30.4347 
G01 X28.7334 Y30.2881 
G01 X28.8009 Y30.1252 
