(.../pcb-gcode-3.6.2.4/pcb-gcode.ulp)
(Copyright 2005 - 2012 by John Johnson)
(See readme.txt for licensing terms.)
(This file generated from the board:)
(.../eagle/ghf_sensor/ghf_sensor.brd)
(Current profile is .../pcb-gcode-3.6.2.4/profiles/generic.pp  )
(This file generated 2018/03/30 1:53)
(Settings from pcb-machine.h)
(spindle on time = 3.0000)
(spindle speed = 20000.0000)
(tool change at 0.0000 0.0000 25.4000 )
(feed rate xy = F0.00  )
(feed rate z  = F508.00 )
(Z Axis Settings)
(  High     Up        Down     Drill)
(12.7000 	2.5400 	-0.1200 	-0.8128 )
(Settings from pcb-defaults.h)
(isolate min = 0.0254)
(isolate max = 0.5080)
(isolate step = 0.1270)
(Generated bottom outlines, bottom drill, )
(Unit of measure: mm)
( Tool|       Size       |  Min Sub |  Max Sub |   Count )
( T01  0.600mm 0.0236in 0.0000in 0.0000in )
( T02  0.800mm 0.0315in 0.0000in 0.0000in )
( T03  0.813mm 0.0320in 0.0000in 0.0000in )
( T04  1.016mm 0.0400in 0.0000in 0.0000in )
( T05  1.194mm 0.0470in 0.0000in 0.0000in )
(Metric Mode)
G21
(Absolute Coordinates)
G90
S20000
G00 Z12.7000 
G00 X0.0000 Y0.0000 
M03
G04 P3.000000
M05
G00 Z25.4000 
M06 T01  ; 0.6000 
G01 Z0.0000 F508.00 
M06 
G00 Z2.5400 
M03
G04 P3.000000
G00 Z2.540000
G00 X-5.0800 Y27.9400 
G01 Z-0.8128 F508.00 
G01 Z2.540000
(R2.5400  P1.000000)
G00 X-5.0800 Y39.3700 
G01 Z-0.812800
G01 Z2.540000
G00 X-19.0500 Y35.5600 
G01 Z-0.812800
G01 Z2.540000
G00 X-30.4800 Y35.5600 
G01 Z-0.812800
G01 Z2.540000
G00 X-39.3700 Y13.9700 
G01 Z-0.812800
G01 Z2.540000
G00 X-39.3700 Y7.6200 
G01 Z-0.812800
G01 Z2.540000
M05
G00 Z25.4000 
G00 X0.0000 Y0.0000 
M06 T02  ; 0.8000 
G01 Z0.0000 F508.00 
M06 
G00 Z2.5400 
M03
G04 P3.000000
G00 Z2.540000
G00 X-7.6200 Y30.4800 
G01 Z-0.8128 F508.00 
G01 Z2.540000
(R2.5400  P1.000000)
G00 X-7.6200 Y33.0200 
G01 Z-0.812800
G01 Z2.540000
G00 X-7.6200 Y35.5600 
G01 Z-0.812800
G01 Z2.540000
G00 X-7.6200 Y38.1000 
G01 Z-0.812800
G01 Z2.540000
G00 X-7.6200 Y40.6400 
G01 Z-0.812800
G01 Z2.540000
G00 X-7.6200 Y43.1800 
G01 Z-0.812800
G01 Z2.540000
G00 X-10.1600 Y44.4500 
G01 Z-0.812800
G01 Z2.540000
G00 X-12.7000 Y44.4500 
G01 Z-0.812800
G01 Z2.540000
G00 X-15.2400 Y44.4500 
G01 Z-0.812800
G01 Z2.540000
G00 X-17.7800 Y44.4500 
G01 Z-0.812800
G01 Z2.540000
G00 X-20.3200 Y44.4500 
G01 Z-0.812800
G01 Z2.540000
G00 X-22.8600 Y44.4500 
G01 Z-0.812800
G01 Z2.540000
G00 X-25.4000 Y44.4500 
G01 Z-0.812800
G01 Z2.540000
G00 X-27.9400 Y44.4500 
G01 Z-0.812800
G01 Z2.540000
G00 X-30.4800 Y44.4500 
G01 Z-0.812800
G01 Z2.540000
G00 X-33.0200 Y44.4500 
G01 Z-0.812800
G01 Z2.540000
G00 X-35.5600 Y44.4500 
G01 Z-0.812800
G01 Z2.540000
G00 X-38.1000 Y44.4500 
G01 Z-0.812800
G01 Z2.540000
G00 X-31.7500 Y40.6400 
G01 Z-0.812800
G01 Z2.540000
G00 X-29.2100 Y40.6400 
G01 Z-0.812800
G01 Z2.540000
G00 X-21.5900 Y40.6400 
G01 Z-0.812800
G01 Z2.540000
G00 X-19.0500 Y40.6400 
G01 Z-0.812800
G01 Z2.540000
G00 X-17.7800 Y29.2100 
G01 Z-0.812800
G01 Z2.540000
G00 X-20.3200 Y29.2100 
G01 Z-0.812800
G01 Z2.540000
G00 X-22.8600 Y29.2100 
G01 Z-0.812800
G01 Z2.540000
G00 X-25.4000 Y29.2100 
G01 Z-0.812800
G01 Z2.540000
G00 X-27.9400 Y29.2100 
G01 Z-0.812800
G01 Z2.540000
G00 X-30.4800 Y29.2100 
G01 Z-0.812800
G01 Z2.540000
G00 X-33.0200 Y29.2100 
G01 Z-0.812800
G01 Z2.540000
G00 X-35.5600 Y29.2100 
G01 Z-0.812800
G01 Z2.540000
G00 X-38.1000 Y29.2100 
G01 Z-0.812800
G01 Z2.540000
G00 X-52.0700 Y22.8600 
G01 Z-0.812800
G01 Z2.540000
G00 X-52.0700 Y20.3200 
G01 Z-0.812800
G01 Z2.540000
G00 X-52.0700 Y17.7800 
G01 Z-0.812800
G01 Z2.540000
G00 X-52.0700 Y15.2400 
G01 Z-0.812800
G01 Z2.540000
G00 X-22.4790 Y15.2400 
G01 Z-0.812800
G01 Z2.540000
G00 X-22.4790 Y17.7800 
G01 Z-0.812800
G01 Z2.540000
G00 X-22.4790 Y20.3200 
G01 Z-0.812800
G01 Z2.540000
G00 X-22.4790 Y22.8600 
G01 Z-0.812800
G01 Z2.540000
G00 X-22.4790 Y25.4000 
G01 Z-0.812800
G01 Z2.540000
G00 X-15.2400 Y29.2100 
G01 Z-0.812800
G01 Z2.540000
G00 X-12.7000 Y29.2100 
G01 Z-0.812800
G01 Z2.540000
G00 X-10.1600 Y29.2100 
G01 Z-0.812800
G01 Z2.540000
M05
G00 Z25.4000 
G00 X0.0000 Y0.0000 
M06 T03  ; 0.8128 
G01 Z0.0000 F508.00 
M06 
G00 Z2.5400 
M03
G04 P3.000000
G00 Z2.540000
G00 X-1.2700 Y34.2900 
G01 Z-0.8128 F508.00 
G01 Z2.540000
(R2.5400  P1.000000)
G00 X-2.5400 Y36.1950 
G01 Z-0.812800
G01 Z2.540000
G00 X-3.8100 Y34.2900 
G01 Z-0.812800
G01 Z2.540000
G00 X-2.5400 Y31.7500 
G01 Z-0.812800
G01 Z2.540000
G00 X-2.5400 Y26.6700 
G01 Z-0.812800
G01 Z2.540000
G00 X-5.0800 Y25.4000 
G01 Z-0.812800
G01 Z2.540000
G00 X-7.6200 Y25.4000 
G01 Z-0.812800
G01 Z2.540000
G00 X-10.1600 Y25.4000 
G01 Z-0.812800
G01 Z2.540000
G00 X-12.7000 Y25.4000 
G01 Z-0.812800
G01 Z2.540000
G00 X-12.7000 Y17.7800 
G01 Z-0.812800
G01 Z2.540000
G00 X-10.1600 Y17.7800 
G01 Z-0.812800
G01 Z2.540000
G00 X-7.6200 Y17.7800 
G01 Z-0.812800
G01 Z2.540000
G00 X-5.0800 Y17.7800 
G01 Z-0.812800
G01 Z2.540000
G00 X-2.5400 Y39.3700 
G01 Z-0.812800
G01 Z2.540000
G00 X-2.5400 Y44.4500 
G01 Z-0.812800
G01 Z2.540000
G00 X-35.5600 Y24.1300 
G01 Z-0.812800
G01 Z2.540000
G00 X-38.1000 Y24.1300 
G01 Z-0.812800
G01 Z2.540000
G00 X-40.6400 Y20.3200 
G01 Z-0.812800
G01 Z2.540000
G00 X-33.0200 Y20.3200 
G01 Z-0.812800
G01 Z2.540000
G00 X-57.1500 Y36.8300 
G01 Z-0.812800
G01 Z2.540000
G00 X-57.1500 Y41.9100 
G01 Z-0.812800
G01 Z2.540000
M05
G00 Z25.4000 
G00 X0.0000 Y0.0000 
M06 T04  ; 1.0160 
G01 Z0.0000 F508.00 
M06 
G00 Z2.5400 
M03
G04 P3.000000
G00 Z2.540000
G00 X-44.4500 Y35.5600 
G01 Z-0.8128 F508.00 
G01 Z2.540000
(R2.5400  P1.000000)
G00 X-46.9900 Y35.5600 
G01 Z-0.812800
G01 Z2.540000
G00 X-49.5300 Y35.5600 
G01 Z-0.812800
G01 Z2.540000
G00 X-52.0700 Y35.5600 
G01 Z-0.812800
G01 Z2.540000
M05
G00 Z25.4000 
G00 X0.0000 Y0.0000 
M06 T05  ; 1.1938 
G01 Z0.0000 F508.00 
M06 
G00 Z2.5400 
M03
G04 P3.000000
G00 Z2.540000
G00 X-44.5700 Y6.3500 
G01 Z-0.8128 F508.00 
G01 Z2.540000
(R2.5400  P1.000000)
G00 X-49.5700 Y6.3500 
G01 Z-0.812800
G01 Z2.540000
G00 X-54.5700 Y6.3500 
G01 Z-0.812800
G01 Z2.540000
G00 X-59.5700 Y6.3500 
G01 Z-0.812800
G01 Z2.540000
G00 X-66.0400 Y24.2500 
G01 Z-0.812800
G01 Z2.540000
G00 X-66.0400 Y29.2500 
G01 Z-0.812800
G01 Z2.540000
G00 X-66.0400 Y34.2500 
G01 Z-0.812800
G01 Z2.540000
G00 X-66.0400 Y39.2500 
G01 Z-0.812800
G01 Z2.540000
T01 
G00 Z12.7000 
M05
M02
