(.../pcb-gcode-3.6.2.4/pcb-gcode.ulp)
(Copyright 2005 - 2012 by John Johnson)
(See readme.txt for licensing terms.)
(This file generated from the board:)
(.../eagle/ghf_sensor/ghf_sensor.brd)
(Current profile is .../pcb-gcode-3.6.2.4/profiles/generic.pp  )
(This file generated 2018/04/08 12:51)
(Settings from pcb-machine.h)
(spindle on time = 3.0000)
(  Tool Size)
(0.4000 )
(spindle speed = 30000.0000)
(tool change at 0.0000 0.0000 25.4000 )
(feed rate xy = F508.00 )
(feed rate z  = F254.00 )
(Z Axis Settings)
(  High     Up        Down     Drill)
(12.7000 	2.5400 	-0.1200 	-0.8128 )
(Settings from pcb-defaults.h)
(isolate min = 0.1000)
(isolate max = 0.5080)
(isolate step = 0.1270)
(Generated bottom outlines, bottom drill, )
(Unit of measure: mm)
(Metric Mode)
G21
(Absolute Coordinates)
G90
S30000
G00 Z12.7000 
G00 X0.0000 Y0.0000 
M03
G04 P3.000000
G00 Z2.5400 
G00 X-0.8165 Y0.9102 
G01 Z-0.1200 F254.00 
G01 X-0.9102 Y0.8165 F508.00 
G01 X-1.0250 Y0.7503 
G01 X-1.1529 Y0.7160 
G01 X-3.9953 Y0.7160 
G01 X-4.0281 Y0.7248 
G01 X-4.1232 Y0.7503 
G01 X-4.1732 Y0.7791 
G01 X-4.2380 Y0.8165 
G01 X-4.3317 Y0.9102 
G01 X-4.3731 Y0.9820 
G01 X-4.3979 Y1.0250 
G01 X-4.4322 Y1.1529 
G01 X-4.4322 Y1.2854 
G01 X-4.4234 Y1.3183 
G01 X-4.3979 Y1.4134 
G01 X-4.3691 Y1.4634 
G01 X-4.3317 Y1.5282 
G01 X-4.2380 Y1.6219 
G01 X-4.1728 Y1.6595 
G01 X-4.1232 Y1.6881 
G01 X-3.6579 Y1.9567 
G01 X-3.2267 Y2.3879 
G01 X-2.9218 Y2.9161 
G01 X-2.7640 Y3.5051 
G01 X-2.7640 Y4.1149 
G01 X-2.9218 Y4.7039 
G01 X-3.2267 Y5.2321 
G01 X-3.6579 Y5.6633 
G01 X-4.1861 Y5.9682 
G01 X-4.7751 Y6.1260 
G01 X-5.3849 Y6.1260 
G01 X-5.9739 Y5.9682 
G01 X-6.5021 Y5.6633 
G01 X-6.9333 Y5.2321 
G01 X-7.2382 Y4.7039 
G01 X-7.3960 Y4.1149 
G01 X-7.3960 Y3.5051 
G01 X-7.2382 Y2.9161 
G01 X-6.9333 Y2.3879 
G01 X-6.5021 Y1.9567 
G01 X-6.0368 Y1.6881 
G01 X-5.9889 Y1.6605 
G01 X-5.9220 Y1.6219 
G01 X-5.8283 Y1.5282 
G01 X-5.7892 Y1.4605 
G01 X-5.7621 Y1.4134 
G01 X-5.7374 Y1.3212 
G01 X-5.7278 Y1.2854 
G01 X-5.7278 Y1.1529 
G01 X-5.7621 Y1.0250 
G01 X-5.7858 Y0.9839 
G01 X-5.8283 Y0.9102 
G01 X-5.9220 Y0.8165 
G01 X-5.9897 Y0.7774 
G01 X-6.0368 Y0.7503 
G01 X-6.1290 Y0.7256 
G01 X-6.1647 Y0.7160 
G01 X-70.0353 Y0.7160 
G01 X-70.0681 Y0.7248 
G01 X-70.1632 Y0.7503 
G01 X-70.2132 Y0.7791 
G01 X-70.2780 Y0.8165 
G01 X-70.3717 Y0.9102 
G01 X-70.4131 Y0.9820 
G01 X-70.4379 Y1.0250 
G01 X-70.4722 Y1.1529 
G01 X-70.4722 Y1.2854 
G01 X-70.4634 Y1.3183 
G01 X-70.4379 Y1.4134 
G01 X-70.4091 Y1.4634 
G01 X-70.3717 Y1.5282 
G01 X-70.2780 Y1.6219 
G01 X-70.2128 Y1.6595 
G01 X-70.1632 Y1.6881 
G01 X-69.6979 Y1.9567 
G01 X-69.2667 Y2.3879 
G01 X-68.9618 Y2.9161 
G01 X-68.8040 Y3.5051 
G01 X-68.8040 Y4.1149 
G01 X-68.9618 Y4.7039 
G01 X-69.2667 Y5.2321 
G01 X-69.6979 Y5.6633 
G01 X-70.2261 Y5.9682 
G01 X-70.8151 Y6.1260 
G01 X-71.4249 Y6.1260 
G01 X-72.0139 Y5.9682 
G01 X-72.5421 Y5.6633 
G01 X-72.9733 Y5.2321 
G01 X-73.2782 Y4.7039 
G01 X-73.4360 Y4.1149 
G01 X-73.4360 Y3.5051 
G01 X-73.2782 Y2.9161 
G01 X-72.9733 Y2.3879 
G01 X-72.5421 Y1.9567 
G01 X-72.0768 Y1.6881 
G01 X-72.0289 Y1.6605 
G01 X-71.9620 Y1.6219 
G01 X-71.8683 Y1.5282 
G01 X-71.8292 Y1.4605 
G01 X-71.8021 Y1.4134 
G01 X-71.7774 Y1.3212 
G01 X-71.7678 Y1.2854 
G01 X-71.7678 Y1.1529 
G01 X-71.8021 Y1.0250 
G01 X-71.8258 Y0.9839 
G01 X-71.8683 Y0.9102 
G01 X-71.9620 Y0.8165 
G01 X-72.0297 Y0.7774 
G01 X-72.0768 Y0.7503 
G01 X-72.1690 Y0.7256 
G01 X-72.2047 Y0.7160 
G01 X-75.9870 Y0.7160 
G01 X-76.1150 Y0.7503 
G01 X-76.2298 Y0.8165 
G01 X-76.3235 Y0.9102 
G01 X-76.3897 Y1.0250 
G01 X-76.4240 Y1.1529 
G01 X-76.4240 Y9.8198 
G01 X-76.3897 Y9.9478 
G01 X-76.3235 Y10.0626 
G01 X-76.2298 Y10.1563 
G01 X-76.1150 Y10.2225 
G01 X-75.9870 Y10.2568 
G01 X-74.0362 Y10.2568 
G01 X-73.6050 Y10.4354 
G01 X-73.2750 Y10.7654 
G01 X-73.0964 Y11.1966 
G01 X-73.0964 Y11.6634 
G01 X-73.2750 Y12.0946 
G01 X-73.6050 Y12.4246 
G01 X-73.8714 Y12.5349 
G01 X-73.9156 Y12.5493 
G01 X-73.9324 Y12.5602 
G01 X-73.9509 Y12.5678 
G01 X-73.9878 Y12.5962 
G01 X-74.0268 Y12.6215 
G01 X-74.0401 Y12.6363 
G01 X-74.0560 Y12.6485 
G01 X-74.0843 Y12.6854 
G01 X-74.1154 Y12.7199 
G01 X-74.1245 Y12.7378 
G01 X-74.1367 Y12.7536 
G01 X-74.1544 Y12.7966 
G01 X-74.1756 Y12.8380 
G01 X-74.1797 Y12.8576 
G01 X-74.1874 Y12.8760 
G01 X-74.1934 Y12.9221 
G01 X-74.2031 Y12.9676 
G01 X-74.2020 Y12.9876 
G01 X-74.2047 Y13.0074 
G01 X-75.6850 Y13.0096 
G01 X-75.8705 Y13.0465 
G01 X-76.0453 Y13.1189 
G01 X-76.2026 Y13.2240 
G01 X-76.3364 Y13.3578 
G01 X-76.4415 Y13.5151 
G01 X-76.5139 Y13.6899 
G01 X-76.5508 Y13.8754 
G01 X-76.5508 Y14.0646 
G01 X-76.5139 Y14.2501 
G01 X-76.4415 Y14.4249 
G01 X-76.3364 Y14.5822 
G01 X-76.2566 Y14.6620 
G01 X-76.2673 Y14.6726 
G01 X-76.3067 Y14.7081 
G01 X-76.3140 Y14.7193 
G01 X-76.3235 Y14.7288 
G01 X-76.3500 Y14.7748 
G01 X-76.3789 Y14.8192 
G01 X-76.3830 Y14.8319 
G01 X-76.3897 Y14.8435 
G01 X-76.4035 Y14.8949 
G01 X-76.4198 Y14.9453 
G01 X-76.4205 Y14.9586 
G01 X-76.4240 Y14.9715 
G01 X-76.4240 Y15.0246 
G01 X-76.4268 Y15.0776 
G01 X-76.4240 Y15.0906 
G01 X-76.4240 Y15.3894 
G01 X-76.4268 Y15.4024 
G01 X-76.4240 Y15.4554 
G01 X-76.4240 Y15.5085 
G01 X-76.4205 Y15.5214 
G01 X-76.4198 Y15.5347 
G01 X-76.4035 Y15.5852 
G01 X-76.3897 Y15.6365 
G01 X-76.3830 Y15.6480 
G01 X-76.3789 Y15.6607 
G01 X-76.3500 Y15.7052 
G01 X-76.3235 Y15.7512 
G01 X-76.3140 Y15.7607 
G01 X-76.3067 Y15.7719 
G01 X-76.2673 Y15.8074 
G01 X-76.2566 Y15.8180 
G01 X-76.3364 Y15.8978 
G01 X-76.4415 Y16.0551 
G01 X-76.5139 Y16.2299 
G01 X-76.5508 Y16.4154 
G01 X-76.5508 Y16.6046 
G01 X-76.5139 Y16.7901 
G01 X-76.4415 Y16.9649 
G01 X-76.3364 Y17.1222 
G01 X-76.2566 Y17.2020 
G01 X-76.2673 Y17.2126 
G01 X-76.3067 Y17.2481 
G01 X-76.3140 Y17.2593 
G01 X-76.3235 Y17.2688 
G01 X-76.3500 Y17.3147 
G01 X-76.3789 Y17.3592 
G01 X-76.3830 Y17.3719 
G01 X-76.3897 Y17.3835 
G01 X-76.4035 Y17.4348 
G01 X-76.4198 Y17.4853 
G01 X-76.4205 Y17.4986 
G01 X-76.4240 Y17.5115 
G01 X-76.4240 Y17.5646 
G01 X-76.4268 Y17.6176 
G01 X-76.4240 Y17.6306 
G01 X-76.4240 Y17.9294 
G01 X-76.4268 Y17.9424 
G01 X-76.4240 Y17.9954 
G01 X-76.4240 Y18.0485 
G01 X-76.4205 Y18.0614 
G01 X-76.4198 Y18.0747 
G01 X-76.4035 Y18.1252 
G01 X-76.3897 Y18.1765 
G01 X-76.3830 Y18.1881 
G01 X-76.3789 Y18.2007 
G01 X-76.3500 Y18.2452 
G01 X-76.3235 Y18.2912 
G01 X-76.3140 Y18.3007 
G01 X-76.3067 Y18.3119 
G01 X-76.2673 Y18.3474 
G01 X-76.2566 Y18.3580 
G01 X-76.3364 Y18.4378 
G01 X-76.4415 Y18.5951 
G01 X-76.5139 Y18.7699 
G01 X-76.5508 Y18.9554 
G01 X-76.5508 Y19.1446 
G01 X-76.5139 Y19.3301 
G01 X-76.4415 Y19.5049 
G01 X-76.3364 Y19.6622 
G01 X-76.2566 Y19.7420 
G01 X-76.2673 Y19.7526 
G01 X-76.3067 Y19.7881 
G01 X-76.3140 Y19.7993 
G01 X-76.3235 Y19.8088 
G01 X-76.3500 Y19.8547 
G01 X-76.3789 Y19.8992 
G01 X-76.3830 Y19.9119 
G01 X-76.3897 Y19.9235 
G01 X-76.4035 Y19.9748 
G01 X-76.4198 Y20.0253 
G01 X-76.4205 Y20.0386 
G01 X-76.4240 Y20.0515 
G01 X-76.4240 Y20.1046 
G01 X-76.4268 Y20.1576 
G01 X-76.4240 Y20.1706 
G01 X-76.4240 Y48.3670 
G01 X-76.3897 Y48.4950 
G01 X-76.3235 Y48.6098 
G01 X-76.2298 Y48.7035 
G01 X-76.1150 Y48.7697 
G01 X-75.9870 Y48.8040 
G01 X-72.2221 Y48.8040 
G01 X-72.1962 Y48.7971 
G01 X-72.0941 Y48.7697 
G01 X-72.0204 Y48.7272 
G01 X-71.9793 Y48.7035 
G01 X-71.8856 Y48.6098 
G01 X-71.8442 Y48.5380 
G01 X-71.8194 Y48.4950 
G01 X-71.7851 Y48.3670 
G01 X-71.7851 Y48.2345 
G01 X-71.7920 Y48.2087 
G01 X-71.8194 Y48.1066 
G01 X-71.8619 Y48.0329 
G01 X-71.8856 Y47.9918 
G01 X-71.9793 Y47.8981 
G01 X-72.0459 Y47.8597 
G01 X-72.0941 Y47.8319 
G01 X-72.5421 Y47.5733 
G01 X-72.9733 Y47.1421 
G01 X-73.2782 Y46.6139 
G01 X-73.4360 Y46.0249 
G01 X-73.4360 Y45.4151 
G01 X-73.2782 Y44.8261 
G01 X-72.9733 Y44.2979 
G01 X-72.5421 Y43.8667 
G01 X-72.0139 Y43.5618 
G01 X-71.4249 Y43.4040 
G01 X-70.8151 Y43.4040 
G01 X-70.2261 Y43.5618 
G01 X-69.6979 Y43.8667 
G01 X-69.2667 Y44.2979 
G01 X-68.9618 Y44.8261 
G01 X-68.8040 Y45.4151 
G01 X-68.8040 Y46.0249 
G01 X-68.9618 Y46.6139 
G01 X-69.2667 Y47.1421 
G01 X-69.6979 Y47.5733 
G01 X-70.1459 Y47.8319 
G01 X-70.1924 Y47.8587 
G01 X-70.2607 Y47.8981 
G01 X-70.3543 Y47.9918 
G01 X-70.3791 Y48.0348 
G01 X-70.4206 Y48.1066 
G01 X-70.4473 Y48.2064 
G01 X-70.4549 Y48.2345 
G01 X-70.4549 Y48.3670 
G01 X-70.4206 Y48.4950 
G01 X-70.3969 Y48.5361 
G01 X-70.3543 Y48.6098 
G01 X-70.2607 Y48.7035 
G01 X-70.2177 Y48.7282 
G01 X-70.1459 Y48.7697 
G01 X-70.0461 Y48.7964 
G01 X-70.0179 Y48.8040 
G01 X-51.4345 Y48.8040 
G01 X-51.3065 Y48.7697 
G01 X-51.1918 Y48.7035 
G01 X-51.0981 Y48.6098 
G01 X-51.0566 Y48.5380 
G01 X-51.0319 Y48.4950 
G01 X-50.9976 Y48.3670 
G01 X-50.9976 Y48.2345 
G01 X-51.0319 Y48.1066 
G01 X-51.0981 Y47.9918 
G01 X-54.1193 Y44.9707 
G01 X-54.2592 Y44.6328 
G01 X-54.2592 Y44.5361 
G01 X-54.2935 Y44.4082 
G01 X-54.3597 Y44.2934 
G01 X-54.4534 Y44.1997 
G01 X-54.5682 Y44.1335 
G01 X-54.6961 Y44.0992 
G01 X-60.0779 Y44.0992 
G01 X-60.2058 Y44.1335 
G01 X-60.3206 Y44.1997 
G01 X-60.4143 Y44.2934 
G01 X-60.4740 Y44.3532 
G01 X-61.4460 Y44.3532 
G01 X-62.1332 Y43.6660 
G01 X-62.1332 Y42.6940 
G01 X-61.4460 Y42.0068 
G01 X-60.4740 Y42.0068 
G01 X-60.3206 Y42.1603 
G01 X-60.2058 Y42.2265 
G01 X-60.0779 Y42.2608 
G01 X-53.1572 Y42.2608 
G01 X-52.8193 Y42.4007 
G01 X-52.5607 Y42.6593 
G01 X-52.4208 Y42.9972 
G01 X-52.4208 Y43.9271 
G01 X-52.3865 Y44.0551 
G01 X-52.3203 Y44.1698 
G01 X-52.2266 Y44.2635 
G01 X-49.2498 Y47.2403 
G01 X-49.1350 Y47.3065 
G01 X-49.0071 Y47.3408 
G01 X-46.0985 Y47.3408 
G01 X-46.0655 Y47.3451 
G01 X-46.0326 Y47.3408 
G01 X-45.9993 Y47.3408 
G01 X-45.9672 Y47.3322 
G01 X-45.9342 Y47.3278 
G01 X-45.9035 Y47.3151 
G01 X-45.8713 Y47.3065 
G01 X-45.8425 Y47.2899 
G01 X-45.8118 Y47.2771 
G01 X-45.7854 Y47.2569 
G01 X-45.7566 Y47.2403 
G01 X-45.7331 Y47.2167 
G01 X-45.7067 Y47.1965 
G01 X-45.6864 Y47.1701 
G01 X-45.6629 Y47.1466 
G01 X-45.6463 Y47.1178 
G01 X-45.6260 Y47.0914 
G01 X-45.6133 Y47.0606 
G01 X-45.5966 Y47.0318 
G01 X-45.5880 Y46.9997 
G01 X-45.5753 Y46.9689 
G01 X-45.5710 Y46.9360 
G01 X-45.5624 Y46.9038 
G01 X-45.5624 Y46.8706 
G01 X-45.5580 Y46.8376 
G01 X-45.5624 Y46.8046 
G01 X-45.5624 Y46.7713 
G01 X-45.5710 Y46.7392 
G01 X-45.5753 Y46.7062 
G01 X-45.5880 Y46.6755 
G01 X-45.5966 Y46.6434 
G01 X-45.6133 Y46.6145 
G01 X-45.6168 Y46.6061 
G01 X-45.6168 Y44.8339 
G01 X-45.4392 Y44.4051 
G01 X-45.1109 Y44.0768 
G01 X-44.6821 Y43.8992 
G01 X-44.2179 Y43.8992 
G01 X-43.7891 Y44.0768 
G01 X-43.5827 Y44.2832 
G01 X-43.4890 Y44.3769 
G01 X-43.4171 Y44.4184 
G01 X-43.3742 Y44.4432 
G01 X-43.2462 Y44.4775 
G01 X-43.1137 Y44.4775 
G01 X-43.0879 Y44.4705 
G01 X-42.9858 Y44.4432 
G01 X-42.9121 Y44.4006 
G01 X-42.8710 Y44.3769 
G01 X-42.5709 Y44.0768 
G01 X-42.1421 Y43.8992 
G01 X-41.6779 Y43.8992 
G01 X-41.2491 Y44.0768 
G01 X-41.0427 Y44.2832 
G01 X-40.9490 Y44.3769 
G01 X-40.8771 Y44.4184 
G01 X-40.8342 Y44.4432 
G01 X-40.7062 Y44.4775 
G01 X-40.5737 Y44.4775 
G01 X-40.5479 Y44.4705 
G01 X-40.4458 Y44.4432 
G01 X-40.3721 Y44.4006 
G01 X-40.3310 Y44.3769 
G01 X-40.0309 Y44.0768 
G01 X-39.6021 Y43.8992 
G01 X-39.5959 Y43.8992 
G01 X-39.5630 Y43.9035 
G01 X-39.5300 Y43.8992 
G01 X-39.4967 Y43.8992 
G01 X-39.4646 Y43.8906 
G01 X-39.4316 Y43.8862 
G01 X-39.4009 Y43.8735 
G01 X-39.3687 Y43.8649 
G01 X-39.3399 Y43.8483 
G01 X-39.3092 Y43.8355 
G01 X-39.2828 Y43.8153 
G01 X-39.2540 Y43.7987 
G01 X-39.2305 Y43.7751 
G01 X-39.2041 Y43.7549 
G01 X-39.1838 Y43.7285 
G01 X-39.1603 Y43.7050 
G01 X-39.1437 Y43.6762 
G01 X-39.1234 Y43.6498 
G01 X-39.1107 Y43.6191 
G01 X-39.0941 Y43.5902 
G01 X-39.0854 Y43.5581 
G01 X-39.0727 Y43.5274 
G01 X-39.0684 Y43.4944 
G01 X-39.0598 Y43.4622 
G01 X-39.0598 Y43.4290 
G01 X-39.0554 Y43.3960 
G01 X-39.0598 Y43.3630 
G01 X-39.0598 Y43.3297 
G01 X-39.0684 Y43.2976 
G01 X-39.0727 Y43.2646 
G01 X-39.0854 Y43.2339 
G01 X-39.0941 Y43.2018 
G01 X-39.1107 Y43.1730 
G01 X-39.2668 Y42.7961 
G01 X-39.2668 Y41.0239 
G01 X-39.2633 Y41.0154 
G01 X-39.2467 Y40.9866 
G01 X-39.2380 Y40.9545 
G01 X-39.2253 Y40.9238 
G01 X-39.2210 Y40.8908 
G01 X-39.2124 Y40.8586 
G01 X-39.2124 Y40.8254 
G01 X-39.2080 Y40.7924 
G01 X-39.2124 Y40.7594 
G01 X-39.2124 Y40.7261 
G01 X-39.2210 Y40.6940 
G01 X-39.2253 Y40.6610 
G01 X-39.2380 Y40.6303 
G01 X-39.2467 Y40.5982 
G01 X-39.2633 Y40.5694 
G01 X-39.2760 Y40.5386 
G01 X-39.2963 Y40.5122 
G01 X-39.3129 Y40.4834 
G01 X-39.3364 Y40.4599 
G01 X-39.3567 Y40.4335 
G01 X-39.3831 Y40.4133 
G01 X-39.4066 Y40.3897 
G01 X-39.4354 Y40.3731 
G01 X-39.4618 Y40.3529 
G01 X-39.4925 Y40.3401 
G01 X-39.5213 Y40.3235 
G01 X-39.5535 Y40.3149 
G01 X-39.5842 Y40.3022 
G01 X-39.6172 Y40.2978 
G01 X-39.6493 Y40.2892 
G01 X-39.6826 Y40.2892 
G01 X-39.7155 Y40.2849 
G01 X-39.7485 Y40.2892 
G01 X-54.7928 Y40.2892 
G01 X-55.1307 Y40.1493 
G01 X-55.3893 Y39.8907 
G01 X-55.5292 Y39.5528 
G01 X-55.5292 Y38.9226 
G01 X-55.5472 Y38.8555 
G01 X-55.5635 Y38.7946 
G01 X-55.6297 Y38.6799 
G01 X-55.7234 Y38.5862 
G01 X-55.7747 Y38.5566 
G01 X-55.8382 Y38.5200 
G01 X-55.9661 Y38.4857 
G01 X-56.0986 Y38.4857 
G01 X-56.1658 Y38.5037 
G01 X-56.2266 Y38.5200 
G01 X-56.3414 Y38.5862 
G01 X-56.4279 Y38.6727 
G01 X-56.8964 Y38.8668 
G01 X-57.4036 Y38.8668 
G01 X-57.8721 Y38.6727 
G01 X-58.2307 Y38.3141 
G01 X-58.4248 Y37.8456 
G01 X-58.4248 Y35.8144 
G01 X-58.2307 Y35.3459 
G01 X-57.8721 Y34.9873 
G01 X-57.8342 Y34.9762 
G01 X-57.8094 Y34.9613 
G01 X-57.7826 Y34.9502 
G01 X-57.7528 Y34.9273 
G01 X-57.7206 Y34.9080 
G01 X-57.7005 Y34.8872 
G01 X-57.6775 Y34.8695 
G01 X-57.6546 Y34.8398 
G01 X-57.6285 Y34.8128 
G01 X-57.6145 Y34.7874 
G01 X-57.5968 Y34.7644 
G01 X-57.5824 Y34.7298 
G01 X-57.5642 Y34.6970 
G01 X-57.5572 Y34.6688 
G01 X-57.5461 Y34.6420 
G01 X-57.5412 Y34.6048 
G01 X-56.8152 Y31.7010 
G01 X-56.7992 Y31.6411 
G01 X-56.7992 Y31.6368 
G01 X-56.7982 Y31.6327 
G01 X-56.7992 Y31.5706 
G01 X-56.7992 Y29.2961 
G01 X-56.8335 Y29.1682 
G01 X-56.8997 Y29.0534 
G01 X-56.9934 Y28.9597 
G01 X-57.1082 Y28.8935 
G01 X-57.2361 Y28.8592 
G01 X-67.4928 Y28.8592 
G01 X-67.8307 Y28.7193 
G01 X-69.8639 Y26.6860 
G01 X-69.9576 Y26.5923 
G01 X-70.0204 Y26.5561 
G01 X-70.0724 Y26.5261 
G01 X-70.2003 Y26.4918 
G01 X-70.3328 Y26.4918 
G01 X-70.3858 Y26.5060 
G01 X-70.4608 Y26.5261 
G01 X-70.5473 Y26.5760 
G01 X-70.5756 Y26.5923 
G01 X-70.6970 Y26.7138 
G01 X-71.2145 Y26.9281 
G01 X-73.5654 Y26.9281 
G01 X-74.0830 Y26.7138 
G01 X-74.4791 Y26.3177 
G01 X-74.6935 Y25.8001 
G01 X-74.6935 Y25.2399 
G01 X-74.4791 Y24.7223 
G01 X-74.0830 Y24.3262 
G01 X-73.5654 Y24.1118 
G01 X-71.2145 Y24.1118 
G01 X-70.6970 Y24.3262 
G01 X-70.6430 Y24.3803 
G01 X-70.5282 Y24.4465 
G01 X-70.4002 Y24.4808 
G01 X-69.6672 Y24.4808 
G01 X-69.3293 Y24.6207 
G01 X-67.0298 Y26.9203 
G01 X-66.9150 Y26.9865 
G01 X-66.7871 Y27.0208 
G01 X-64.6869 Y27.0208 
G01 X-64.6610 Y27.0139 
G01 X-64.5589 Y26.9865 
G01 X-64.4853 Y26.9440 
G01 X-64.4442 Y26.9203 
G01 X-64.3505 Y26.8266 
G01 X-64.3091 Y26.7548 
G01 X-64.2843 Y26.7118 
G01 X-64.2500 Y26.5838 
G01 X-64.2500 Y26.4513 
G01 X-64.2569 Y26.4255 
G01 X-64.2843 Y26.3234 
G01 X-64.3268 Y26.2497 
G01 X-64.3505 Y26.2086 
G01 X-64.6732 Y25.8860 
G01 X-64.6732 Y24.9140 
G01 X-63.9860 Y24.2268 
G01 X-63.0140 Y24.2268 
G01 X-62.6914 Y24.5495 
G01 X-62.6484 Y24.5743 
G01 X-62.5766 Y24.6157 
G01 X-62.4768 Y24.6425 
G01 X-62.4486 Y24.6500 
G01 X-62.3161 Y24.6500 
G01 X-62.1882 Y24.6157 
G01 X-62.1471 Y24.5920 
G01 X-62.0734 Y24.5495 
G01 X-61.9797 Y24.4558 
G01 X-61.9550 Y24.4129 
G01 X-61.9135 Y24.3410 
G01 X-61.8868 Y24.2413 
G01 X-61.8792 Y24.2131 
G01 X-61.8792 Y22.7769 
G01 X-61.8972 Y22.7096 
G01 X-61.9135 Y22.6489 
G01 X-61.9368 Y22.6086 
G01 X-61.9797 Y22.5342 
G01 X-62.0734 Y22.4405 
G01 X-62.1786 Y22.3798 
G01 X-62.1882 Y22.3743 
G01 X-62.3162 Y22.3400 
G01 X-62.4486 Y22.3400 
G01 X-62.5160 Y22.3580 
G01 X-62.5766 Y22.3743 
G01 X-62.6170 Y22.3976 
G01 X-62.6914 Y22.4405 
G01 X-63.0140 Y22.7632 
G01 X-63.9860 Y22.7632 
G01 X-64.6732 Y22.0760 
G01 X-64.6732 Y21.1040 
G01 X-63.9860 Y20.4168 
G01 X-63.0140 Y20.4168 
G01 X-62.5390 Y20.8919 
G01 X-62.4242 Y20.9581 
G01 X-62.3017 Y20.9910 
G01 X-62.2963 Y20.9924 
G01 X-62.1638 Y20.9924 
G01 X-62.0358 Y20.9581 
G01 X-61.9210 Y20.8919 
G01 X-61.8273 Y20.7982 
G01 X-61.6785 Y20.6493 
G01 X-61.6402 Y20.6154 
G01 X-61.6318 Y20.6026 
G01 X-61.6210 Y20.5918 
G01 X-61.5954 Y20.5475 
G01 X-61.5672 Y20.5048 
G01 X-61.5624 Y20.4903 
G01 X-61.5547 Y20.4771 
G01 X-61.5415 Y20.4276 
G01 X-61.2869 Y19.6639 
G01 X-61.2792 Y19.6506 
G01 X-61.2660 Y19.6012 
G01 X-61.2498 Y19.5527 
G01 X-61.2489 Y19.5374 
G01 X-61.2449 Y19.5226 
G01 X-61.2449 Y19.4715 
G01 X-61.2419 Y19.4204 
G01 X-61.2449 Y19.4054 
G01 X-61.2449 Y19.3901 
G01 X-61.2582 Y19.3407 
G01 X-61.2684 Y19.2906 
G01 X-61.2753 Y19.2769 
G01 X-61.2792 Y19.2622 
G01 X-61.3048 Y19.2179 
G01 X-61.3277 Y19.1721 
G01 X-61.3378 Y19.1607 
G01 X-61.3455 Y19.1474 
G01 X-61.3816 Y19.1113 
G01 X-61.4156 Y19.0730 
G01 X-61.4284 Y19.0645 
G01 X-61.4392 Y19.0537 
G01 X-61.4835 Y19.0282 
G01 X-61.5262 Y19.0000 
G01 X-61.5407 Y18.9951 
G01 X-61.5539 Y18.9875 
G01 X-61.6033 Y18.9742 
G01 X-61.6519 Y18.9581 
G01 X-61.6671 Y18.9572 
G01 X-61.6819 Y18.9532 
G01 X-61.7330 Y18.9532 
G01 X-61.7841 Y18.9501 
G01 X-61.7991 Y18.9532 
G01 X-62.7160 Y18.9532 
G01 X-63.4032 Y18.2660 
G01 X-63.4032 Y17.2940 
G01 X-62.7160 Y16.6068 
G01 X-61.7440 Y16.6068 
G01 X-61.2690 Y17.0819 
G01 X-61.2260 Y17.1067 
G01 X-61.1542 Y17.1481 
G01 X-61.0544 Y17.1749 
G01 X-61.0262 Y17.1824 
G01 X-60.8937 Y17.1824 
G01 X-60.8883 Y17.1810 
G01 X-60.7658 Y17.1481 
G01 X-60.7247 Y17.1244 
G01 X-60.6510 Y17.0819 
G01 X-60.5573 Y16.9882 
G01 X-60.1760 Y16.6068 
G01 X-59.2040 Y16.6068 
G01 X-58.5168 Y17.2940 
G01 X-58.5168 Y18.2660 
G01 X-58.9715 Y18.7207 
G01 X-59.0098 Y18.7546 
G01 X-59.0182 Y18.7674 
G01 X-59.0290 Y18.7782 
G01 X-59.0546 Y18.8225 
G01 X-59.0828 Y18.8652 
G01 X-59.0876 Y18.8797 
G01 X-59.0953 Y18.8929 
G01 X-59.1085 Y18.9423 
G01 X-59.7449 Y20.8514 
G01 X-59.7525 Y20.8646 
G01 X-59.7657 Y20.9140 
G01 X-59.7819 Y20.9625 
G01 X-59.7828 Y20.9778 
G01 X-59.7868 Y20.9926 
G01 X-59.7868 Y21.0437 
G01 X-59.7899 Y21.0948 
G01 X-59.7868 Y21.1098 
G01 X-59.7868 Y22.0759 
G01 X-59.9403 Y22.2294 
G01 X-59.9650 Y22.2723 
G01 X-60.0065 Y22.3441 
G01 X-60.0332 Y22.4439 
G01 X-60.0408 Y22.4721 
G01 X-60.0408 Y24.5179 
G01 X-60.0339 Y24.5438 
G01 X-60.0065 Y24.6458 
G01 X-59.9640 Y24.7195 
G01 X-59.9403 Y24.7606 
G01 X-59.7868 Y24.9140 
G01 X-59.7868 Y25.8860 
G01 X-59.9403 Y26.0394 
G01 X-59.9650 Y26.0823 
G01 X-60.0065 Y26.1542 
G01 X-60.0332 Y26.2539 
G01 X-60.0408 Y26.2821 
G01 X-60.0408 Y26.5838 
G01 X-60.0065 Y26.7118 
G01 X-59.9403 Y26.8266 
G01 X-59.8466 Y26.9203 
G01 X-59.7318 Y26.9865 
G01 X-59.6038 Y27.0208 
G01 X-56.8520 Y27.0208 
G01 X-56.8190 Y27.0251 
G01 X-56.7860 Y27.0208 
G01 X-56.7527 Y27.0208 
G01 X-56.7206 Y27.0122 
G01 X-56.6876 Y27.0078 
G01 X-56.6569 Y26.9951 
G01 X-56.6248 Y26.9865 
G01 X-56.5959 Y26.9699 
G01 X-56.4852 Y26.9240 
G01 X-55.2748 Y26.9240 
G01 X-55.0863 Y27.0021 
G01 X-54.9421 Y27.1463 
G01 X-54.8640 Y27.3348 
G01 X-54.8640 Y28.5452 
G01 X-54.9099 Y28.6559 
G01 X-54.9265 Y28.6848 
G01 X-54.9351 Y28.7169 
G01 X-54.9478 Y28.7476 
G01 X-54.9522 Y28.7806 
G01 X-54.9608 Y28.8127 
G01 X-54.9608 Y28.8460 
G01 X-54.9651 Y28.8790 
G01 X-54.9608 Y28.9120 
G01 X-54.9608 Y31.6160 
G01 X-54.9651 Y31.6533 
G01 X-54.9608 Y31.6820 
G01 X-54.9608 Y31.7110 
G01 X-54.9511 Y31.7472 
G01 X-54.9439 Y31.7955 
G01 X-54.9447 Y31.7990 
G01 X-54.9608 Y31.8589 
G01 X-54.9608 Y31.8632 
G01 X-54.9618 Y31.8673 
G01 X-54.9608 Y31.9294 
G01 X-54.9608 Y31.9328 
G01 X-54.9795 Y31.9780 
G01 X-54.9977 Y32.0108 
G01 X-55.0047 Y32.0389 
G01 X-55.0158 Y32.0657 
G01 X-55.0207 Y32.1029 
G01 X-55.5378 Y34.1712 
G01 X-55.5489 Y34.1980 
G01 X-55.5538 Y34.2352 
G01 X-55.5629 Y34.2716 
G01 X-55.5624 Y34.3006 
G01 X-55.5662 Y34.3294 
G01 X-55.5613 Y34.3665 
G01 X-55.5607 Y34.4040 
G01 X-55.5527 Y34.4320 
G01 X-55.5489 Y34.4607 
G01 X-55.5346 Y34.4954 
G01 X-55.5242 Y34.5314 
G01 X-55.5093 Y34.5563 
G01 X-55.4982 Y34.5831 
G01 X-55.4754 Y34.6129 
G01 X-55.4561 Y34.6450 
G01 X-55.4352 Y34.6652 
G01 X-55.4175 Y34.6882 
G01 X-55.3878 Y34.7111 
G01 X-55.3608 Y34.7371 
G01 X-55.3355 Y34.7512 
G01 X-55.3124 Y34.7689 
G01 X-55.2778 Y34.7832 
G01 X-55.2450 Y34.8015 
G01 X-55.2168 Y34.8085 
G01 X-55.1900 Y34.8196 
G01 X-55.1528 Y34.8245 
G01 X-55.1164 Y34.8336 
G01 X-55.0874 Y34.8331 
G01 X-55.0587 Y34.8369 
G01 X-55.0215 Y34.8320 
G01 X-54.9840 Y34.8314 
G01 X-54.9561 Y34.8234 
G01 X-54.9273 Y34.8196 
G01 X-54.8926 Y34.8052 
G01 X-54.8566 Y34.7949 
G01 X-54.8537 Y34.7932 
G01 X-54.3564 Y34.7932 
G01 X-53.8879 Y34.9873 
G01 X-53.5293 Y35.3459 
G01 X-53.4969 Y35.4241 
G01 X-53.4958 Y35.4307 
G01 X-53.4716 Y35.4851 
G01 X-53.4488 Y35.5403 
G01 X-53.4447 Y35.5456 
G01 X-53.4419 Y35.5517 
G01 X-53.4044 Y35.5981 
G01 X-53.3681 Y35.6454 
G01 X-53.3628 Y35.6495 
G01 X-53.3585 Y35.6547 
G01 X-53.3103 Y35.6897 
G01 X-53.2630 Y35.7260 
G01 X-53.2568 Y35.7286 
G01 X-53.2513 Y35.7326 
G01 X-53.1956 Y35.7539 
G01 X-53.1406 Y35.7767 
G01 X-53.1339 Y35.7776 
G01 X-53.1276 Y35.7800 
G01 X-53.0942 Y35.7835 
G01 X-53.1058 Y35.8193 
G01 X-53.1320 Y35.9844 
G01 X-53.1320 Y37.6756 
G01 X-53.1058 Y37.8407 
G01 X-53.0542 Y37.9997 
G01 X-52.9783 Y38.1486 
G01 X-52.8800 Y38.2838 
G01 X-52.7618 Y38.4020 
G01 X-52.6266 Y38.5003 
G01 X-52.4777 Y38.5762 
G01 X-52.3187 Y38.6278 
G01 X-52.1536 Y38.6540 
G01 X-51.9864 Y38.6540 
G01 X-51.8213 Y38.6278 
G01 X-51.6623 Y38.5762 
G01 X-51.5134 Y38.5003 
G01 X-51.3782 Y38.4020 
G01 X-51.2600 Y38.2838 
G01 X-51.1617 Y38.1486 
G01 X-51.0858 Y37.9997 
G01 X-51.0341 Y37.8407 
G01 X-51.0080 Y37.6756 
G01 X-51.0080 Y35.9844 
G01 X-51.0341 Y35.8193 
G01 X-51.0458 Y35.7835 
G01 X-51.0124 Y35.7800 
G01 X-51.0061 Y35.7776 
G01 X-50.9994 Y35.7767 
G01 X-50.9444 Y35.7539 
G01 X-50.8887 Y35.7326 
G01 X-50.8832 Y35.7286 
G01 X-50.8770 Y35.7260 
G01 X-50.8297 Y35.6897 
G01 X-50.7815 Y35.6547 
G01 X-50.7772 Y35.6495 
G01 X-50.7719 Y35.6454 
G01 X-50.7356 Y35.5981 
G01 X-50.6981 Y35.5517 
G01 X-50.6953 Y35.5456 
G01 X-50.6912 Y35.5403 
G01 X-50.6684 Y35.4851 
G01 X-50.6442 Y35.4307 
G01 X-50.6431 Y35.4241 
G01 X-50.6107 Y35.3459 
G01 X-50.2521 Y34.9873 
G01 X-49.7836 Y34.7932 
G01 X-49.2764 Y34.7932 
G01 X-48.8079 Y34.9873 
G01 X-48.4493 Y35.3459 
G01 X-48.3566 Y35.5697 
G01 X-48.3480 Y35.6018 
G01 X-48.3313 Y35.6307 
G01 X-48.3186 Y35.6614 
G01 X-48.2983 Y35.6878 
G01 X-48.2817 Y35.7166 
G01 X-48.2582 Y35.7401 
G01 X-48.2379 Y35.7665 
G01 X-48.2115 Y35.7867 
G01 X-48.1880 Y35.8103 
G01 X-48.1592 Y35.8269 
G01 X-48.1328 Y35.8471 
G01 X-48.1021 Y35.8599 
G01 X-48.0733 Y35.8765 
G01 X-48.0411 Y35.8851 
G01 X-48.0104 Y35.8978 
G01 X-47.9774 Y35.9022 
G01 X-47.9453 Y35.9108 
G01 X-47.9120 Y35.9108 
G01 X-47.8791 Y35.9151 
G01 X-47.8461 Y35.9108 
G01 X-26.4872 Y35.9108 
G01 X-26.1493 Y36.0507 
G01 X-25.7731 Y36.4269 
G01 X-24.6207 Y37.5793 
G01 X-24.4808 Y37.9172 
G01 X-24.4808 Y40.2931 
G01 X-24.4851 Y40.3260 
G01 X-24.4808 Y40.3590 
G01 X-24.4808 Y40.3923 
G01 X-24.4722 Y40.4244 
G01 X-24.4678 Y40.4574 
G01 X-24.4551 Y40.4881 
G01 X-24.4465 Y40.5203 
G01 X-24.4299 Y40.5491 
G01 X-24.3339 Y40.7809 
G01 X-24.2532 Y40.8860 
G01 X-24.2302 Y40.9036 
G01 X-24.1481 Y40.9666 
G01 X-24.0257 Y41.0173 
G01 X-23.8943 Y41.0346 
G01 X-23.8785 Y41.0325 
G01 X-23.7630 Y41.0173 
G01 X-23.6406 Y40.9666 
G01 X-23.4652 Y40.8940 
G01 X-22.2548 Y40.8940 
G01 X-22.0663 Y40.9721 
G01 X-21.9221 Y41.1163 
G01 X-21.8440 Y41.3048 
G01 X-21.8440 Y42.5152 
G01 X-21.9221 Y42.7037 
G01 X-22.0663 Y42.8479 
G01 X-22.0933 Y42.8591 
G01 X-22.1110 Y42.8627 
G01 X-22.1543 Y42.8844 
G01 X-22.1990 Y42.9029 
G01 X-22.2133 Y42.9139 
G01 X-22.2295 Y42.9220 
G01 X-22.2657 Y42.9541 
G01 X-22.3041 Y42.9835 
G01 X-22.3151 Y42.9979 
G01 X-22.3287 Y43.0099 
G01 X-22.3553 Y43.0503 
G01 X-22.3848 Y43.0887 
G01 X-22.3917 Y43.1054 
G01 X-22.4017 Y43.1205 
G01 X-22.4170 Y43.1664 
G01 X-22.4355 Y43.2111 
G01 X-22.4378 Y43.2290 
G01 X-22.4414 Y43.2396 
G01 X-22.4599 Y43.2843 
G01 X-22.4622 Y43.3022 
G01 X-22.4680 Y43.3194 
G01 X-22.4709 Y43.3677 
G01 X-22.4772 Y43.4157 
G01 X-22.4748 Y43.4336 
G01 X-22.4759 Y43.4516 
G01 X-22.4662 Y43.4991 
G01 X-22.4599 Y43.5470 
G01 X-22.4530 Y43.5637 
G01 X-22.4493 Y43.5814 
G01 X-22.4277 Y43.6247 
G01 X-22.4092 Y43.6694 
G01 X-22.3982 Y43.6838 
G01 X-22.3901 Y43.7000 
G01 X-22.3580 Y43.7362 
G01 X-22.3285 Y43.7745 
G01 X-22.3142 Y43.7856 
G01 X-22.3022 Y43.7991 
G01 X-22.2618 Y43.8257 
G01 X-22.2234 Y43.8552 
G01 X-22.2067 Y43.8621 
G01 X-22.1916 Y43.8721 
G01 X-22.1457 Y43.8874 
G01 X-22.1010 Y43.9059 
G01 X-22.0831 Y43.9083 
G01 X-22.0659 Y43.9140 
G01 X-22.0176 Y43.9169 
G01 X-21.9696 Y43.9232 
G01 X-21.9517 Y43.9208 
G01 X-21.9337 Y43.9219 
G01 X-21.8862 Y43.9122 
G01 X-21.8383 Y43.9059 
G01 X-21.8221 Y43.8992 
G01 X-21.3579 Y43.8992 
G01 X-20.9291 Y44.0768 
G01 X-20.6008 Y44.4051 
G01 X-20.4857 Y44.6831 
G01 X-20.4713 Y44.7273 
G01 X-20.4604 Y44.7441 
G01 X-20.4528 Y44.7626 
G01 X-20.4245 Y44.7994 
G01 X-20.3991 Y44.8384 
G01 X-20.3843 Y44.8518 
G01 X-20.3721 Y44.8677 
G01 X-20.3352 Y44.8960 
G01 X-20.3007 Y44.9271 
G01 X-20.2828 Y44.9362 
G01 X-20.2670 Y44.9483 
G01 X-20.2240 Y44.9661 
G01 X-20.1826 Y44.9872 
G01 X-20.1630 Y44.9914 
G01 X-20.1446 Y44.9990 
G01 X-20.0985 Y45.0051 
G01 X-20.0530 Y45.0148 
G01 X-20.0330 Y45.0137 
G01 X-20.0132 Y45.0163 
G01 X-20.0040 Y45.0151 
G01 X-20.0040 Y46.4249 
G01 X-20.0132 Y46.4237 
G01 X-20.0330 Y46.4263 
G01 X-20.0530 Y46.4252 
G01 X-20.0985 Y46.4349 
G01 X-20.1446 Y46.4410 
G01 X-20.1630 Y46.4486 
G01 X-20.1826 Y46.4528 
G01 X-20.2240 Y46.4739 
G01 X-20.2670 Y46.4917 
G01 X-20.2828 Y46.5038 
G01 X-20.3007 Y46.5129 
G01 X-20.3352 Y46.5440 
G01 X-20.3721 Y46.5723 
G01 X-20.3843 Y46.5882 
G01 X-20.3991 Y46.6016 
G01 X-20.4245 Y46.6406 
G01 X-20.4528 Y46.6774 
G01 X-20.4604 Y46.6959 
G01 X-20.4713 Y46.7127 
G01 X-20.4857 Y46.7569 
G01 X-20.6008 Y47.0349 
G01 X-20.9291 Y47.3632 
G01 X-21.3579 Y47.5408 
G01 X-21.8221 Y47.5408 
G01 X-22.2509 Y47.3632 
G01 X-22.5510 Y47.0631 
G01 X-22.5939 Y47.0383 
G01 X-22.6658 Y46.9968 
G01 X-22.7656 Y46.9701 
G01 X-22.7937 Y46.9625 
G01 X-22.9262 Y46.9625 
G01 X-23.0542 Y46.9968 
G01 X-23.0953 Y47.0205 
G01 X-23.1690 Y47.0631 
G01 X-23.2627 Y47.1568 
G01 X-23.4691 Y47.3632 
G01 X-23.8979 Y47.5408 
G01 X-24.3621 Y47.5408 
G01 X-24.7909 Y47.3632 
G01 X-24.9973 Y47.1568 
G01 X-25.0910 Y47.0631 
G01 X-25.1628 Y47.0216 
G01 X-25.2058 Y46.9968 
G01 X-25.3337 Y46.9625 
G01 X-25.4662 Y46.9625 
G01 X-25.4921 Y46.9695 
G01 X-25.5942 Y46.9968 
G01 X-25.6679 Y47.0394 
G01 X-25.7090 Y47.0631 
G01 X-26.0091 Y47.3632 
G01 X-26.4379 Y47.5408 
G01 X-26.9021 Y47.5408 
G01 X-27.3309 Y47.3632 
G01 X-27.5096 Y47.1845 
G01 X-27.5298 Y47.1581 
G01 X-27.5562 Y47.1379 
G01 X-27.5797 Y47.1144 
G01 X-27.6085 Y47.0977 
G01 X-27.6349 Y47.0775 
G01 X-27.6657 Y47.0648 
G01 X-27.6945 Y47.0481 
G01 X-27.7266 Y47.0395 
G01 X-27.7573 Y47.0268 
G01 X-27.7903 Y47.0224 
G01 X-27.8225 Y47.0138 
G01 X-27.8557 Y47.0138 
G01 X-27.8887 Y47.0095 
G01 X-27.9217 Y47.0138 
G01 X-27.9550 Y47.0138 
G01 X-27.9871 Y47.0224 
G01 X-28.0201 Y47.0268 
G01 X-28.0508 Y47.0395 
G01 X-28.0829 Y47.0481 
G01 X-28.1118 Y47.0648 
G01 X-28.1425 Y47.0775 
G01 X-28.1689 Y47.0977 
G01 X-28.1977 Y47.1144 
G01 X-28.2212 Y47.1379 
G01 X-28.2476 Y47.1581 
G01 X-28.2678 Y47.1845 
G01 X-28.2914 Y47.2081 
G01 X-28.3080 Y47.2369 
G01 X-28.3282 Y47.2633 
G01 X-28.3410 Y47.2940 
G01 X-28.3576 Y47.3228 
G01 X-28.3662 Y47.3549 
G01 X-28.4307 Y47.5107 
G01 X-28.7132 Y47.7932 
G01 X-28.9119 Y47.9918 
G01 X-28.9781 Y48.1066 
G01 X-28.9937 Y48.1645 
G01 X-29.0124 Y48.2345 
G01 X-29.0124 Y48.3670 
G01 X-28.9781 Y48.4950 
G01 X-28.9420 Y48.5576 
G01 X-28.9119 Y48.6098 
G01 X-28.8182 Y48.7035 
G01 X-28.7035 Y48.7697 
G01 X-28.6455 Y48.7852 
G01 X-28.5755 Y48.8040 
G01 X-6.1821 Y48.8040 
G01 X-6.1562 Y48.7971 
G01 X-6.0541 Y48.7697 
G01 X-5.9804 Y48.7272 
G01 X-5.9393 Y48.7035 
G01 X-5.8456 Y48.6098 
G01 X-5.8042 Y48.5380 
G01 X-5.7794 Y48.4950 
G01 X-5.7451 Y48.3670 
G01 X-5.7451 Y48.2345 
G01 X-5.7520 Y48.2087 
G01 X-5.7794 Y48.1066 
G01 X-5.8219 Y48.0329 
G01 X-5.8457 Y47.9918 
G01 X-5.9393 Y47.8981 
G01 X-6.0059 Y47.8597 
G01 X-6.0541 Y47.8319 
G01 X-6.5021 Y47.5733 
G01 X-6.9333 Y47.1421 
G01 X-7.2382 Y46.6139 
G01 X-7.3960 Y46.0249 
G01 X-7.3960 Y45.4151 
G01 X-7.2382 Y44.8261 
G01 X-6.9333 Y44.2979 
G01 X-6.5021 Y43.8667 
G01 X-5.9739 Y43.5618 
G01 X-5.3849 Y43.4040 
G01 X-4.7751 Y43.4040 
G01 X-4.1861 Y43.5618 
G01 X-3.6579 Y43.8667 
G01 X-3.2267 Y44.2979 
G01 X-2.9218 Y44.8261 
G01 X-2.7640 Y45.4151 
G01 X-2.7640 Y46.0249 
G01 X-2.9218 Y46.6139 
G01 X-3.2267 Y47.1421 
G01 X-3.6579 Y47.5733 
G01 X-4.1059 Y47.8319 
G01 X-4.1524 Y47.8587 
G01 X-4.2207 Y47.8981 
G01 X-4.3143 Y47.9918 
G01 X-4.3391 Y48.0348 
G01 X-4.3806 Y48.1066 
G01 X-4.4073 Y48.2064 
G01 X-4.4149 Y48.2345 
G01 X-4.4149 Y48.3670 
G01 X-4.3806 Y48.4950 
G01 X-4.3569 Y48.5361 
G01 X-4.3143 Y48.6098 
G01 X-4.2207 Y48.7035 
G01 X-4.1777 Y48.7282 
G01 X-4.1059 Y48.7697 
G01 X-4.0061 Y48.7964 
G01 X-3.9779 Y48.8040 
G01 X-1.1529 Y48.8040 
G01 X-1.0250 Y48.7697 
G01 X-0.9102 Y48.7035 
G01 X-0.8165 Y48.6098 
G01 X-0.7503 Y48.4950 
G01 X-0.7160 Y48.3670 
G01 X-0.7160 Y1.1529 
G01 X-0.7503 Y1.0250 
G01 X-0.8165 Y0.9102 
G00 Z2.5400 
G00 X-8.8295 Y7.9253 
G01 Z-0.1200 F254.00 
G01 X-8.6853 Y8.0695 F508.00 
G01 X-8.6072 Y8.2580 
G01 X-8.6072 Y12.0620 
G01 X-8.6853 Y12.2505 
G01 X-8.8295 Y12.3947 
G01 X-8.8997 Y12.4238 
G01 X-8.9318 Y12.4324 
G01 X-8.9606 Y12.4490 
G01 X-8.9914 Y12.4618 
G01 X-9.0178 Y12.4820 
G01 X-9.0466 Y12.4987 
G01 X-9.0701 Y12.5222 
G01 X-9.0965 Y12.5424 
G01 X-9.1167 Y12.5688 
G01 X-9.1403 Y12.5923 
G01 X-9.1569 Y12.6211 
G01 X-9.1771 Y12.6475 
G01 X-9.1899 Y12.6783 
G01 X-9.2065 Y12.7071 
G01 X-9.2151 Y12.7392 
G01 X-9.2278 Y12.7699 
G01 X-9.2322 Y12.8029 
G01 X-9.2408 Y12.8351 
G01 X-9.2408 Y12.8683 
G01 X-9.2451 Y12.9013 
G01 X-9.2408 Y12.9343 
G01 X-9.2408 Y13.0537 
G01 X-9.2277 Y13.1025 
G01 X-9.2065 Y13.1817 
G01 X-9.1766 Y13.2335 
G01 X-9.1403 Y13.2964 
G01 X-9.0473 Y13.3894 
G01 X-8.9885 Y13.4236 
G01 X-8.9600 Y13.4401 
G01 X-8.9600 Y17.0795 
G01 X-8.9396 Y17.1558 
G01 X-8.9001 Y17.2242 
G01 X-8.8442 Y17.2801 
G01 X-8.7758 Y17.3196 
G01 X-8.6995 Y17.3400 
G01 X-8.5148 Y17.3400 
G01 X-8.5148 Y18.0402 
G01 X-8.5435 Y18.1095 
G01 X-8.5804 Y18.2950 
G01 X-8.5804 Y19.8050 
G01 X-8.5435 Y19.9905 
G01 X-8.4711 Y20.1653 
G01 X-8.3660 Y20.3226 
G01 X-8.2322 Y20.4564 
G01 X-8.0749 Y20.5615 
G01 X-7.9001 Y20.6339 
G01 X-7.7146 Y20.6708 
G01 X-7.5254 Y20.6708 
G01 X-7.3399 Y20.6339 
G01 X-7.1651 Y20.5615 
G01 X-7.0115 Y20.4589 
G01 X-7.0013 Y20.4766 
G01 X-6.9919 Y20.4860 
G01 X-6.9846 Y20.4972 
G01 X-6.9451 Y20.5328 
G01 X-6.9076 Y20.5703 
G01 X-6.8961 Y20.5769 
G01 X-6.8861 Y20.5859 
G01 X-6.8388 Y20.6100 
G01 X-6.7929 Y20.6365 
G01 X-6.7800 Y20.6400 
G01 X-6.7681 Y20.6460 
G01 X-6.7162 Y20.6571 
G01 X-6.6649 Y20.6708 
G01 X-6.6515 Y20.6708 
G01 X-6.6385 Y20.6736 
G01 X-6.5955 Y20.6713 
G01 X-6.5148 Y20.7179 
G01 X-6.4062 Y20.7470 
G01 X-6.2938 Y20.7470 
G01 X-6.1852 Y20.7179 
G01 X-6.1036 Y20.6708 
G01 X-4.6921 Y20.6708 
G01 X-4.5642 Y20.6365 
G01 X-4.4494 Y20.5703 
G01 X-4.3557 Y20.4766 
G01 X-4.2960 Y20.4168 
G01 X-3.3240 Y20.4168 
G01 X-2.6368 Y21.1040 
G01 X-2.6368 Y22.0759 
G01 X-3.1978 Y22.6369 
G01 X-3.2783 Y22.7174 
G01 X-3.2915 Y22.7306 
G01 X-3.3577 Y22.8454 
G01 X-3.3824 Y22.9376 
G01 X-3.3920 Y22.9734 
G01 X-3.3920 Y23.1059 
G01 X-3.3832 Y23.1387 
G01 X-3.3577 Y23.2338 
G01 X-3.2915 Y23.3486 
G01 X-3.1978 Y23.4423 
G01 X-3.0307 Y23.6093 
G01 X-2.8908 Y23.9472 
G01 X-2.8908 Y25.7879 
G01 X-2.8565 Y25.9158 
G01 X-2.7903 Y26.0306 
G01 X-2.6966 Y26.1243 
G01 X-2.6368 Y26.1840 
G01 X-2.6368 Y27.1560 
G01 X-3.3200 Y27.8391 
G01 X-3.3327 Y27.8476 
G01 X-3.3667 Y27.8859 
G01 X-3.4029 Y27.9220 
G01 X-3.4105 Y27.9352 
G01 X-3.4206 Y27.9467 
G01 X-3.4435 Y27.9925 
G01 X-3.4691 Y28.0368 
G01 X-3.4731 Y28.0515 
G01 X-5.3709 Y31.8473 
G01 X-5.3965 Y31.8916 
G01 X-5.4005 Y31.9063 
G01 X-5.4073 Y31.9200 
G01 X-5.4176 Y31.9701 
G01 X-5.4308 Y32.0195 
G01 X-5.4308 Y32.0348 
G01 X-5.4339 Y32.0498 
G01 X-5.4308 Y32.1009 
G01 X-5.4308 Y33.1031 
G01 X-5.4239 Y33.1290 
G01 X-5.3965 Y33.2310 
G01 X-5.3540 Y33.3047 
G01 X-5.3303 Y33.3458 
G01 X-5.2366 Y33.4395 
G01 X-5.1647 Y33.4809 
G01 X-5.1218 Y33.5057 
G01 X-4.9938 Y33.5400 
G01 X-4.8613 Y33.5400 
G01 X-4.8355 Y33.5331 
G01 X-4.7334 Y33.5057 
G01 X-4.6597 Y33.4632 
G01 X-4.6186 Y33.4395 
G01 X-4.2960 Y33.1168 
G01 X-3.3240 Y33.1168 
G01 X-2.6368 Y33.8040 
G01 X-2.6368 Y34.7760 
G01 X-2.7903 Y34.9294 
G01 X-2.8565 Y35.0442 
G01 X-2.8908 Y35.1721 
G01 X-2.8908 Y36.6739 
G01 X-2.8941 Y36.7233 
G01 X-2.8908 Y36.7400 
G01 X-2.8908 Y36.7569 
G01 X-2.8780 Y36.8047 
G01 X-2.8728 Y36.8310 
G01 X-2.8779 Y36.8563 
G01 X-2.8908 Y36.9046 
G01 X-2.8908 Y36.9210 
G01 X-2.8940 Y36.9371 
G01 X-2.8908 Y36.9871 
G01 X-2.8908 Y37.0128 
G01 X-2.9010 Y37.0376 
G01 X-2.9230 Y37.0819 
G01 X-2.9263 Y37.0986 
G01 X-2.9328 Y37.1142 
G01 X-2.9393 Y37.1633 
G01 X-2.9445 Y37.1896 
G01 X-2.9588 Y37.2110 
G01 X-2.9893 Y37.2507 
G01 X-2.9956 Y37.2659 
G01 X-3.0047 Y37.2795 
G01 X-3.0209 Y37.3269 
G01 X-3.0307 Y37.3507 
G01 X-3.0496 Y37.3696 
G01 X-3.0869 Y37.4022 
G01 X-3.0964 Y37.4163 
G01 X-3.1083 Y37.4283 
G01 X-3.1331 Y37.4711 
G01 X-3.1480 Y37.4934 
G01 X-3.1694 Y37.5077 
G01 X-3.2128 Y37.5327 
G01 X-3.2244 Y37.5443 
G01 X-3.2380 Y37.5534 
G01 X-3.2711 Y37.5911 
G01 X-3.2893 Y37.6093 
G01 X-3.3140 Y37.6195 
G01 X-3.3609 Y37.6354 
G01 X-3.3750 Y37.6448 
G01 X-3.3907 Y37.6512 
G01 X-3.4300 Y37.6814 
G01 X-4.3042 Y38.2642 
G01 X-4.3476 Y38.2893 
G01 X-4.3592 Y38.3009 
G01 X-4.3728 Y38.3100 
G01 X-4.4059 Y38.3476 
G01 X-4.4413 Y38.3829 
G01 X-4.4495 Y38.3971 
G01 X-4.4603 Y38.4095 
G01 X-4.4825 Y38.4544 
G01 X-4.5075 Y38.4977 
G01 X-4.5118 Y38.5135 
G01 X-4.5190 Y38.5283 
G01 X-4.5278 Y38.5719 
G01 X-5.2290 Y39.2732 
G01 X-6.2065 Y39.2732 
G01 X-6.3082 Y39.2145 
G01 X-6.3539 Y39.2022 
G01 X-6.4361 Y39.1802 
G01 X-6.5686 Y39.1802 
G01 X-6.6596 Y39.2045 
G01 X-6.6596 Y38.9722 
G01 X-7.2222 Y38.4096 
G01 X-7.8276 Y38.4096 
G01 X-7.8567 Y38.3009 
G01 X-7.8805 Y38.2598 
G01 X-7.9230 Y38.1862 
G01 X-8.0167 Y38.0925 
G01 X-8.7932 Y37.3160 
G01 X-8.7932 Y36.3440 
G01 X-8.7245 Y36.2754 
G01 X-8.6755 Y36.1904 
G01 X-8.6583 Y36.1606 
G01 X-8.6388 Y36.0879 
G01 X-8.6240 Y36.0326 
G01 X-8.6240 Y35.9001 
G01 X-8.6583 Y35.7722 
G01 X-8.7062 Y35.6891 
G01 X-8.7245 Y35.6574 
G01 X-8.8182 Y35.5637 
G01 X-8.9031 Y35.5147 
G01 X-8.9329 Y35.4975 
G01 X-9.0057 Y35.4780 
G01 X-9.0609 Y35.4632 
G01 X-9.3760 Y35.4632 
G01 X-10.0632 Y34.7760 
G01 X-10.0632 Y33.8040 
G01 X-9.9097 Y33.6506 
G01 X-9.8435 Y33.5358 
G01 X-9.8092 Y33.4079 
G01 X-9.8092 Y30.5661 
G01 X-9.8435 Y30.4382 
G01 X-9.9097 Y30.3234 
G01 X-10.0034 Y30.2297 
G01 X-10.1182 Y30.1635 
G01 X-10.2461 Y30.1292 
G01 X-12.1381 Y30.1292 
G01 X-12.1911 Y30.1434 
G01 X-12.2661 Y30.1635 
G01 X-12.2978 Y30.1818 
G01 X-12.3808 Y30.2297 
G01 X-12.4738 Y30.3227 
G01 X-12.4917 Y30.3532 
G01 X-12.5408 Y30.4382 
G01 X-12.5751 Y30.5661 
G01 X-12.5751 Y30.6987 
G01 X-12.5609 Y30.7516 
G01 X-12.5408 Y30.8266 
G01 X-12.5225 Y30.8583 
G01 X-12.4745 Y30.9414 
G01 X-12.3268 Y31.0891 
G01 X-12.1492 Y31.5179 
G01 X-12.1492 Y31.9821 
G01 X-12.3268 Y32.4109 
G01 X-12.6269 Y32.7110 
G01 X-12.6517 Y32.7540 
G01 X-12.6932 Y32.8258 
G01 X-12.7199 Y32.9256 
G01 X-12.7275 Y32.9537 
G01 X-12.7275 Y33.0862 
G01 X-12.6932 Y33.2142 
G01 X-12.6695 Y33.2553 
G01 X-12.6269 Y33.3290 
G01 X-12.5332 Y33.4227 
G01 X-12.3268 Y33.6291 
G01 X-12.1492 Y34.0579 
G01 X-12.1492 Y34.5221 
G01 X-12.3268 Y34.9509 
G01 X-12.6269 Y35.2510 
G01 X-12.6517 Y35.2940 
G01 X-12.6932 Y35.3658 
G01 X-12.7199 Y35.4656 
G01 X-12.7275 Y35.4937 
G01 X-12.7275 Y35.6262 
G01 X-12.6932 Y35.7542 
G01 X-12.6695 Y35.7953 
G01 X-12.6269 Y35.8690 
G01 X-12.5332 Y35.9627 
G01 X-12.3268 Y36.1691 
G01 X-12.1492 Y36.5979 
G01 X-12.1492 Y37.0621 
G01 X-12.3268 Y37.4909 
G01 X-12.6269 Y37.7910 
G01 X-12.6517 Y37.8340 
G01 X-12.6932 Y37.9058 
G01 X-12.7199 Y38.0055 
G01 X-12.7275 Y38.0337 
G01 X-12.7275 Y38.1662 
G01 X-12.6932 Y38.2942 
G01 X-12.6695 Y38.3353 
G01 X-12.6269 Y38.4090 
G01 X-12.5332 Y38.5027 
G01 X-12.3268 Y38.7091 
G01 X-12.1492 Y39.1379 
G01 X-12.1492 Y39.6021 
G01 X-12.3268 Y40.0309 
G01 X-12.6269 Y40.3310 
G01 X-12.6517 Y40.3740 
G01 X-12.6932 Y40.4458 
G01 X-12.7199 Y40.5455 
G01 X-12.7275 Y40.5737 
G01 X-12.7275 Y40.7062 
G01 X-12.6932 Y40.8342 
G01 X-12.6695 Y40.8753 
G01 X-12.6269 Y40.9490 
G01 X-12.5332 Y41.0427 
G01 X-12.3268 Y41.2491 
G01 X-12.1492 Y41.6779 
G01 X-12.1492 Y42.1421 
G01 X-12.3268 Y42.5709 
G01 X-12.6269 Y42.8710 
G01 X-12.6517 Y42.9139 
G01 X-12.6932 Y42.9858 
G01 X-12.7199 Y43.0855 
G01 X-12.7275 Y43.1137 
G01 X-12.7275 Y43.2462 
G01 X-12.6932 Y43.3742 
G01 X-12.6695 Y43.4153 
G01 X-12.6269 Y43.4890 
G01 X-12.5332 Y43.5827 
G01 X-12.3268 Y43.7891 
G01 X-12.1492 Y44.2179 
G01 X-12.1492 Y44.6821 
G01 X-12.3268 Y45.1109 
G01 X-12.6551 Y45.4392 
G01 X-13.0839 Y45.6168 
G01 X-14.9062 Y45.6168 
G01 X-15.0342 Y45.6511 
G01 X-15.1490 Y45.7173 
G01 X-15.2427 Y45.8110 
G01 X-15.3089 Y45.9258 
G01 X-15.3432 Y46.0537 
G01 X-15.3432 Y46.6061 
G01 X-15.5208 Y47.0349 
G01 X-15.8491 Y47.3632 
G01 X-16.2779 Y47.5408 
G01 X-16.7421 Y47.5408 
G01 X-17.1709 Y47.3632 
G01 X-17.4992 Y47.0349 
G01 X-17.6143 Y46.7569 
G01 X-17.6287 Y46.7127 
G01 X-17.6396 Y46.6959 
G01 X-17.6472 Y46.6774 
G01 X-17.6755 Y46.6406 
G01 X-17.7009 Y46.6016 
G01 X-17.7157 Y46.5882 
G01 X-17.7279 Y46.5723 
G01 X-17.7648 Y46.5440 
G01 X-17.7993 Y46.5129 
G01 X-17.8172 Y46.5038 
G01 X-17.8330 Y46.4917 
G01 X-17.8759 Y46.4739 
G01 X-17.9174 Y46.4528 
G01 X-17.9370 Y46.4486 
G01 X-17.9554 Y46.4410 
G01 X-18.0015 Y46.4349 
G01 X-18.0470 Y46.4252 
G01 X-18.0670 Y46.4263 
G01 X-18.0868 Y46.4237 
G01 X-18.0960 Y46.4249 
G01 X-18.0960 Y45.0151 
G01 X-18.0868 Y45.0163 
G01 X-18.0670 Y45.0137 
G01 X-18.0470 Y45.0148 
G01 X-18.0015 Y45.0051 
G01 X-17.9554 Y44.9990 
G01 X-17.9370 Y44.9914 
G01 X-17.9174 Y44.9872 
G01 X-17.8760 Y44.9661 
G01 X-17.8330 Y44.9483 
G01 X-17.8172 Y44.9362 
G01 X-17.7993 Y44.9271 
G01 X-17.7648 Y44.8960 
G01 X-17.7279 Y44.8677 
G01 X-17.7157 Y44.8518 
G01 X-17.7009 Y44.8384 
G01 X-17.6755 Y44.7994 
G01 X-17.6472 Y44.7626 
G01 X-17.6396 Y44.7441 
G01 X-17.6287 Y44.7273 
G01 X-17.6143 Y44.6831 
G01 X-17.4992 Y44.4051 
G01 X-17.1709 Y44.0768 
G01 X-16.7421 Y43.8992 
G01 X-16.2779 Y43.8992 
G01 X-16.2268 Y43.9203 
G01 X-16.1980 Y43.9370 
G01 X-16.1659 Y43.9456 
G01 X-16.1352 Y43.9583 
G01 X-16.1022 Y43.9627 
G01 X-16.0701 Y43.9713 
G01 X-16.0368 Y43.9713 
G01 X-16.0038 Y43.9756 
G01 X-15.9708 Y43.9713 
G01 X-15.9376 Y43.9713 
G01 X-15.9054 Y43.9627 
G01 X-15.8724 Y43.9583 
G01 X-15.8417 Y43.9456 
G01 X-15.8096 Y43.9370 
G01 X-15.7808 Y43.9204 
G01 X-15.7500 Y43.9076 
G01 X-15.7236 Y43.8874 
G01 X-15.6948 Y43.8707 
G01 X-15.6713 Y43.8472 
G01 X-15.6449 Y43.8270 
G01 X-15.6247 Y43.8006 
G01 X-15.3131 Y43.4890 
G01 X-15.2468 Y43.3742 
G01 X-15.2125 Y43.2462 
G01 X-15.2125 Y43.1137 
G01 X-15.2468 Y42.9858 
G01 X-15.3131 Y42.8710 
G01 X-15.4068 Y42.7773 
G01 X-15.6132 Y42.5709 
G01 X-15.7908 Y42.1421 
G01 X-15.7908 Y41.6779 
G01 X-15.6132 Y41.2491 
G01 X-15.4068 Y41.0427 
G01 X-15.3131 Y40.9490 
G01 X-15.2716 Y40.8771 
G01 X-15.2468 Y40.8342 
G01 X-15.2125 Y40.7062 
G01 X-15.2125 Y40.5737 
G01 X-15.2195 Y40.5479 
G01 X-15.2468 Y40.4458 
G01 X-15.2894 Y40.3721 
G01 X-15.3131 Y40.3310 
G01 X-15.6132 Y40.0309 
G01 X-15.7908 Y39.6021 
G01 X-15.7908 Y39.1379 
G01 X-15.6132 Y38.7091 
G01 X-15.4068 Y38.5027 
G01 X-15.3131 Y38.4090 
G01 X-15.2716 Y38.3371 
G01 X-15.2468 Y38.2942 
G01 X-15.2125 Y38.1662 
G01 X-15.2125 Y38.0337 
G01 X-15.2195 Y38.0079 
G01 X-15.2468 Y37.9058 
G01 X-15.2894 Y37.8321 
G01 X-15.3131 Y37.7910 
G01 X-15.6132 Y37.4909 
G01 X-15.7908 Y37.0621 
G01 X-15.7908 Y36.5979 
G01 X-15.6132 Y36.1691 
G01 X-15.4068 Y35.9627 
G01 X-15.3131 Y35.8690 
G01 X-15.2716 Y35.7971 
G01 X-15.2468 Y35.7542 
G01 X-15.2125 Y35.6262 
G01 X-15.2125 Y35.4937 
G01 X-15.2195 Y35.4679 
G01 X-15.2468 Y35.3658 
G01 X-15.2894 Y35.2921 
G01 X-15.3131 Y35.2510 
G01 X-15.6132 Y34.9509 
G01 X-15.7908 Y34.5221 
G01 X-15.7908 Y34.0579 
G01 X-15.6132 Y33.6291 
G01 X-15.3131 Y33.3290 
G01 X-15.2468 Y33.2142 
G01 X-15.2125 Y33.0862 
G01 X-15.2125 Y32.9537 
G01 X-15.2468 Y32.8258 
G01 X-15.3131 Y32.7110 
G01 X-15.4068 Y32.6173 
G01 X-15.6247 Y32.3994 
G01 X-15.6449 Y32.3730 
G01 X-15.6713 Y32.3528 
G01 X-15.6948 Y32.3293 
G01 X-15.7236 Y32.3126 
G01 X-15.7500 Y32.2924 
G01 X-15.7808 Y32.2796 
G01 X-15.8096 Y32.2630 
G01 X-15.8417 Y32.2544 
G01 X-15.8724 Y32.2417 
G01 X-15.9054 Y32.2373 
G01 X-15.9376 Y32.2287 
G01 X-15.9708 Y32.2287 
G01 X-16.0038 Y32.2244 
G01 X-16.0368 Y32.2287 
G01 X-16.0701 Y32.2287 
G01 X-16.1022 Y32.2373 
G01 X-16.1352 Y32.2417 
G01 X-16.1659 Y32.2544 
G01 X-16.1980 Y32.2630 
G01 X-16.2269 Y32.2797 
G01 X-16.2779 Y32.3008 
G01 X-16.7421 Y32.3008 
G01 X-17.1709 Y32.1232 
G01 X-17.4710 Y31.8231 
G01 X-17.5140 Y31.7983 
G01 X-17.5858 Y31.7568 
G01 X-17.6855 Y31.7301 
G01 X-17.7137 Y31.7225 
G01 X-17.8462 Y31.7225 
G01 X-17.9742 Y31.7568 
G01 X-18.0153 Y31.7805 
G01 X-18.0890 Y31.8231 
G01 X-18.1827 Y31.9168 
G01 X-18.3891 Y32.1232 
G01 X-18.8179 Y32.3008 
G01 X-19.2821 Y32.3008 
G01 X-19.7109 Y32.1232 
G01 X-20.0110 Y31.8231 
G01 X-20.0540 Y31.7983 
G01 X-20.1258 Y31.7568 
G01 X-20.2255 Y31.7301 
G01 X-20.2537 Y31.7225 
G01 X-20.3862 Y31.7225 
G01 X-20.5142 Y31.7568 
G01 X-20.5553 Y31.7805 
G01 X-20.6290 Y31.8231 
G01 X-20.7227 Y31.9168 
G01 X-20.9291 Y32.1232 
G01 X-21.3579 Y32.3008 
G01 X-21.8221 Y32.3008 
G01 X-22.2509 Y32.1232 
G01 X-22.5510 Y31.8231 
G01 X-22.5939 Y31.7983 
G01 X-22.6658 Y31.7568 
G01 X-22.7656 Y31.7301 
G01 X-22.7937 Y31.7225 
G01 X-22.9262 Y31.7225 
G01 X-23.0542 Y31.7568 
G01 X-23.0953 Y31.7805 
G01 X-23.1690 Y31.8231 
G01 X-23.2627 Y31.9168 
G01 X-23.4691 Y32.1232 
G01 X-23.8979 Y32.3008 
G01 X-24.3621 Y32.3008 
G01 X-24.7909 Y32.1232 
G01 X-25.0910 Y31.8231 
G01 X-25.1339 Y31.7983 
G01 X-25.2058 Y31.7568 
G01 X-25.3056 Y31.7301 
G01 X-25.3337 Y31.7225 
G01 X-25.4662 Y31.7225 
G01 X-25.5942 Y31.7568 
G01 X-25.6353 Y31.7805 
G01 X-25.7090 Y31.8231 
G01 X-25.8027 Y31.9168 
G01 X-26.0091 Y32.1232 
G01 X-26.4379 Y32.3008 
G01 X-26.9021 Y32.3008 
G01 X-27.3309 Y32.1232 
G01 X-27.6310 Y31.8231 
G01 X-27.6740 Y31.7983 
G01 X-27.7458 Y31.7568 
G01 X-27.8455 Y31.7301 
G01 X-27.8737 Y31.7225 
G01 X-28.0062 Y31.7225 
G01 X-28.1342 Y31.7568 
G01 X-28.1753 Y31.7805 
G01 X-28.2490 Y31.8231 
G01 X-28.3427 Y31.9168 
G01 X-28.5491 Y32.1232 
G01 X-28.9779 Y32.3008 
G01 X-29.4421 Y32.3008 
G01 X-29.8709 Y32.1232 
G01 X-30.1710 Y31.8231 
G01 X-30.2140 Y31.7983 
G01 X-30.2858 Y31.7568 
G01 X-30.3855 Y31.7301 
G01 X-30.4137 Y31.7225 
G01 X-30.5462 Y31.7225 
G01 X-30.6742 Y31.7568 
G01 X-30.7153 Y31.7805 
G01 X-30.7890 Y31.8231 
G01 X-30.8827 Y31.9168 
G01 X-31.0891 Y32.1232 
G01 X-31.5179 Y32.3008 
G01 X-31.9821 Y32.3008 
G01 X-32.4109 Y32.1232 
G01 X-32.7110 Y31.8231 
G01 X-32.7540 Y31.7983 
G01 X-32.8258 Y31.7568 
G01 X-32.9256 Y31.7301 
G01 X-32.9537 Y31.7225 
G01 X-33.0862 Y31.7225 
G01 X-33.2142 Y31.7568 
G01 X-33.2553 Y31.7805 
G01 X-33.3290 Y31.8231 
G01 X-33.4227 Y31.9168 
G01 X-33.6291 Y32.1232 
G01 X-34.0579 Y32.3008 
G01 X-34.5221 Y32.3008 
G01 X-34.9509 Y32.1232 
G01 X-35.2510 Y31.8231 
G01 X-35.2940 Y31.7983 
G01 X-35.3658 Y31.7568 
G01 X-35.4656 Y31.7301 
G01 X-35.4937 Y31.7225 
G01 X-35.6262 Y31.7225 
G01 X-35.7542 Y31.7568 
G01 X-35.7953 Y31.7805 
G01 X-35.8690 Y31.8231 
G01 X-35.9627 Y31.9168 
G01 X-36.1691 Y32.1232 
G01 X-36.5979 Y32.3008 
G01 X-37.0621 Y32.3008 
G01 X-37.4909 Y32.1232 
G01 X-37.7910 Y31.8231 
G01 X-37.8340 Y31.7983 
G01 X-37.9058 Y31.7568 
G01 X-38.0055 Y31.7301 
G01 X-38.0337 Y31.7225 
G01 X-38.1662 Y31.7225 
G01 X-38.2942 Y31.7568 
G01 X-38.3353 Y31.7805 
G01 X-38.4090 Y31.8231 
G01 X-38.5027 Y31.9168 
G01 X-38.7091 Y32.1232 
G01 X-39.1379 Y32.3008 
G01 X-39.6021 Y32.3008 
G01 X-40.0309 Y32.1232 
G01 X-40.3310 Y31.8231 
G01 X-40.3740 Y31.7983 
G01 X-40.4458 Y31.7568 
G01 X-40.5455 Y31.7301 
G01 X-40.5737 Y31.7225 
G01 X-40.7062 Y31.7225 
G01 X-40.8342 Y31.7568 
G01 X-40.8753 Y31.7805 
G01 X-40.9490 Y31.8231 
G01 X-41.0427 Y31.9168 
G01 X-41.2491 Y32.1232 
G01 X-41.6779 Y32.3008 
G01 X-42.1421 Y32.3008 
G01 X-42.5709 Y32.1232 
G01 X-42.8710 Y31.8231 
G01 X-42.9139 Y31.7983 
G01 X-42.9858 Y31.7568 
G01 X-43.0855 Y31.7301 
G01 X-43.1137 Y31.7225 
G01 X-43.2462 Y31.7225 
G01 X-43.3742 Y31.7568 
G01 X-43.4153 Y31.7805 
G01 X-43.4890 Y31.8231 
G01 X-43.5827 Y31.9168 
G01 X-43.7891 Y32.1232 
G01 X-44.2179 Y32.3008 
G01 X-44.6821 Y32.3008 
G01 X-45.1109 Y32.1232 
G01 X-45.4392 Y31.7949 
G01 X-45.6168 Y31.3661 
G01 X-45.6168 Y29.5939 
G01 X-45.4392 Y29.1651 
G01 X-45.1109 Y28.8368 
G01 X-45.0798 Y28.8239 
G01 X-45.0476 Y28.8153 
G01 X-45.0188 Y28.7987 
G01 X-44.9881 Y28.7859 
G01 X-44.9617 Y28.7657 
G01 X-44.9329 Y28.7491 
G01 X-44.9094 Y28.7255 
G01 X-44.8830 Y28.7053 
G01 X-44.8627 Y28.6789 
G01 X-44.8392 Y28.6554 
G01 X-44.8226 Y28.6266 
G01 X-44.8023 Y28.6002 
G01 X-44.7896 Y28.5694 
G01 X-44.7729 Y28.5406 
G01 X-44.7643 Y28.5085 
G01 X-44.7516 Y28.4778 
G01 X-44.7473 Y28.4448 
G01 X-44.7386 Y28.4126 
G01 X-44.7386 Y28.3794 
G01 X-44.7343 Y28.3464 
G01 X-44.7386 Y28.3134 
G01 X-44.7386 Y28.2801 
G01 X-44.7473 Y28.2480 
G01 X-44.7516 Y28.2150 
G01 X-44.7643 Y28.1843 
G01 X-44.7729 Y28.1522 
G01 X-44.7896 Y28.1234 
G01 X-44.8023 Y28.0926 
G01 X-44.8226 Y28.0662 
G01 X-44.8392 Y28.0374 
G01 X-44.8627 Y28.0139 
G01 X-44.8830 Y27.9875 
G01 X-44.9094 Y27.9673 
G01 X-44.9329 Y27.9437 
G01 X-44.9617 Y27.9271 
G01 X-44.9881 Y27.9069 
G01 X-45.0188 Y27.8941 
G01 X-45.0476 Y27.8775 
G01 X-45.0798 Y27.8689 
G01 X-45.1105 Y27.8561 
G01 X-45.1435 Y27.8518 
G01 X-45.1756 Y27.8432 
G01 X-45.2089 Y27.8432 
G01 X-45.2418 Y27.8389 
G01 X-45.2748 Y27.8432 
G01 X-45.3438 Y27.8432 
G01 X-45.8340 Y27.6401 
G01 X-45.8628 Y27.6235 
G01 X-45.8950 Y27.6149 
G01 X-45.9257 Y27.6022 
G01 X-45.9587 Y27.5978 
G01 X-45.9908 Y27.5892 
G01 X-46.0241 Y27.5892 
G01 X-46.0571 Y27.5849 
G01 X-46.0900 Y27.5892 
G01 X-47.3779 Y27.5892 
G01 X-47.4038 Y27.5961 
G01 X-47.5058 Y27.6235 
G01 X-47.5795 Y27.6660 
G01 X-47.6206 Y27.6897 
G01 X-47.7740 Y27.8432 
G01 X-48.7460 Y27.8432 
G01 X-49.4332 Y27.1560 
G01 X-49.4332 Y26.1840 
G01 X-48.7460 Y25.4968 
G01 X-47.7740 Y25.4968 
G01 X-47.6206 Y25.6503 
G01 X-47.5777 Y25.6750 
G01 X-47.5058 Y25.7165 
G01 X-47.4061 Y25.7432 
G01 X-47.3779 Y25.7508 
G01 X-46.2973 Y25.7508 
G01 X-46.2444 Y25.7366 
G01 X-46.1694 Y25.7165 
G01 X-46.1377 Y25.6982 
G01 X-46.0546 Y25.6503 
G01 X-45.9616 Y25.5573 
G01 X-45.9437 Y25.5267 
G01 X-45.8947 Y25.4418 
G01 X-45.8604 Y25.3138 
G01 X-45.8604 Y25.1813 
G01 X-45.8746 Y25.1284 
G01 X-45.8947 Y25.0534 
G01 X-45.9130 Y25.0217 
G01 X-45.9609 Y24.9386 
G01 X-46.1050 Y24.7946 
G01 X-46.2836 Y24.3634 
G01 X-46.2836 Y23.8966 
G01 X-46.1050 Y23.4654 
G01 X-45.7750 Y23.1354 
G01 X-45.7103 Y23.1086 
G01 X-45.6782 Y23.1000 
G01 X-45.6493 Y23.0834 
G01 X-45.6186 Y23.0706 
G01 X-45.5922 Y23.0504 
G01 X-45.5634 Y23.0338 
G01 X-45.5399 Y23.0102 
G01 X-45.5135 Y22.9900 
G01 X-45.4933 Y22.9636 
G01 X-45.4697 Y22.9401 
G01 X-45.4531 Y22.9113 
G01 X-45.4329 Y22.8849 
G01 X-45.4201 Y22.8542 
G01 X-45.4035 Y22.8253 
G01 X-45.3949 Y22.7932 
G01 X-45.3822 Y22.7625 
G01 X-45.3778 Y22.7295 
G01 X-45.3692 Y22.6974 
G01 X-45.3692 Y22.6641 
G01 X-45.3649 Y22.6311 
G01 X-45.3692 Y22.5981 
G01 X-45.3692 Y17.8661 
G01 X-45.4035 Y17.7382 
G01 X-45.4697 Y17.6234 
G01 X-45.5634 Y17.5297 
G01 X-45.6782 Y17.4635 
G01 X-45.8061 Y17.4292 
G01 X-50.7138 Y17.4292 
G01 X-50.8418 Y17.4635 
G01 X-50.9566 Y17.5297 
G01 X-51.0503 Y17.6234 
G01 X-51.1165 Y17.7382 
G01 X-51.1508 Y17.8661 
G01 X-51.1508 Y26.9680 
G01 X-51.1551 Y27.0010 
G01 X-51.1508 Y27.0340 
G01 X-51.1508 Y27.0673 
G01 X-51.1422 Y27.0994 
G01 X-51.1378 Y27.1324 
G01 X-51.1251 Y27.1631 
G01 X-51.1165 Y27.1952 
G01 X-51.0999 Y27.2241 
G01 X-51.0540 Y27.3348 
G01 X-51.0540 Y28.5452 
G01 X-51.1321 Y28.7337 
G01 X-51.2763 Y28.8779 
G01 X-51.4648 Y28.9560 
G01 X-52.6752 Y28.9560 
G01 X-52.8637 Y28.8779 
G01 X-53.0079 Y28.7337 
G01 X-53.0860 Y28.5452 
G01 X-53.0860 Y27.3348 
G01 X-53.0401 Y27.2241 
G01 X-53.0235 Y27.1952 
G01 X-53.0149 Y27.1631 
G01 X-53.0022 Y27.1324 
G01 X-52.9978 Y27.0994 
G01 X-52.9892 Y27.0673 
G01 X-52.9892 Y27.0340 
G01 X-52.9849 Y27.0010 
G01 X-52.9892 Y26.9680 
G01 X-52.9892 Y25.3079 
G01 X-53.0034 Y25.2549 
G01 X-53.0235 Y25.1799 
G01 X-53.0418 Y25.1482 
G01 X-53.0897 Y25.0652 
G01 X-53.1827 Y24.9722 
G01 X-53.2132 Y24.9543 
G01 X-53.2982 Y24.9052 
G01 X-53.4261 Y24.8709 
G01 X-53.5587 Y24.8709 
G01 X-53.6116 Y24.8851 
G01 X-53.6866 Y24.9052 
G01 X-53.7183 Y24.9235 
G01 X-53.8014 Y24.9715 
G01 X-53.9491 Y25.1192 
G01 X-54.3779 Y25.2968 
G01 X-54.8421 Y25.2968 
G01 X-55.2709 Y25.1192 
G01 X-55.5992 Y24.7909 
G01 X-55.7768 Y24.3621 
G01 X-55.7768 Y23.8979 
G01 X-55.5992 Y23.4691 
G01 X-55.3928 Y23.2627 
G01 X-55.2991 Y23.1690 
G01 X-55.2576 Y23.0971 
G01 X-55.2328 Y23.0542 
G01 X-55.1985 Y22.9262 
G01 X-55.1985 Y22.7937 
G01 X-55.2055 Y22.7679 
G01 X-55.2328 Y22.6658 
G01 X-55.2754 Y22.5921 
G01 X-55.2991 Y22.5510 
G01 X-55.5992 Y22.2509 
G01 X-55.7768 Y21.8221 
G01 X-55.7768 Y21.3579 
G01 X-55.5992 Y20.9291 
G01 X-55.2709 Y20.6008 
G01 X-55.0038 Y20.4902 
G01 X-54.9569 Y20.5752 
G01 X-54.8791 Y20.6563 
G01 X-54.8610 Y20.6672 
G01 X-54.8883 Y20.6727 
G01 X-55.0619 Y20.7446 
G01 X-55.2181 Y20.8490 
G01 X-55.3510 Y20.9819 
G01 X-55.4554 Y21.1381 
G01 X-55.5273 Y21.3117 
G01 X-55.5640 Y21.4960 
G01 X-55.5640 Y21.6840 
G01 X-55.5273 Y21.8683 
G01 X-55.4554 Y22.0419 
G01 X-55.3510 Y22.1981 
G01 X-55.2181 Y22.3310 
G01 X-55.0619 Y22.4354 
G01 X-54.8883 Y22.5073 
G01 X-54.7040 Y22.5440 
G01 X-54.5160 Y22.5440 
G01 X-54.3317 Y22.5073 
G01 X-54.1581 Y22.4354 
G01 X-54.0019 Y22.3310 
G01 X-53.8690 Y22.1981 
G01 X-53.7646 Y22.0419 
G01 X-53.6927 Y21.8683 
G01 X-53.6560 Y21.6840 
G01 X-53.6560 Y21.4960 
G01 X-53.6927 Y21.3117 
G01 X-53.7646 Y21.1381 
G01 X-53.8690 Y20.9819 
G01 X-54.0019 Y20.8490 
G01 X-54.1581 Y20.7446 
G01 X-54.3317 Y20.6727 
G01 X-54.3563 Y20.6678 
G01 X-54.1121 Y20.5333 
G01 X-53.9491 Y20.6008 
G01 X-53.8014 Y20.7485 
G01 X-53.7164 Y20.7976 
G01 X-53.6866 Y20.8148 
G01 X-53.6139 Y20.8343 
G01 X-53.5587 Y20.8491 
G01 X-53.4261 Y20.8491 
G01 X-53.2982 Y20.8148 
G01 X-53.2151 Y20.7668 
G01 X-53.1834 Y20.7485 
G01 X-53.0897 Y20.6548 
G01 X-53.0407 Y20.5699 
G01 X-53.0235 Y20.5401 
G01 X-53.0040 Y20.4674 
G01 X-52.9892 Y20.4121 
G01 X-52.9892 Y19.2973 
G01 X-52.9404 Y19.2105 
G01 X-52.9124 Y19.1016 
G01 X-52.9136 Y18.9892 
G01 X-52.9439 Y18.8809 
G01 X-52.9892 Y18.8044 
G01 X-52.9892 Y17.8661 
G01 X-53.0235 Y17.7382 
G01 X-53.0897 Y17.6234 
G01 X-53.1834 Y17.5297 
G01 X-53.2982 Y17.4635 
G01 X-53.4261 Y17.4292 
G01 X-53.6471 Y17.4292 
G01 X-53.6801 Y17.4249 
G01 X-53.7130 Y17.4292 
G01 X-53.7463 Y17.4292 
G01 X-53.7784 Y17.4378 
G01 X-53.8114 Y17.4422 
G01 X-53.8421 Y17.4549 
G01 X-53.8743 Y17.4635 
G01 X-53.9031 Y17.4801 
G01 X-54.2271 Y17.6143 
G01 X-54.2713 Y17.6287 
G01 X-54.2881 Y17.6396 
G01 X-54.3066 Y17.6472 
G01 X-54.3434 Y17.6755 
G01 X-54.3824 Y17.7009 
G01 X-54.3958 Y17.7157 
G01 X-54.4117 Y17.7279 
G01 X-54.4400 Y17.7648 
G01 X-54.4711 Y17.7993 
G01 X-54.4802 Y17.8172 
G01 X-54.4923 Y17.8330 
G01 X-54.5101 Y17.8760 
G01 X-54.5312 Y17.9174 
G01 X-54.5354 Y17.9370 
G01 X-54.5430 Y17.9554 
G01 X-54.5491 Y18.0015 
G01 X-54.5588 Y18.0470 
G01 X-54.5577 Y18.0670 
G01 X-54.5603 Y18.0868 
G01 X-54.5591 Y18.0960 
G01 X-54.6609 Y18.0960 
G01 X-54.6597 Y18.0868 
G01 X-54.6623 Y18.0670 
G01 X-54.6612 Y18.0470 
G01 X-54.6709 Y18.0015 
G01 X-54.6770 Y17.9554 
G01 X-54.6846 Y17.9370 
G01 X-54.6888 Y17.9174 
G01 X-54.7099 Y17.8760 
G01 X-54.7277 Y17.8330 
G01 X-54.7398 Y17.8172 
G01 X-54.7489 Y17.7993 
G01 X-54.7800 Y17.7648 
G01 X-54.8083 Y17.7279 
G01 X-54.8242 Y17.7157 
G01 X-54.8376 Y17.7009 
G01 X-54.8766 Y17.6755 
G01 X-54.9134 Y17.6472 
G01 X-54.9319 Y17.6396 
G01 X-54.9487 Y17.6287 
G01 X-54.9929 Y17.6143 
G01 X-55.2709 Y17.4992 
G01 X-55.5992 Y17.1709 
G01 X-55.7768 Y16.7421 
G01 X-55.7768 Y16.2779 
G01 X-55.5992 Y15.8491 
G01 X-55.2709 Y15.5208 
G01 X-54.8421 Y15.3432 
G01 X-54.3779 Y15.3432 
G01 X-53.9031 Y15.5399 
G01 X-53.8743 Y15.5565 
G01 X-53.8421 Y15.5651 
G01 X-53.8114 Y15.5778 
G01 X-53.7784 Y15.5822 
G01 X-53.7463 Y15.5908 
G01 X-53.7130 Y15.5908 
G01 X-53.6801 Y15.5951 
G01 X-53.6471 Y15.5908 
G01 X-51.9153 Y15.5908 
G01 X-51.8825 Y15.5820 
G01 X-51.7873 Y15.5565 
G01 X-51.7557 Y15.5382 
G01 X-51.6726 Y15.4903 
G01 X-51.5796 Y15.3973 
G01 X-51.5617 Y15.3667 
G01 X-51.5127 Y15.2818 
G01 X-51.4784 Y15.1538 
G01 X-51.4784 Y15.0213 
G01 X-51.4872 Y14.9885 
G01 X-51.5127 Y14.8934 
G01 X-51.5310 Y14.8617 
G01 X-51.5789 Y14.7786 
G01 X-51.7437 Y14.6138 
G01 X-51.9060 Y14.2220 
G01 X-51.9060 Y13.7980 
G01 X-51.8101 Y13.5665 
G01 X-51.7935 Y13.5377 
G01 X-51.7849 Y13.5055 
G01 X-51.7722 Y13.4748 
G01 X-51.7678 Y13.4419 
G01 X-51.7592 Y13.4097 
G01 X-51.7592 Y13.3764 
G01 X-51.7549 Y13.3435 
G01 X-51.7592 Y13.3105 
G01 X-51.7592 Y12.2698 
G01 X-51.7935 Y12.1418 
G01 X-51.8597 Y12.0270 
G01 X-51.9534 Y11.9333 
G01 X-52.0338 Y11.8530 
G01 X-52.2481 Y11.3354 
G01 X-52.2481 Y8.9845 
G01 X-52.0338 Y8.4670 
G01 X-51.6377 Y8.0709 
G01 X-51.1201 Y7.8565 
G01 X-50.5599 Y7.8565 
G01 X-50.0423 Y8.0709 
G01 X-49.6462 Y8.4670 
G01 X-49.4318 Y8.9845 
G01 X-49.4318 Y11.3354 
G01 X-49.6462 Y11.8530 
G01 X-49.8203 Y12.0270 
G01 X-49.8865 Y12.1418 
G01 X-49.9208 Y12.2698 
G01 X-49.9208 Y13.3105 
G01 X-49.9251 Y13.3435 
G01 X-49.9208 Y13.3764 
G01 X-49.9208 Y13.4097 
G01 X-49.9122 Y13.4419 
G01 X-49.9078 Y13.4748 
G01 X-49.8951 Y13.5055 
G01 X-49.8865 Y13.5377 
G01 X-49.8699 Y13.5665 
G01 X-49.7740 Y13.7980 
G01 X-49.7740 Y14.2220 
G01 X-49.9363 Y14.6138 
G01 X-50.1011 Y14.7786 
G01 X-50.1501 Y14.8636 
G01 X-50.1673 Y14.8934 
G01 X-50.1920 Y14.9856 
G01 X-50.2016 Y15.0213 
G01 X-50.2016 Y15.1538 
G01 X-50.1673 Y15.2818 
G01 X-50.1194 Y15.3649 
G01 X-50.1011 Y15.3966 
G01 X-50.0074 Y15.4903 
G01 X-49.9225 Y15.5393 
G01 X-49.8927 Y15.5565 
G01 X-49.8004 Y15.5812 
G01 X-49.7647 Y15.5908 
G01 X-47.4501 Y15.5908 
G01 X-47.4171 Y15.5951 
G01 X-47.3842 Y15.5908 
G01 X-47.3509 Y15.5908 
G01 X-47.3188 Y15.5822 
G01 X-47.2858 Y15.5778 
G01 X-47.2726 Y15.5724 
G01 X-47.0761 Y15.5724 
G01 X-46.9482 Y15.5381 
G01 X-46.8334 Y15.4719 
G01 X-46.7397 Y15.3782 
G01 X-46.6735 Y15.2634 
G01 X-46.6392 Y15.1354 
G01 X-46.6392 Y12.3898 
G01 X-46.6735 Y12.2618 
G01 X-46.7397 Y12.1470 
G01 X-46.8334 Y12.0533 
G01 X-47.0338 Y11.8530 
G01 X-47.2481 Y11.3354 
G01 X-47.2481 Y8.9845 
G01 X-47.0338 Y8.4670 
G01 X-46.6377 Y8.0709 
G01 X-46.1201 Y7.8565 
G01 X-45.5599 Y7.8565 
G01 X-45.0423 Y8.0709 
G01 X-44.6462 Y8.4670 
G01 X-44.4318 Y8.9845 
G01 X-44.4318 Y11.3354 
G01 X-44.6462 Y11.8530 
G01 X-44.7003 Y11.9070 
G01 X-44.7665 Y12.0218 
G01 X-44.8008 Y12.1498 
G01 X-44.8008 Y15.1538 
G01 X-44.7665 Y15.2818 
G01 X-44.7003 Y15.3966 
G01 X-44.6066 Y15.4903 
G01 X-44.4918 Y15.5565 
G01 X-44.3638 Y15.5908 
G01 X-42.9453 Y15.5908 
G01 X-42.9125 Y15.5820 
G01 X-42.8173 Y15.5565 
G01 X-42.7674 Y15.5277 
G01 X-42.7026 Y15.4903 
G01 X-42.6089 Y15.3966 
G01 X-42.5675 Y15.3247 
G01 X-42.5427 Y15.2818 
G01 X-42.5084 Y15.1538 
G01 X-42.5084 Y15.0213 
G01 X-42.5172 Y14.9885 
G01 X-42.5427 Y14.8934 
G01 X-42.5715 Y14.8434 
G01 X-42.6089 Y14.7786 
G01 X-42.8137 Y14.5738 
G01 X-42.9760 Y14.1820 
G01 X-42.9760 Y13.7580 
G01 X-42.8137 Y13.3662 
G01 X-42.5138 Y13.0663 
G01 X-42.4303 Y13.0317 
G01 X-42.3737 Y13.0083 
G01 X-42.3179 Y12.9654 
G01 X-42.2686 Y12.9276 
G01 X-42.2285 Y12.8754 
G01 X-39.3969 Y9.1871 
G01 X-39.3733 Y9.1635 
G01 X-39.3567 Y9.1347 
G01 X-39.3365 Y9.1084 
G01 X-39.3238 Y9.0776 
G01 X-39.3071 Y9.0488 
G01 X-39.2985 Y9.0167 
G01 X-39.2858 Y8.9860 
G01 X-39.2814 Y8.9530 
G01 X-39.2728 Y8.9208 
G01 X-39.2728 Y8.8876 
G01 X-39.2685 Y8.8547 
G01 X-39.2728 Y8.8216 
G01 X-39.2728 Y6.4880 
G01 X-39.1947 Y6.2995 
G01 X-39.0505 Y6.1553 
G01 X-38.8620 Y6.0772 
G01 X-37.1580 Y6.0772 
G01 X-36.9695 Y6.1553 
G01 X-36.8253 Y6.2995 
G01 X-36.7472 Y6.4880 
G01 X-36.7472 Y11.2910 
G01 X-36.7586 Y11.3176 
G01 X-36.7590 Y11.3204 
G01 X-36.7600 Y11.3230 
G01 X-36.7683 Y11.3858 
G01 X-36.7773 Y11.4488 
G01 X-36.7770 Y11.4515 
G01 X-36.7773 Y11.4543 
G01 X-36.7690 Y11.5172 
G01 X-36.7614 Y11.5803 
G01 X-36.7604 Y11.5829 
G01 X-36.7600 Y11.5857 
G01 X-36.7357 Y11.6445 
G01 X-36.7121 Y11.7033 
G01 X-36.7093 Y11.7081 
G01 X-36.6706 Y11.7586 
G01 X-36.6326 Y11.8093 
G01 X-36.6287 Y11.8132 
G01 X-36.5783 Y11.8519 
G01 X-36.5284 Y11.8911 
G01 X-36.5258 Y11.8922 
G01 X-36.4649 Y11.9182 
G01 X-36.4065 Y11.9431 
G01 X-36.4037 Y11.9435 
G01 X-36.4012 Y11.9446 
G01 X-36.3383 Y11.9528 
G01 X-36.2754 Y11.9618 
G01 X-36.2726 Y11.9615 
G01 X-36.2698 Y11.9619 
G01 X-36.2069 Y11.9536 
G01 X-36.1438 Y11.9460 
G01 X-36.1412 Y11.9450 
G01 X-36.1384 Y11.9446 
G01 X-36.0796 Y11.9202 
G01 X-36.0209 Y11.8966 
G01 X-36.0160 Y11.8939 
G01 X-35.9655 Y11.8552 
G01 X-35.6110 Y11.7642 
G01 X-35.2490 Y11.8159 
G01 X-35.1983 Y11.8459 
G01 X-35.1955 Y11.8467 
G01 X-35.1317 Y11.8646 
G01 X-35.0707 Y11.8816 
G01 X-35.0678 Y11.8817 
G01 X-35.0651 Y11.8824 
G01 X-35.0016 Y11.8824 
G01 X-34.9382 Y11.8831 
G01 X-34.9355 Y11.8824 
G01 X-34.8097 Y11.8824 
G01 X-34.6818 Y11.8481 
G01 X-34.5670 Y11.7819 
G01 X-34.4733 Y11.6882 
G01 X-34.4071 Y11.5734 
G01 X-34.3728 Y11.4454 
G01 X-34.3728 Y6.4880 
G01 X-34.2947 Y6.2995 
G01 X-34.1505 Y6.1553 
G01 X-33.9620 Y6.0772 
G01 X-32.2580 Y6.0772 
G01 X-32.0695 Y6.1553 
G01 X-31.9253 Y6.2995 
G01 X-31.8472 Y6.4880 
G01 X-31.8472 Y8.7644 
G01 X-31.8129 Y8.8923 
G01 X-31.7467 Y9.0071 
G01 X-31.6530 Y9.1008 
G01 X-31.5119 Y9.2419 
G01 X-31.3971 Y9.3081 
G01 X-31.2691 Y9.3424 
G01 X-20.5964 Y9.3424 
G01 X-20.5634 Y9.3467 
G01 X-20.5304 Y9.3424 
G01 X-20.4971 Y9.3424 
G01 X-20.4650 Y9.3338 
G01 X-20.4320 Y9.3294 
G01 X-20.4013 Y9.3167 
G01 X-20.3692 Y9.3081 
G01 X-20.3404 Y9.2915 
G01 X-20.3096 Y9.2787 
G01 X-20.2832 Y9.2585 
G01 X-20.2544 Y9.2419 
G01 X-20.2309 Y9.2183 
G01 X-20.2045 Y9.1981 
G01 X-20.1843 Y9.1717 
G01 X-20.1607 Y9.1482 
G01 X-20.1441 Y9.1194 
G01 X-20.1239 Y9.0930 
G01 X-20.1111 Y9.0622 
G01 X-20.0945 Y9.0334 
G01 X-20.0859 Y9.0013 
G01 X-20.0147 Y8.8295 
G01 X-19.8705 Y8.6853 
G01 X-19.6820 Y8.6072 
G01 X-15.8780 Y8.6072 
G01 X-15.6895 Y8.6853 
G01 X-15.5453 Y8.8295 
G01 X-15.4672 Y9.0180 
G01 X-15.4672 Y9.5174 
G01 X-15.4715 Y9.5497 
G01 X-15.4672 Y9.5833 
G01 X-15.4672 Y9.6172 
G01 X-15.4587 Y9.6488 
G01 X-15.4546 Y9.6811 
G01 X-15.4417 Y9.7125 
G01 X-15.4329 Y9.7452 
G01 X-15.4166 Y9.7735 
G01 X-15.4042 Y9.8037 
G01 X-15.3836 Y9.8306 
G01 X-15.3667 Y9.8599 
G01 X-15.3436 Y9.8830 
G01 X-13.1900 Y12.7036 
G01 X-13.1731 Y12.7330 
G01 X-13.1500 Y12.7561 
G01 X-13.1302 Y12.7820 
G01 X-13.1033 Y12.8027 
G01 X-13.0794 Y12.8267 
G01 X-13.0511 Y12.8430 
G01 X-13.0253 Y12.8629 
G01 X-12.9940 Y12.8760 
G01 X-12.9647 Y12.8929 
G01 X-12.9331 Y12.9014 
G01 X-12.9030 Y12.9139 
G01 X-12.8694 Y12.9184 
G01 X-12.8367 Y12.9272 
G01 X-12.8040 Y12.9272 
G01 X-12.7717 Y12.9315 
G01 X-12.7381 Y12.9272 
G01 X-11.5161 Y12.9272 
G01 X-11.3882 Y12.8929 
G01 X-11.2734 Y12.8267 
G01 X-11.1797 Y12.7330 
G01 X-11.1469 Y12.6761 
G01 X-11.1429 Y12.6708 
G01 X-11.1403 Y12.6647 
G01 X-11.1135 Y12.6182 
G01 X-11.0996 Y12.5664 
G01 X-11.0661 Y12.4856 
G01 X-11.0488 Y12.3543 
G01 X-11.0661 Y12.2229 
G01 X-11.1168 Y12.1005 
G01 X-11.1328 Y12.0620 
G01 X-11.1328 Y10.1971 
G01 X-11.1286 Y10.1694 
G01 X-11.1328 Y10.1311 
G01 X-11.1328 Y10.0926 
G01 X-11.1401 Y10.0655 
G01 X-11.1431 Y10.0377 
G01 X-11.1571 Y10.0018 
G01 X-11.1671 Y9.9646 
G01 X-11.1811 Y9.9404 
G01 X-11.1913 Y9.9143 
G01 X-11.2141 Y9.8832 
G01 X-11.2333 Y9.8499 
G01 X-11.2531 Y9.8301 
G01 X-13.6880 Y6.5168 
G01 X-13.7072 Y6.4834 
G01 X-13.7270 Y6.4636 
G01 X-13.7436 Y6.4410 
G01 X-13.7737 Y6.4169 
G01 X-13.8009 Y6.3897 
G01 X-13.8252 Y6.3757 
G01 X-13.8471 Y6.3582 
G01 X-13.8823 Y6.3427 
G01 X-13.9157 Y6.3235 
G01 X-13.9427 Y6.3162 
G01 X-13.9684 Y6.3050 
G01 X-14.0064 Y6.2992 
G01 X-14.0436 Y6.2892 
G01 X-14.0717 Y6.2892 
G01 X-14.0994 Y6.2850 
G01 X-14.1376 Y6.2892 
G01 X-15.2818 Y6.2892 
G01 X-15.4098 Y6.3235 
G01 X-15.5245 Y6.3897 
G01 X-15.6182 Y6.4834 
G01 X-15.6895 Y6.5547 
G01 X-15.8780 Y6.6328 
G01 X-19.6820 Y6.6328 
G01 X-19.8705 Y6.5547 
G01 X-20.0147 Y6.4105 
G01 X-20.0438 Y6.3403 
G01 X-20.0524 Y6.3082 
G01 X-20.0690 Y6.2794 
G01 X-20.0818 Y6.2486 
G01 X-20.1020 Y6.2222 
G01 X-20.1187 Y6.1934 
G01 X-20.1422 Y6.1699 
G01 X-20.1624 Y6.1435 
G01 X-20.1888 Y6.1232 
G01 X-20.2123 Y6.0997 
G01 X-20.2411 Y6.0831 
G01 X-20.2675 Y6.0629 
G01 X-20.2983 Y6.0501 
G01 X-20.3271 Y6.0335 
G01 X-20.3592 Y6.0249 
G01 X-20.3899 Y6.0122 
G01 X-20.4229 Y6.0078 
G01 X-20.4551 Y5.9992 
G01 X-20.4883 Y5.9992 
G01 X-20.5213 Y5.9949 
G01 X-20.5543 Y5.9992 
G01 X-22.5202 Y5.9992 
G01 X-22.6482 Y6.0335 
G01 X-22.7630 Y6.0997 
G01 X-22.8567 Y6.1934 
G01 X-22.9229 Y6.3082 
G01 X-22.9572 Y6.4361 
G01 X-22.9572 Y7.4820 
G01 X-23.0353 Y7.6705 
G01 X-23.1795 Y7.8147 
G01 X-23.3680 Y7.8928 
G01 X-25.0720 Y7.8928 
G01 X-25.2605 Y7.8147 
G01 X-25.4047 Y7.6705 
G01 X-25.4828 Y7.4820 
G01 X-25.4828 Y2.6780 
G01 X-25.4047 Y2.4895 
G01 X-25.2605 Y2.3453 
G01 X-25.0720 Y2.2672 
G01 X-23.3680 Y2.2672 
G01 X-23.1795 Y2.3453 
G01 X-23.0353 Y2.4895 
G01 X-22.9572 Y2.6780 
G01 X-22.9572 Y3.7238 
G01 X-22.9229 Y3.8518 
G01 X-22.8567 Y3.9666 
G01 X-22.7630 Y4.0603 
G01 X-22.6482 Y4.1265 
G01 X-22.5202 Y4.1608 
G01 X-19.9445 Y4.1608 
G01 X-19.9115 Y4.1651 
G01 X-19.8785 Y4.1608 
G01 X-19.8452 Y4.1608 
G01 X-19.8131 Y4.1522 
G01 X-19.7801 Y4.1478 
G01 X-19.7494 Y4.1351 
G01 X-19.7173 Y4.1265 
G01 X-19.6885 Y4.1099 
G01 X-19.6820 Y4.1072 
G01 X-15.8780 Y4.1072 
G01 X-15.6895 Y4.1853 
G01 X-15.5245 Y4.3503 
G01 X-15.4098 Y4.4165 
G01 X-15.2818 Y4.4508 
G01 X-13.5674 Y4.4508 
G01 X-13.5065 Y4.4521 
G01 X-13.5013 Y4.4508 
G01 X-13.4960 Y4.4508 
G01 X-13.4370 Y4.4350 
G01 X-13.4319 Y4.4337 
G01 X-13.3854 Y4.4408 
G01 X-13.3482 Y4.4508 
G01 X-13.3201 Y4.4508 
G01 X-13.2925 Y4.4550 
G01 X-13.2542 Y4.4508 
G01 X-13.2072 Y4.4508 
G01 X-13.2022 Y4.4528 
G01 X-13.1463 Y4.4774 
G01 X-13.1411 Y4.4782 
G01 X-13.1362 Y4.4802 
G01 X-13.0758 Y4.4882 
G01 X-13.0704 Y4.4890 
G01 X-13.0301 Y4.5133 
G01 X-12.9996 Y4.5368 
G01 X-12.9737 Y4.5475 
G01 X-12.9497 Y4.5620 
G01 X-12.9128 Y4.5727 
G01 X-12.8693 Y4.5907 
G01 X-12.8656 Y4.5945 
G01 X-12.8233 Y4.6386 
G01 X-12.8187 Y4.6413 
G01 X-12.8150 Y4.6450 
G01 X-12.7622 Y4.6755 
G01 X-12.7576 Y4.6783 
G01 X-12.7297 Y4.7163 
G01 X-12.7104 Y4.7496 
G01 X-12.6907 Y4.7694 
G01 X-12.6740 Y4.7920 
G01 X-12.6440 Y4.8161 
G01 X-12.6107 Y4.8493 
G01 X-12.6087 Y4.8542 
G01 X-12.5865 Y4.9111 
G01 X-12.5834 Y4.9154 
G01 X-12.5813 Y4.9203 
G01 X-12.5442 Y4.9687 
G01 X-10.5961 Y7.6196 
G01 X-10.5769 Y7.6530 
G01 X-10.5571 Y7.6728 
G01 X-10.5405 Y7.6954 
G01 X-10.5104 Y7.7194 
G01 X-10.4832 Y7.7467 
G01 X-10.4589 Y7.7607 
G01 X-10.4370 Y7.7782 
G01 X-10.4018 Y7.7937 
G01 X-10.3684 Y7.8129 
G01 X-10.3414 Y7.8202 
G01 X-10.3157 Y7.8314 
G01 X-10.2777 Y7.8372 
G01 X-10.2405 Y7.8472 
G01 X-10.2124 Y7.8472 
G01 X-10.1847 Y7.8514 
G01 X-10.1465 Y7.8472 
G01 X-9.0180 Y7.8472 
G01 X-8.8295 Y7.9253 
G00 Z2.5400 
G00 X-8.8799 Y8.1758 
G01 Z-0.1200 F254.00 
G01 X-8.9358 Y8.1199 F508.00 
G01 X-9.0042 Y8.0804 
G01 X-9.0805 Y8.0600 
G01 X-10.5366 Y8.0600 
G01 X-12.8114 Y4.9644 
G01 X-12.8413 Y4.9197 
G01 X-12.8525 Y4.9085 
G01 X-12.8620 Y4.8956 
G01 X-12.9017 Y4.8593 
G01 X-12.9397 Y4.8213 
G01 X-12.9529 Y4.8125 
G01 X-12.9647 Y4.8017 
G01 X-13.0107 Y4.7739 
G01 X-13.0554 Y4.7440 
G01 X-13.0701 Y4.7379 
G01 X-13.0837 Y4.7297 
G01 X-13.1343 Y4.7113 
G01 X-13.1839 Y4.6907 
G01 X-13.1996 Y4.6876 
G01 X-13.2145 Y4.6822 
G01 X-13.2677 Y4.6741 
G01 X-13.3204 Y4.6636 
G01 X-13.3363 Y4.6636 
G01 X-13.3521 Y4.6612 
G01 X-13.4058 Y4.6636 
G01 X-15.6800 Y4.6636 
G01 X-15.6800 Y4.5805 
G01 X-15.7004 Y4.5042 
G01 X-15.7399 Y4.4358 
G01 X-15.7958 Y4.3799 
G01 X-15.8642 Y4.3404 
G01 X-15.9405 Y4.3200 
G01 X-19.6195 Y4.3200 
G01 X-19.6958 Y4.3404 
G01 X-19.7532 Y4.3736 
G01 X-23.1700 Y4.3736 
G01 X-23.1700 Y2.7405 
G01 X-23.1904 Y2.6642 
G01 X-23.2299 Y2.5958 
G01 X-23.2858 Y2.5399 
G01 X-23.3542 Y2.5004 
G01 X-23.4305 Y2.4800 
G01 X-25.0095 Y2.4800 
G01 X-25.0858 Y2.5004 
G01 X-25.1542 Y2.5399 
G01 X-25.2101 Y2.5958 
G01 X-25.2496 Y2.6642 
G01 X-25.2700 Y2.7405 
G01 X-25.2700 Y7.4195 
G01 X-25.2496 Y7.4958 
G01 X-25.2101 Y7.5642 
G01 X-25.1542 Y7.6201 
G01 X-25.0858 Y7.6596 
G01 X-25.0095 Y7.6800 
G01 X-23.4305 Y7.6800 
G01 X-23.3542 Y7.6596 
G01 X-23.2858 Y7.6201 
G01 X-23.2299 Y7.5642 
G01 X-23.1904 Y7.4958 
G01 X-23.1700 Y7.4195 
G01 X-23.1700 Y5.7864 
G01 X-19.8800 Y5.7864 
G01 X-19.8800 Y6.1595 
G01 X-19.8596 Y6.2358 
G01 X-19.8201 Y6.3042 
G01 X-19.7642 Y6.3601 
G01 X-19.6958 Y6.3996 
G01 X-19.6195 Y6.4200 
G01 X-15.9405 Y6.4200 
G01 X-15.8642 Y6.3996 
G01 X-15.7958 Y6.3601 
G01 X-15.7399 Y6.3042 
G01 X-15.7004 Y6.2358 
G01 X-15.6800 Y6.1595 
G01 X-15.6800 Y6.0764 
G01 X-13.7475 Y6.0764 
G01 X-10.9200 Y9.9241 
G01 X-10.9200 Y11.9995 
G01 X-10.8996 Y12.0758 
G01 X-10.8601 Y12.1442 
G01 X-10.8042 Y12.2001 
G01 X-10.7358 Y12.2396 
G01 X-10.7064 Y12.2474 
G01 X-10.7860 Y12.3654 
G01 X-10.8392 Y12.4939 
G01 X-10.8664 Y12.6304 
G01 X-10.8664 Y17.7378 
G01 X-10.9060 Y17.7774 
G01 X-11.0111 Y17.9347 
G01 X-11.0835 Y18.1095 
G01 X-11.1204 Y18.2950 
G01 X-11.1204 Y19.8050 
G01 X-11.0835 Y19.9905 
G01 X-11.0111 Y20.1653 
G01 X-10.9060 Y20.3226 
G01 X-10.7722 Y20.4564 
G01 X-10.6149 Y20.5615 
G01 X-10.4401 Y20.6339 
G01 X-10.2546 Y20.6708 
G01 X-10.0654 Y20.6708 
G01 X-9.8799 Y20.6339 
G01 X-9.7051 Y20.5615 
G01 X-9.5478 Y20.4564 
G01 X-9.4140 Y20.3226 
G01 X-9.3089 Y20.1653 
G01 X-9.2365 Y19.9905 
G01 X-9.1996 Y19.8050 
G01 X-9.1996 Y18.2950 
G01 X-9.2365 Y18.1095 
G01 X-9.3089 Y17.9347 
G01 X-9.4140 Y17.7774 
G01 X-9.4536 Y17.7378 
G01 X-9.4536 Y12.6304 
G01 X-9.4757 Y12.5191 
G01 X-9.3991 Y12.2600 
G01 X-9.0805 Y12.2600 
G01 X-9.0042 Y12.2396 
G01 X-8.9358 Y12.2001 
G01 X-8.8799 Y12.1442 
G01 X-8.8404 Y12.0758 
G01 X-8.8200 Y11.9995 
G01 X-8.8200 Y8.3205 
G01 X-8.8404 Y8.2442 
G01 X-8.8799 Y8.1758 
G00 Z2.5400 
G00 X-11.4199 Y13.2558 
G01 Z-0.1200 F254.00 
G01 X-11.4758 Y13.1999 F508.00 
G01 X-11.5442 Y13.1604 
G01 X-11.6205 Y13.1400 
G01 X-13.1246 Y13.1400 
G01 X-15.6800 Y9.7930 
G01 X-15.6800 Y9.0805 
G01 X-15.7004 Y9.0042 
G01 X-15.7399 Y8.9358 
G01 X-15.7958 Y8.8799 
G01 X-15.8642 Y8.8404 
G01 X-15.9405 Y8.8200 
G01 X-19.6195 Y8.8200 
G01 X-19.6958 Y8.8404 
G01 X-19.7642 Y8.8799 
G01 X-19.8201 Y8.9358 
G01 X-19.8596 Y9.0042 
G01 X-19.8800 Y9.0805 
G01 X-19.8800 Y9.5552 
G01 X-31.4995 Y9.5552 
G01 X-32.0600 Y8.9947 
G01 X-32.0600 Y6.5505 
G01 X-32.0804 Y6.4742 
G01 X-32.1199 Y6.4058 
G01 X-32.1758 Y6.3499 
G01 X-32.2442 Y6.3104 
G01 X-32.3205 Y6.2900 
G01 X-33.8995 Y6.2900 
G01 X-33.9758 Y6.3104 
G01 X-34.0442 Y6.3499 
G01 X-34.1001 Y6.4058 
G01 X-34.1396 Y6.4742 
G01 X-34.1600 Y6.5505 
G01 X-34.1600 Y11.2295 
G01 X-34.1396 Y11.3058 
G01 X-34.1001 Y11.3742 
G01 X-34.0442 Y11.4301 
G01 X-33.9758 Y11.4696 
G01 X-33.8995 Y11.4900 
G01 X-32.3205 Y11.4900 
G01 X-32.2442 Y11.4696 
G01 X-32.1758 Y11.4301 
G01 X-32.1199 Y11.3742 
G01 X-32.0804 Y11.3058 
G01 X-32.0600 Y11.2295 
G01 X-32.0600 Y10.6802 
G01 X-32.0365 Y10.6960 
G01 X-31.9264 Y10.7416 
G01 X-31.8096 Y10.7648 
G01 X-19.8428 Y10.7648 
G01 X-19.8201 Y10.8042 
G01 X-19.7642 Y10.8601 
G01 X-19.6958 Y10.8996 
G01 X-19.6195 Y10.9200 
G01 X-16.5971 Y10.9200 
G01 X-13.4600 Y15.0288 
G01 X-13.4600 Y17.0795 
G01 X-13.4396 Y17.1558 
G01 X-13.4064 Y17.2132 
G01 X-13.4064 Y17.7378 
G01 X-13.4460 Y17.7774 
G01 X-13.5511 Y17.9347 
G01 X-13.6235 Y18.1095 
G01 X-13.6604 Y18.2950 
G01 X-13.6604 Y19.8050 
G01 X-13.6235 Y19.9905 
G01 X-13.5511 Y20.1653 
G01 X-13.4460 Y20.3226 
G01 X-13.3122 Y20.4564 
G01 X-13.1549 Y20.5615 
G01 X-12.9801 Y20.6339 
G01 X-12.7946 Y20.6708 
G01 X-12.6054 Y20.6708 
G01 X-12.4199 Y20.6339 
G01 X-12.2451 Y20.5615 
G01 X-12.0878 Y20.4564 
G01 X-11.9540 Y20.3226 
G01 X-11.8489 Y20.1653 
G01 X-11.7765 Y19.9905 
G01 X-11.7396 Y19.8050 
G01 X-11.7396 Y18.2950 
G01 X-11.7765 Y18.1095 
G01 X-11.8489 Y17.9347 
G01 X-11.9540 Y17.7774 
G01 X-11.9936 Y17.7378 
G01 X-11.9936 Y17.3400 
G01 X-11.6205 Y17.3400 
G01 X-11.5442 Y17.3196 
G01 X-11.4758 Y17.2801 
G01 X-11.4199 Y17.2242 
G01 X-11.3804 Y17.1558 
G01 X-11.3600 Y17.0795 
G01 X-11.3600 Y13.4005 
G01 X-11.3804 Y13.3242 
G01 X-11.4199 Y13.2558 
G00 Z2.5400 
G00 X-14.4940 Y17.7774 
G01 Z-0.1200 F254.00 
G01 X-14.6278 Y17.6436 F508.00 
G01 X-14.7851 Y17.5385 
G01 X-14.9599 Y17.4661 
G01 X-15.1454 Y17.4292 
G01 X-15.3346 Y17.4292 
G01 X-15.5201 Y17.4661 
G01 X-15.6949 Y17.5385 
G01 X-15.8522 Y17.6436 
G01 X-15.9860 Y17.7774 
G01 X-16.0911 Y17.9347 
G01 X-16.1635 Y18.1095 
G01 X-16.2004 Y18.2950 
G01 X-16.2004 Y18.3436 
G01 X-19.5957 Y18.3436 
G01 X-19.6326 Y18.3067 
G01 X-19.7010 Y18.2672 
G01 X-19.7152 Y18.2634 
G01 X-19.7152 Y16.4504 
G01 X-19.7384 Y16.3336 
G01 X-19.7840 Y16.2235 
G01 X-19.8502 Y16.1245 
G01 X-19.9345 Y16.0402 
G01 X-23.7445 Y12.2302 
G01 X-23.8435 Y12.1640 
G01 X-23.9536 Y12.1184 
G01 X-24.0704 Y12.0952 
G01 X-35.1950 Y12.0952 
G01 X-35.2600 Y12.0567 
G01 X-35.3912 Y12.0105 
G01 X-35.5290 Y11.9909 
G01 X-35.6679 Y11.9984 
G01 X-35.8027 Y12.0330 
G01 X-35.9282 Y12.0931 
G01 X-40.8755 Y15.8036 
G01 X-45.0136 Y15.8036 
G01 X-45.0136 Y11.9194 
G01 X-44.9282 Y11.8341 
G01 X-44.8176 Y11.6818 
G01 X-44.7322 Y11.5142 
G01 X-44.6741 Y11.3353 
G01 X-44.6446 Y11.1494 
G01 X-44.6446 Y9.1706 
G01 X-44.6741 Y8.9847 
G01 X-44.7322 Y8.8058 
G01 X-44.8176 Y8.6381 
G01 X-44.9282 Y8.4859 
G01 X-45.0613 Y8.3529 
G01 X-45.2135 Y8.2423 
G01 X-45.3811 Y8.1569 
G01 X-45.5601 Y8.0987 
G01 X-45.7459 Y8.0693 
G01 X-45.9341 Y8.0693 
G01 X-46.1199 Y8.0987 
G01 X-46.2989 Y8.1569 
G01 X-46.4665 Y8.2423 
G01 X-46.6187 Y8.3529 
G01 X-46.7518 Y8.4859 
G01 X-46.8624 Y8.6381 
G01 X-46.9478 Y8.8058 
G01 X-47.0059 Y8.9847 
G01 X-47.0353 Y9.1706 
G01 X-47.0353 Y11.1494 
G01 X-47.0059 Y11.3353 
G01 X-46.9478 Y11.5142 
G01 X-46.8624 Y11.6818 
G01 X-46.7518 Y11.8341 
G01 X-46.6187 Y11.9671 
G01 X-46.4665 Y12.0777 
G01 X-46.4264 Y12.0981 
G01 X-46.4264 Y15.8036 
G01 X-46.9579 Y15.8036 
G01 X-47.0504 Y15.7852 
G01 X-47.1696 Y15.7852 
G01 X-47.2621 Y15.8036 
G01 X-53.9672 Y15.8036 
G01 X-54.0019 Y15.7690 
G01 X-54.1581 Y15.6646 
G01 X-54.3317 Y15.5927 
G01 X-54.5160 Y15.5560 
G01 X-54.7040 Y15.5560 
G01 X-54.8883 Y15.5927 
G01 X-55.0619 Y15.6646 
G01 X-55.2181 Y15.7690 
G01 X-55.3510 Y15.9019 
G01 X-55.4554 Y16.0581 
G01 X-55.5273 Y16.2317 
G01 X-55.5640 Y16.4160 
G01 X-55.5640 Y16.6040 
G01 X-55.5273 Y16.7883 
G01 X-55.4554 Y16.9619 
G01 X-55.3510 Y17.1181 
G01 X-55.2181 Y17.2510 
G01 X-55.0619 Y17.3554 
G01 X-54.8883 Y17.4273 
G01 X-54.7040 Y17.4640 
G01 X-54.5160 Y17.4640 
G01 X-54.3317 Y17.4273 
G01 X-54.1581 Y17.3554 
G01 X-54.0019 Y17.2510 
G01 X-53.9672 Y17.2164 
G01 X-52.7764 Y17.2164 
G01 X-52.7764 Y27.2157 
G01 X-52.8133 Y27.2526 
G01 X-52.8528 Y27.3210 
G01 X-52.8732 Y27.3973 
G01 X-52.8732 Y28.4827 
G01 X-52.8528 Y28.5590 
G01 X-52.8133 Y28.6274 
G01 X-52.7574 Y28.6833 
G01 X-52.6890 Y28.7228 
G01 X-52.6127 Y28.7432 
G01 X-51.5273 Y28.7432 
G01 X-51.4510 Y28.7228 
G01 X-51.3826 Y28.6833 
G01 X-51.3267 Y28.6274 
G01 X-51.2872 Y28.5590 
G01 X-51.2668 Y28.4827 
G01 X-51.2668 Y27.3973 
G01 X-51.2872 Y27.3210 
G01 X-51.3267 Y27.2526 
G01 X-51.3636 Y27.2157 
G01 X-51.3636 Y17.2164 
G01 X-45.1564 Y17.2164 
G01 X-45.1564 Y23.1696 
G01 X-45.2050 Y23.1696 
G01 X-45.3905 Y23.2065 
G01 X-45.5653 Y23.2789 
G01 X-45.7226 Y23.3840 
G01 X-45.8564 Y23.5178 
G01 X-45.9615 Y23.6751 
G01 X-46.0339 Y23.8499 
G01 X-46.0708 Y24.0354 
G01 X-46.0708 Y24.2246 
G01 X-46.0339 Y24.4101 
G01 X-45.9615 Y24.5849 
G01 X-45.8564 Y24.7422 
G01 X-45.7226 Y24.8760 
G01 X-45.5653 Y24.9811 
G01 X-45.3905 Y25.0535 
G01 X-45.2050 Y25.0904 
G01 X-43.6950 Y25.0904 
G01 X-43.5095 Y25.0535 
G01 X-43.3347 Y24.9811 
G01 X-43.1774 Y24.8760 
G01 X-43.0436 Y24.7422 
G01 X-42.9385 Y24.5849 
G01 X-42.8661 Y24.4101 
G01 X-42.8292 Y24.2246 
G01 X-42.8292 Y24.0354 
G01 X-42.8661 Y23.8499 
G01 X-42.9385 Y23.6751 
G01 X-43.0436 Y23.5178 
G01 X-43.1774 Y23.3840 
G01 X-43.3347 Y23.2789 
G01 X-43.5095 Y23.2065 
G01 X-43.6950 Y23.1696 
G01 X-43.7436 Y23.1696 
G01 X-43.7436 Y17.2164 
G01 X-40.6902 Y17.2164 
G01 X-40.6710 Y17.2191 
G01 X-40.6208 Y17.2164 
G01 X-40.5704 Y17.2164 
G01 X-40.5514 Y17.2126 
G01 X-40.5321 Y17.2116 
G01 X-40.4833 Y17.1991 
G01 X-40.4340 Y17.1893 
G01 X-40.4161 Y17.1818 
G01 X-40.3973 Y17.1770 
G01 X-40.3519 Y17.1553 
G01 X-40.3054 Y17.1360 
G01 X-40.2893 Y17.1252 
G01 X-40.2718 Y17.1169 
G01 X-40.2315 Y17.0867 
G01 X-40.1897 Y17.0587 
G01 X-40.1760 Y17.0450 
G01 X-35.1891 Y13.3048 
G01 X-24.3805 Y13.3048 
G01 X-20.9248 Y16.7605 
G01 X-20.9248 Y18.2634 
G01 X-20.9390 Y18.2672 
G01 X-21.0074 Y18.3067 
G01 X-21.0633 Y18.3626 
G01 X-21.1028 Y18.4310 
G01 X-21.1232 Y18.5073 
G01 X-21.1232 Y19.5927 
G01 X-21.1028 Y19.6690 
G01 X-21.0633 Y19.7374 
G01 X-21.0074 Y19.7933 
G01 X-20.9390 Y19.8328 
G01 X-20.8627 Y19.8532 
G01 X-19.7773 Y19.8532 
G01 X-19.7010 Y19.8328 
G01 X-19.6326 Y19.7933 
G01 X-19.5957 Y19.7564 
G01 X-16.2004 Y19.7564 
G01 X-16.2004 Y19.8050 
G01 X-16.1635 Y19.9905 
G01 X-16.0911 Y20.1653 
G01 X-15.9860 Y20.3226 
G01 X-15.9464 Y20.3622 
G01 X-15.9464 Y21.6596 
G01 X-15.9192 Y21.7960 
G01 X-15.8660 Y21.9246 
G01 X-15.7887 Y22.0403 
G01 X-15.6903 Y22.1387 
G01 X-15.5746 Y22.2160 
G01 X-15.4460 Y22.2692 
G01 X-15.3096 Y22.2964 
G01 X-4.4618 Y22.2964 
G01 X-4.2078 Y22.5504 
G01 X-3.4122 Y22.5504 
G01 X-2.8496 Y21.9878 
G01 X-2.8496 Y21.1922 
G01 X-3.4122 Y20.6296 
G01 X-4.2078 Y20.6296 
G01 X-4.4618 Y20.8836 
G01 X-14.5336 Y20.8836 
G01 X-14.5336 Y20.3622 
G01 X-14.4940 Y20.3226 
G01 X-14.3889 Y20.1653 
G01 X-14.3165 Y19.9905 
G01 X-14.2796 Y19.8050 
G01 X-14.2796 Y18.2950 
G01 X-14.3165 Y18.1095 
G01 X-14.3889 Y17.9347 
G01 X-14.4940 Y17.7774 
G00 Z2.5400 
G00 X-14.4940 Y25.3974 
G01 Z-0.1200 F254.00 
G01 X-14.6278 Y25.2636 F508.00 
G01 X-14.7851 Y25.1585 
G01 X-14.9599 Y25.0861 
G01 X-15.1454 Y25.0492 
G01 X-15.3346 Y25.0492 
G01 X-15.5201 Y25.0861 
G01 X-15.6949 Y25.1585 
G01 X-15.8522 Y25.2636 
G01 X-15.9860 Y25.3974 
G01 X-16.0911 Y25.5547 
G01 X-16.1635 Y25.7295 
G01 X-16.2004 Y25.9150 
G01 X-16.2004 Y25.9636 
G01 X-19.1196 Y25.9636 
G01 X-19.2560 Y25.9907 
G01 X-19.3846 Y26.0440 
G01 X-19.5003 Y26.1213 
G01 X-19.5987 Y26.2197 
G01 X-19.6760 Y26.3354 
G01 X-19.7293 Y26.4640 
G01 X-19.7564 Y26.6004 
G01 X-19.7564 Y29.1832 
G01 X-19.7910 Y29.2179 
G01 X-19.8954 Y29.3741 
G01 X-19.9673 Y29.5477 
G01 X-20.0040 Y29.7320 
G01 X-20.0040 Y31.2280 
G01 X-19.9673 Y31.4123 
G01 X-19.8954 Y31.5859 
G01 X-19.7910 Y31.7421 
G01 X-19.6581 Y31.8750 
G01 X-19.5019 Y31.9794 
G01 X-19.3283 Y32.0513 
G01 X-19.1440 Y32.0880 
G01 X-18.9560 Y32.0880 
G01 X-18.7717 Y32.0513 
G01 X-18.5981 Y31.9794 
G01 X-18.4419 Y31.8750 
G01 X-18.3090 Y31.7421 
G01 X-18.2046 Y31.5859 
G01 X-18.1327 Y31.4123 
G01 X-18.0960 Y31.2280 
G01 X-18.0960 Y29.7320 
G01 X-18.1327 Y29.5477 
G01 X-18.2046 Y29.3741 
G01 X-18.3090 Y29.2179 
G01 X-18.3436 Y29.1832 
G01 X-18.3436 Y27.3764 
G01 X-16.2004 Y27.3764 
G01 X-16.2004 Y27.4250 
G01 X-16.1635 Y27.6105 
G01 X-16.0911 Y27.7853 
G01 X-15.9860 Y27.9426 
G01 X-15.8522 Y28.0764 
G01 X-15.6949 Y28.1815 
G01 X-15.5201 Y28.2539 
G01 X-15.3346 Y28.2908 
G01 X-15.1454 Y28.2908 
G01 X-14.9599 Y28.2539 
G01 X-14.7851 Y28.1815 
G01 X-14.6278 Y28.0764 
G01 X-14.4940 Y27.9426 
G01 X-14.3889 Y27.7853 
G01 X-14.3165 Y27.6105 
G01 X-14.2796 Y27.4250 
G01 X-14.2796 Y25.9150 
G01 X-14.3165 Y25.7295 
G01 X-14.3889 Y25.5547 
G01 X-14.4940 Y25.3974 
G00 Z2.5400 
G00 X-13.4460 Y25.3974 
G01 Z-0.1200 F254.00 
G01 X-13.5511 Y25.5547 F508.00 
G01 X-13.6235 Y25.7295 
G01 X-13.6604 Y25.9150 
G01 X-13.6604 Y27.4250 
G01 X-13.6235 Y27.6105 
G01 X-13.5511 Y27.7853 
G01 X-13.4460 Y27.9426 
G01 X-13.3122 Y28.0764 
G01 X-13.1549 Y28.1815 
G01 X-12.9801 Y28.2539 
G01 X-12.7946 Y28.2908 
G01 X-12.6054 Y28.2908 
G01 X-12.4199 Y28.2539 
G01 X-12.2451 Y28.1815 
G01 X-12.0878 Y28.0764 
G01 X-11.9540 Y27.9426 
G01 X-11.8489 Y27.7853 
G01 X-11.7765 Y27.6105 
G01 X-11.7396 Y27.4250 
G01 X-11.7396 Y27.3764 
G01 X-11.1204 Y27.3764 
G01 X-11.1204 Y27.4250 
G01 X-11.0835 Y27.6105 
G01 X-11.0111 Y27.7853 
G01 X-10.9060 Y27.9426 
G01 X-10.7722 Y28.0764 
G01 X-10.6149 Y28.1815 
G01 X-10.4401 Y28.2539 
G01 X-10.2546 Y28.2908 
G01 X-10.0654 Y28.2908 
G01 X-9.8799 Y28.2539 
G01 X-9.7051 Y28.1815 
G01 X-9.5478 Y28.0764 
G01 X-9.4140 Y27.9426 
G01 X-9.3089 Y27.7853 
G01 X-9.2365 Y27.6105 
G01 X-9.1996 Y27.4250 
G01 X-9.1996 Y25.9150 
G01 X-9.2365 Y25.7295 
G01 X-9.3089 Y25.5547 
G01 X-9.4140 Y25.3974 
G01 X-9.4536 Y25.3578 
G01 X-9.4536 Y24.8364 
G01 X-4.5164 Y24.8364 
G01 X-4.5164 Y26.0182 
G01 X-4.7704 Y26.2722 
G01 X-4.7704 Y27.0112 
G01 X-6.9620 Y31.3944 
G01 X-6.9760 Y31.4154 
G01 X-6.9930 Y31.4565 
G01 X-7.0129 Y31.4963 
G01 X-7.0196 Y31.5206 
G01 X-7.0293 Y31.5439 
G01 X-7.0379 Y31.5876 
G01 X-7.0497 Y31.6305 
G01 X-7.0515 Y31.6557 
G01 X-7.0564 Y31.6804 
G01 X-7.0564 Y31.7249 
G01 X-7.0596 Y31.7693 
G01 X-7.0564 Y31.7944 
G01 X-7.0564 Y35.2674 
G01 X-7.6586 Y35.8696 
G01 X-8.0178 Y35.8696 
G01 X-8.5804 Y36.4322 
G01 X-8.5804 Y37.2278 
G01 X-8.0178 Y37.7904 
G01 X-7.2222 Y37.7904 
G01 X-6.6596 Y37.2278 
G01 X-6.6596 Y36.8686 
G01 X-5.8013 Y36.0103 
G01 X-5.7240 Y35.8946 
G01 X-5.6707 Y35.7660 
G01 X-5.6436 Y35.6296 
G01 X-5.6436 Y31.9168 
G01 X-3.5004 Y27.6304 
G01 X-3.4122 Y27.6304 
G01 X-2.8496 Y27.0678 
G01 X-2.8496 Y26.2722 
G01 X-3.1036 Y26.0182 
G01 X-3.1036 Y24.0604 
G01 X-3.1307 Y23.9240 
G01 X-3.1840 Y23.7954 
G01 X-3.2613 Y23.6797 
G01 X-3.3597 Y23.5813 
G01 X-3.4754 Y23.5040 
G01 X-3.6040 Y23.4507 
G01 X-3.7404 Y23.4236 
G01 X-10.2296 Y23.4236 
G01 X-10.3660 Y23.4507 
G01 X-10.4946 Y23.5040 
G01 X-10.6103 Y23.5813 
G01 X-10.7087 Y23.6797 
G01 X-10.7860 Y23.7954 
G01 X-10.8392 Y23.9240 
G01 X-10.8664 Y24.0604 
G01 X-10.8664 Y25.3578 
G01 X-10.9060 Y25.3974 
G01 X-11.0111 Y25.5547 
G01 X-11.0835 Y25.7295 
G01 X-11.1204 Y25.9150 
G01 X-11.1204 Y25.9636 
G01 X-11.7396 Y25.9636 
G01 X-11.7396 Y25.9150 
G01 X-11.7765 Y25.7295 
G01 X-11.8489 Y25.5547 
G01 X-11.9540 Y25.3974 
G01 X-12.0878 Y25.2636 
G01 X-12.2451 Y25.1585 
G01 X-12.4199 Y25.0861 
G01 X-12.6054 Y25.0492 
G01 X-12.7946 Y25.0492 
G01 X-12.9801 Y25.0861 
G01 X-13.1549 Y25.1585 
G01 X-13.3122 Y25.2636 
G01 X-13.4460 Y25.3974 
G00 Z2.5400 
G00 X-8.3660 Y25.3974 
G01 Z-0.1200 F254.00 
G01 X-8.4711 Y25.5547 F508.00 
G01 X-8.5435 Y25.7295 
G01 X-8.5804 Y25.9150 
G01 X-8.5804 Y27.4250 
G01 X-8.5435 Y27.6105 
G01 X-8.4711 Y27.7853 
G01 X-8.3660 Y27.9426 
G01 X-8.3264 Y27.9822 
G01 X-8.3264 Y28.5036 
G01 X-16.5796 Y28.5036 
G01 X-16.7160 Y28.5307 
G01 X-16.8446 Y28.5840 
G01 X-16.9603 Y28.6613 
G01 X-17.0587 Y28.7597 
G01 X-17.1360 Y28.8754 
G01 X-17.1893 Y29.0039 
G01 X-17.2164 Y29.1404 
G01 X-17.2164 Y29.1832 
G01 X-17.2510 Y29.2179 
G01 X-17.3554 Y29.3741 
G01 X-17.4273 Y29.5477 
G01 X-17.4640 Y29.7320 
G01 X-17.4640 Y31.2280 
G01 X-17.4273 Y31.4123 
G01 X-17.3554 Y31.5859 
G01 X-17.2510 Y31.7421 
G01 X-17.1181 Y31.8750 
G01 X-16.9619 Y31.9794 
G01 X-16.7883 Y32.0513 
G01 X-16.6040 Y32.0880 
G01 X-16.4160 Y32.0880 
G01 X-16.2317 Y32.0513 
G01 X-16.0581 Y31.9794 
G01 X-15.9019 Y31.8750 
G01 X-15.7690 Y31.7421 
G01 X-15.6646 Y31.5859 
G01 X-15.5927 Y31.4123 
G01 X-15.5560 Y31.2280 
G01 X-15.5560 Y29.9164 
G01 X-9.5964 Y29.9164 
G01 X-9.5964 Y33.6382 
G01 X-9.8504 Y33.8922 
G01 X-9.8504 Y34.6878 
G01 X-9.2878 Y35.2504 
G01 X-8.4922 Y35.2504 
G01 X-7.9296 Y34.6878 
G01 X-7.9296 Y33.8922 
G01 X-8.1836 Y33.6382 
G01 X-8.1836 Y29.9164 
G01 X-7.5504 Y29.9164 
G01 X-7.4139 Y29.8893 
G01 X-7.2854 Y29.8360 
G01 X-7.1697 Y29.7587 
G01 X-7.0713 Y29.6603 
G01 X-6.9940 Y29.5446 
G01 X-6.9407 Y29.4160 
G01 X-6.9136 Y29.2796 
G01 X-6.9136 Y27.9822 
G01 X-6.8740 Y27.9426 
G01 X-6.7689 Y27.7853 
G01 X-6.6965 Y27.6105 
G01 X-6.6596 Y27.4250 
G01 X-6.6596 Y25.9150 
G01 X-6.6965 Y25.7295 
G01 X-6.7689 Y25.5547 
G01 X-6.8740 Y25.3974 
G01 X-7.0078 Y25.2636 
G01 X-7.1651 Y25.1585 
G01 X-7.3399 Y25.0861 
G01 X-7.5254 Y25.0492 
G01 X-7.7146 Y25.0492 
G01 X-7.9001 Y25.0861 
G01 X-8.0749 Y25.1585 
G01 X-8.2322 Y25.2636 
G01 X-8.3660 Y25.3974 
G00 Z2.5400 
G00 X-12.5750 Y31.1419 
G01 Z-0.1200 F254.00 
G01 X-12.7079 Y31.0090 F508.00 
G01 X-12.8641 Y30.9046 
G01 X-13.0377 Y30.8327 
G01 X-13.2220 Y30.7960 
G01 X-14.7180 Y30.7960 
G01 X-14.9023 Y30.8327 
G01 X-15.0759 Y30.9046 
G01 X-15.2321 Y31.0090 
G01 X-15.3650 Y31.1419 
G01 X-15.4694 Y31.2981 
G01 X-15.5413 Y31.4717 
G01 X-15.5780 Y31.6560 
G01 X-15.5780 Y31.8440 
G01 X-15.5413 Y32.0283 
G01 X-15.4694 Y32.2019 
G01 X-15.3650 Y32.3581 
G01 X-15.2321 Y32.4910 
G01 X-15.0759 Y32.5954 
G01 X-14.9023 Y32.6673 
G01 X-14.7180 Y32.7040 
G01 X-13.2220 Y32.7040 
G01 X-13.0377 Y32.6673 
G01 X-12.8641 Y32.5954 
G01 X-12.7079 Y32.4910 
G01 X-12.5750 Y32.3581 
G01 X-12.4706 Y32.2019 
G01 X-12.3987 Y32.0283 
G01 X-12.3620 Y31.8440 
G01 X-12.3620 Y31.6560 
G01 X-12.3987 Y31.4717 
G01 X-12.4706 Y31.2981 
G01 X-12.5750 Y31.1419 
G00 Z2.5400 
G00 X-12.5750 Y33.6819 
G01 Z-0.1200 F254.00 
G01 X-12.7079 Y33.5490 F508.00 
G01 X-12.8641 Y33.4446 
G01 X-13.0377 Y33.3727 
G01 X-13.2220 Y33.3360 
G01 X-14.7180 Y33.3360 
G01 X-14.9023 Y33.3727 
G01 X-15.0759 Y33.4446 
G01 X-15.2321 Y33.5490 
G01 X-15.3650 Y33.6819 
G01 X-15.4694 Y33.8381 
G01 X-15.5413 Y34.0117 
G01 X-15.5780 Y34.1960 
G01 X-15.5780 Y34.3840 
G01 X-15.5413 Y34.5683 
G01 X-15.4694 Y34.7419 
G01 X-15.3650 Y34.8981 
G01 X-15.2321 Y35.0310 
G01 X-15.0759 Y35.1354 
G01 X-14.9023 Y35.2073 
G01 X-14.7180 Y35.2440 
G01 X-13.2220 Y35.2440 
G01 X-13.0377 Y35.2073 
G01 X-12.8641 Y35.1354 
G01 X-12.7079 Y35.0310 
G01 X-12.5750 Y34.8981 
G01 X-12.4706 Y34.7419 
G01 X-12.3987 Y34.5683 
G01 X-12.3620 Y34.3840 
G01 X-12.3620 Y34.1960 
G01 X-12.3987 Y34.0117 
G01 X-12.4706 Y33.8381 
G01 X-12.5750 Y33.6819 
G00 Z2.5400 
G00 X-12.5750 Y36.2219 
G01 Z-0.1200 F254.00 
G01 X-12.7079 Y36.0890 F508.00 
G01 X-12.8641 Y35.9846 
G01 X-13.0377 Y35.9127 
G01 X-13.2220 Y35.8760 
G01 X-14.7180 Y35.8760 
G01 X-14.9023 Y35.9127 
G01 X-15.0759 Y35.9846 
G01 X-15.2321 Y36.0890 
G01 X-15.3650 Y36.2219 
G01 X-15.4694 Y36.3781 
G01 X-15.5413 Y36.5517 
G01 X-15.5780 Y36.7360 
G01 X-15.5780 Y36.9240 
G01 X-15.5413 Y37.1083 
G01 X-15.4694 Y37.2819 
G01 X-15.3650 Y37.4381 
G01 X-15.2321 Y37.5710 
G01 X-15.0759 Y37.6754 
G01 X-14.9023 Y37.7473 
G01 X-14.7180 Y37.7840 
G01 X-13.2220 Y37.7840 
G01 X-13.0377 Y37.7473 
G01 X-12.8641 Y37.6754 
G01 X-12.7079 Y37.5710 
G01 X-12.5750 Y37.4381 
G01 X-12.4706 Y37.2819 
G01 X-12.3987 Y37.1083 
G01 X-12.3620 Y36.9240 
G01 X-12.3620 Y36.7360 
G01 X-12.3987 Y36.5517 
G01 X-12.4706 Y36.3781 
G01 X-12.5750 Y36.2219 
G00 Z2.5400 
G00 X-12.5750 Y38.7619 
G01 Z-0.1200 F254.00 
G01 X-12.7079 Y38.6290 F508.00 
G01 X-12.8641 Y38.5246 
G01 X-13.0377 Y38.4527 
G01 X-13.2220 Y38.4160 
G01 X-14.7180 Y38.4160 
G01 X-14.9023 Y38.4527 
G01 X-15.0759 Y38.5246 
G01 X-15.2321 Y38.6290 
G01 X-15.3650 Y38.7619 
G01 X-15.4694 Y38.9181 
G01 X-15.5413 Y39.0917 
G01 X-15.5780 Y39.2760 
G01 X-15.5780 Y39.4640 
G01 X-15.5413 Y39.6483 
G01 X-15.4694 Y39.8219 
G01 X-15.3650 Y39.9781 
G01 X-15.2321 Y40.1110 
G01 X-15.0759 Y40.2154 
G01 X-14.9023 Y40.2873 
G01 X-14.7180 Y40.3240 
G01 X-13.2220 Y40.3240 
G01 X-13.0377 Y40.2873 
G01 X-12.8641 Y40.2154 
G01 X-12.7079 Y40.1110 
G01 X-12.5750 Y39.9781 
G01 X-12.4706 Y39.8219 
G01 X-12.3987 Y39.6483 
G01 X-12.3620 Y39.4640 
G01 X-12.3620 Y39.2760 
G01 X-12.3987 Y39.0917 
G01 X-12.4706 Y38.9181 
G01 X-12.5750 Y38.7619 
G00 Z2.5400 
G00 X-12.5750 Y41.3019 
G01 Z-0.1200 F254.00 
G01 X-12.7079 Y41.1690 F508.00 
G01 X-12.8641 Y41.0646 
G01 X-13.0377 Y40.9927 
G01 X-13.2220 Y40.9560 
G01 X-14.7180 Y40.9560 
G01 X-14.9023 Y40.9927 
G01 X-15.0759 Y41.0646 
G01 X-15.2321 Y41.1690 
G01 X-15.3650 Y41.3019 
G01 X-15.4694 Y41.4581 
G01 X-15.5413 Y41.6317 
G01 X-15.5780 Y41.8160 
G01 X-15.5780 Y42.0040 
G01 X-15.5413 Y42.1883 
G01 X-15.4694 Y42.3619 
G01 X-15.3650 Y42.5181 
G01 X-15.2321 Y42.6510 
G01 X-15.0759 Y42.7554 
G01 X-14.9023 Y42.8273 
G01 X-14.7180 Y42.8640 
G01 X-13.2220 Y42.8640 
G01 X-13.0377 Y42.8273 
G01 X-12.8641 Y42.7554 
G01 X-12.7079 Y42.6510 
G01 X-12.5750 Y42.5181 
G01 X-12.4706 Y42.3619 
G01 X-12.3987 Y42.1883 
G01 X-12.3620 Y42.0040 
G01 X-12.3620 Y41.8160 
G01 X-12.3987 Y41.6317 
G01 X-12.4706 Y41.4581 
G01 X-12.5750 Y41.3019 
G00 Z2.5400 
G00 X-12.5750 Y43.8419 
G01 Z-0.1200 F254.00 
G01 X-12.7079 Y43.7090 F508.00 
G01 X-12.8641 Y43.6046 
G01 X-13.0377 Y43.5327 
G01 X-13.2220 Y43.4960 
G01 X-14.7180 Y43.4960 
G01 X-14.9023 Y43.5327 
G01 X-15.0759 Y43.6046 
G01 X-15.2321 Y43.7090 
G01 X-15.3650 Y43.8419 
G01 X-15.4694 Y43.9981 
G01 X-15.5413 Y44.1717 
G01 X-15.5780 Y44.3560 
G01 X-15.5780 Y44.5440 
G01 X-15.5413 Y44.7283 
G01 X-15.4694 Y44.9019 
G01 X-15.3650 Y45.0581 
G01 X-15.2321 Y45.1910 
G01 X-15.0759 Y45.2954 
G01 X-14.9023 Y45.3673 
G01 X-14.7180 Y45.4040 
G01 X-13.2220 Y45.4040 
G01 X-13.0377 Y45.3673 
G01 X-12.8641 Y45.2954 
G01 X-12.7079 Y45.1910 
G01 X-12.5750 Y45.0581 
G01 X-12.4706 Y44.9019 
G01 X-12.3987 Y44.7283 
G01 X-12.3620 Y44.5440 
G01 X-12.3620 Y44.3560 
G01 X-12.3987 Y44.1717 
G01 X-12.4706 Y43.9981 
G01 X-12.5750 Y43.8419 
G00 Z2.5400 
G00 X-15.7690 Y44.4579 
G01 Z-0.1200 F254.00 
G01 X-15.9019 Y44.3250 F508.00 
G01 X-16.0581 Y44.2206 
G01 X-16.2317 Y44.1487 
G01 X-16.4160 Y44.1120 
G01 X-16.6040 Y44.1120 
G01 X-16.7883 Y44.1487 
G01 X-16.9619 Y44.2206 
G01 X-17.1181 Y44.3250 
G01 X-17.2510 Y44.4579 
G01 X-17.3554 Y44.6141 
G01 X-17.4273 Y44.7877 
G01 X-17.4640 Y44.9720 
G01 X-17.4640 Y46.4680 
G01 X-17.4273 Y46.6523 
G01 X-17.3554 Y46.8259 
G01 X-17.2510 Y46.9821 
G01 X-17.1181 Y47.1150 
G01 X-16.9619 Y47.2194 
G01 X-16.7883 Y47.2913 
G01 X-16.6040 Y47.3280 
G01 X-16.4160 Y47.3280 
G01 X-16.2317 Y47.2913 
G01 X-16.0581 Y47.2194 
G01 X-15.9019 Y47.1150 
G01 X-15.7690 Y46.9821 
G01 X-15.6646 Y46.8259 
G01 X-15.5927 Y46.6523 
G01 X-15.5560 Y46.4680 
G01 X-15.5560 Y44.9720 
G01 X-15.5927 Y44.7877 
G01 X-15.6646 Y44.6141 
G01 X-15.7690 Y44.4579 
G00 Z2.5400 
G00 X-20.8490 Y44.4579 
G01 Z-0.1200 F254.00 
G01 X-20.9819 Y44.3250 F508.00 
G01 X-21.1381 Y44.2206 
G01 X-21.3117 Y44.1487 
G01 X-21.4960 Y44.1120 
G01 X-21.6840 Y44.1120 
G01 X-21.8683 Y44.1487 
G01 X-22.0419 Y44.2206 
G01 X-22.1981 Y44.3250 
G01 X-22.3310 Y44.4579 
G01 X-22.4354 Y44.6141 
G01 X-22.5073 Y44.7877 
G01 X-22.5440 Y44.9720 
G01 X-22.5440 Y46.4680 
G01 X-22.5073 Y46.6523 
G01 X-22.4354 Y46.8259 
G01 X-22.3310 Y46.9821 
G01 X-22.1981 Y47.1150 
G01 X-22.0419 Y47.2194 
G01 X-21.8683 Y47.2913 
G01 X-21.6840 Y47.3280 
G01 X-21.4960 Y47.3280 
G01 X-21.3117 Y47.2913 
G01 X-21.1381 Y47.2194 
G01 X-20.9819 Y47.1150 
G01 X-20.8490 Y46.9821 
G01 X-20.7446 Y46.8259 
G01 X-20.6727 Y46.6523 
G01 X-20.6360 Y46.4680 
G01 X-20.6360 Y44.9720 
G01 X-20.6727 Y44.7877 
G01 X-20.7446 Y44.6141 
G01 X-20.8490 Y44.4579 
G00 Z2.5400 
G00 X-23.2011 Y44.8458 
G01 Z-0.1200 F254.00 
G01 X-22.4902 Y42.7132 F508.00 
G01 X-22.3173 Y42.7132 
G01 X-22.2410 Y42.6928 
G01 X-22.1726 Y42.6533 
G01 X-22.1167 Y42.5974 
G01 X-22.0772 Y42.5290 
G01 X-22.0568 Y42.4527 
G01 X-22.0568 Y41.3673 
G01 X-22.0772 Y41.2910 
G01 X-22.1167 Y41.2226 
G01 X-22.1726 Y41.1667 
G01 X-22.2410 Y41.1272 
G01 X-22.3173 Y41.1068 
G01 X-23.4027 Y41.1068 
G01 X-23.4790 Y41.1272 
G01 X-23.5474 Y41.1667 
G01 X-23.6033 Y41.2226 
G01 X-23.6428 Y41.2910 
G01 X-23.6632 Y41.3673 
G01 X-23.6632 Y42.4071 
G01 X-24.2320 Y44.1136 
G01 X-24.4083 Y44.1487 
G01 X-24.5819 Y44.2206 
G01 X-24.7381 Y44.3250 
G01 X-24.8710 Y44.4579 
G01 X-24.9754 Y44.6141 
G01 X-25.0473 Y44.7877 
G01 X-25.0840 Y44.9720 
G01 X-25.0840 Y46.4680 
G01 X-25.0473 Y46.6523 
G01 X-24.9754 Y46.8259 
G01 X-24.8710 Y46.9821 
G01 X-24.7381 Y47.1150 
G01 X-24.5819 Y47.2194 
G01 X-24.4083 Y47.2913 
G01 X-24.2240 Y47.3280 
G01 X-24.0360 Y47.3280 
G01 X-23.8517 Y47.2913 
G01 X-23.6781 Y47.2194 
G01 X-23.5219 Y47.1150 
G01 X-23.3890 Y46.9821 
G01 X-23.2846 Y46.8259 
G01 X-23.2127 Y46.6523 
G01 X-23.1760 Y46.4680 
G01 X-23.1760 Y44.9720 
G01 X-23.2011 Y44.8458 
G00 Z2.5400 
G00 X-25.7527 Y44.7877 
G01 Z-0.1200 F254.00 
G01 X-25.8246 Y44.6141 F508.00 
G01 X-25.9290 Y44.4579 
G01 X-26.0619 Y44.3250 
G01 X-26.2181 Y44.2206 
G01 X-26.3917 Y44.1487 
G01 X-26.5760 Y44.1120 
G01 X-26.7640 Y44.1120 
G01 X-26.9483 Y44.1487 
G01 X-27.1219 Y44.2206 
G01 X-27.2781 Y44.3250 
G01 X-27.4110 Y44.4579 
G01 X-27.5154 Y44.6141 
G01 X-27.5873 Y44.7877 
G01 X-27.6240 Y44.9720 
G01 X-27.6240 Y46.4680 
G01 X-27.5873 Y46.6523 
G01 X-27.5154 Y46.8259 
G01 X-27.4110 Y46.9821 
G01 X-27.2781 Y47.1150 
G01 X-27.1219 Y47.2194 
G01 X-26.9483 Y47.2913 
G01 X-26.7640 Y47.3280 
G01 X-26.5760 Y47.3280 
G01 X-26.3917 Y47.2913 
G01 X-26.2181 Y47.2194 
G01 X-26.0619 Y47.1150 
G01 X-25.9290 Y46.9821 
G01 X-25.8246 Y46.8259 
G01 X-25.7527 Y46.6523 
G01 X-25.7160 Y46.4680 
G01 X-25.7160 Y44.9720 
G01 X-25.7527 Y44.7877 
G00 Z2.5400 
G00 X-25.6783 Y43.4813 
G01 Z-0.1200 F254.00 
G01 X-25.4940 Y43.5180 F508.00 
G01 X-25.3060 Y43.5180 
G01 X-25.1217 Y43.4813 
G01 X-24.9481 Y43.4094 
G01 X-24.7919 Y43.3050 
G01 X-24.6590 Y43.1721 
G01 X-24.5546 Y43.0159 
G01 X-24.4827 Y42.8423 
G01 X-24.4460 Y42.6580 
G01 X-24.4460 Y41.1620 
G01 X-24.4827 Y40.9777 
G01 X-24.5546 Y40.8041 
G01 X-24.6590 Y40.6479 
G01 X-24.6936 Y40.6132 
G01 X-24.6936 Y38.0304 
G01 X-24.7207 Y37.8939 
G01 X-24.7740 Y37.7654 
G01 X-24.8513 Y37.6497 
G01 X-26.1213 Y36.3797 
G01 X-26.2197 Y36.2813 
G01 X-26.3354 Y36.2040 
G01 X-26.4640 Y36.1507 
G01 X-26.6004 Y36.1236 
G01 X-48.4680 Y36.1236 
G01 X-48.4680 Y35.9844 
G01 X-48.4941 Y35.8193 
G01 X-48.5458 Y35.6603 
G01 X-48.6217 Y35.5114 
G01 X-48.7199 Y35.3762 
G01 X-48.8382 Y35.2580 
G01 X-48.9734 Y35.1597 
G01 X-49.1223 Y35.0838 
G01 X-49.2813 Y35.0322 
G01 X-49.4464 Y35.0060 
G01 X-49.6136 Y35.0060 
G01 X-49.7787 Y35.0322 
G01 X-49.9377 Y35.0838 
G01 X-50.0866 Y35.1597 
G01 X-50.2218 Y35.2580 
G01 X-50.3400 Y35.3762 
G01 X-50.4383 Y35.5114 
G01 X-50.5142 Y35.6603 
G01 X-50.5658 Y35.8193 
G01 X-50.5920 Y35.9844 
G01 X-50.5920 Y37.6756 
G01 X-50.5658 Y37.8407 
G01 X-50.5142 Y37.9997 
G01 X-50.4383 Y38.1486 
G01 X-50.3400 Y38.2838 
G01 X-50.2218 Y38.4020 
G01 X-50.0866 Y38.5003 
G01 X-49.9377 Y38.5762 
G01 X-49.7787 Y38.6278 
G01 X-49.6136 Y38.6540 
G01 X-49.4464 Y38.6540 
G01 X-49.2813 Y38.6278 
G01 X-49.1223 Y38.5762 
G01 X-48.9734 Y38.5003 
G01 X-48.8382 Y38.4020 
G01 X-48.7199 Y38.2838 
G01 X-48.6217 Y38.1486 
G01 X-48.5458 Y37.9997 
G01 X-48.4941 Y37.8407 
G01 X-48.4680 Y37.6756 
G01 X-48.4680 Y37.5364 
G01 X-26.9626 Y37.5364 
G01 X-26.1064 Y38.3926 
G01 X-26.1064 Y40.6132 
G01 X-26.1410 Y40.6479 
G01 X-26.2454 Y40.8041 
G01 X-26.3173 Y40.9777 
G01 X-26.3540 Y41.1620 
G01 X-26.3540 Y42.6580 
G01 X-26.3173 Y42.8423 
G01 X-26.2454 Y43.0159 
G01 X-26.1410 Y43.1721 
G01 X-26.0081 Y43.3050 
G01 X-25.8519 Y43.4094 
G01 X-25.6783 Y43.4813 
G00 Z2.5400 
G00 X-27.3319 Y43.3050 
G01 Z-0.1200 F254.00 
G01 X-27.1990 Y43.1721 F508.00 
G01 X-27.0946 Y43.0159 
G01 X-27.0227 Y42.8423 
G01 X-26.9860 Y42.6580 
G01 X-26.9860 Y41.1620 
G01 X-27.0227 Y40.9777 
G01 X-27.0946 Y40.8041 
G01 X-27.1990 Y40.6479 
G01 X-27.2336 Y40.6132 
G01 X-27.2336 Y39.3004 
G01 X-27.2607 Y39.1639 
G01 X-27.3140 Y39.0354 
G01 X-27.3913 Y38.9197 
G01 X-27.4897 Y38.8213 
G01 X-27.6054 Y38.7440 
G01 X-27.7340 Y38.6907 
G01 X-27.8704 Y38.6636 
G01 X-53.9036 Y38.6636 
G01 X-53.9036 Y38.3875 
G01 X-53.8000 Y38.2838 
G01 X-53.7017 Y38.1486 
G01 X-53.6258 Y37.9997 
G01 X-53.5742 Y37.8407 
G01 X-53.5480 Y37.6756 
G01 X-53.5480 Y35.9844 
G01 X-53.5742 Y35.8193 
G01 X-53.6258 Y35.6603 
G01 X-53.7017 Y35.5114 
G01 X-53.8000 Y35.3762 
G01 X-53.9182 Y35.2580 
G01 X-54.0534 Y35.1597 
G01 X-54.2023 Y35.0838 
G01 X-54.3613 Y35.0322 
G01 X-54.5264 Y35.0060 
G01 X-54.6936 Y35.0060 
G01 X-54.8587 Y35.0322 
G01 X-55.0177 Y35.0838 
G01 X-55.1666 Y35.1597 
G01 X-55.3018 Y35.2580 
G01 X-55.4200 Y35.3762 
G01 X-55.5183 Y35.5114 
G01 X-55.5942 Y35.6603 
G01 X-55.6458 Y35.8193 
G01 X-55.6720 Y35.9844 
G01 X-55.6720 Y37.6756 
G01 X-55.6458 Y37.8407 
G01 X-55.5942 Y37.9997 
G01 X-55.5183 Y38.1486 
G01 X-55.4200 Y38.2838 
G01 X-55.3164 Y38.3875 
G01 X-55.3164 Y39.4396 
G01 X-55.2893 Y39.5760 
G01 X-55.2360 Y39.7046 
G01 X-55.1587 Y39.8203 
G01 X-55.0603 Y39.9187 
G01 X-54.9446 Y39.9960 
G01 X-54.8160 Y40.0493 
G01 X-54.6796 Y40.0764 
G01 X-28.6464 Y40.0764 
G01 X-28.6464 Y40.6132 
G01 X-28.6810 Y40.6479 
G01 X-28.7854 Y40.8041 
G01 X-28.8573 Y40.9777 
G01 X-28.8940 Y41.1620 
G01 X-28.8940 Y42.6580 
G01 X-28.8573 Y42.8423 
G01 X-28.7854 Y43.0159 
G01 X-28.6810 Y43.1721 
G01 X-28.5481 Y43.3050 
G01 X-28.3919 Y43.4094 
G01 X-28.2183 Y43.4813 
G01 X-28.0340 Y43.5180 
G01 X-27.8460 Y43.5180 
G01 X-27.6617 Y43.4813 
G01 X-27.4881 Y43.4094 
G01 X-27.3319 Y43.3050 
G00 Z2.5400 
G00 X-28.4690 Y44.4579 
G01 Z-0.1200 F254.00 
G01 X-28.6019 Y44.3250 F508.00 
G01 X-28.7581 Y44.2206 
G01 X-28.9317 Y44.1487 
G01 X-29.1160 Y44.1120 
G01 X-29.3040 Y44.1120 
G01 X-29.4883 Y44.1487 
G01 X-29.6619 Y44.2206 
G01 X-29.8181 Y44.3250 
G01 X-29.9510 Y44.4579 
G01 X-30.0554 Y44.6141 
G01 X-30.1273 Y44.7877 
G01 X-30.1640 Y44.9720 
G01 X-30.1640 Y46.4680 
G01 X-30.1273 Y46.6523 
G01 X-30.0554 Y46.8259 
G01 X-30.0512 Y46.8322 
G01 X-30.7726 Y47.5536 
G01 X-49.2374 Y47.5536 
G01 X-52.6336 Y44.1574 
G01 X-52.6336 Y43.1104 
G01 X-52.6607 Y42.9740 
G01 X-52.7140 Y42.8454 
G01 X-52.7913 Y42.7297 
G01 X-52.8897 Y42.6313 
G01 X-53.0054 Y42.5540 
G01 X-53.1339 Y42.5007 
G01 X-53.2704 Y42.4736 
G01 X-60.3082 Y42.4736 
G01 X-60.5622 Y42.2196 
G01 X-61.3578 Y42.2196 
G01 X-61.9204 Y42.7822 
G01 X-61.9204 Y43.5778 
G01 X-61.3578 Y44.1404 
G01 X-60.5622 Y44.1404 
G01 X-60.3082 Y43.8864 
G01 X-54.0464 Y43.8864 
G01 X-54.0464 Y44.5196 
G01 X-54.0192 Y44.6560 
G01 X-53.9660 Y44.7846 
G01 X-53.8887 Y44.9003 
G01 X-50.0787 Y48.7103 
G01 X-49.9803 Y48.8087 
G01 X-49.8646 Y48.8860 
G01 X-49.7360 Y48.9393 
G01 X-49.5996 Y48.9664 
G01 X-30.4104 Y48.9664 
G01 X-30.2739 Y48.9393 
G01 X-30.1454 Y48.8860 
G01 X-30.0297 Y48.8087 
G01 X-28.7597 Y47.5387 
G01 X-28.6613 Y47.4403 
G01 X-28.5840 Y47.3246 
G01 X-28.5307 Y47.1960 
G01 X-28.5036 Y47.0596 
G01 X-28.5036 Y47.0168 
G01 X-28.4690 Y46.9821 
G01 X-28.3646 Y46.8259 
G01 X-28.2927 Y46.6523 
G01 X-28.2560 Y46.4680 
G01 X-28.2560 Y44.9720 
G01 X-28.2927 Y44.7877 
G01 X-28.3646 Y44.6141 
G01 X-28.4690 Y44.4579 
G00 Z2.5400 
G00 X-31.0090 Y44.4579 
G01 Z-0.1200 F254.00 
G01 X-31.0436 Y44.4232 F508.00 
G01 X-31.0436 Y42.4785 
G01 X-30.9496 Y42.3378 
G01 X-30.8815 Y42.1735 
G01 X-30.8468 Y41.9990 
G01 X-30.8468 Y41.8210 
G01 X-30.8815 Y41.6465 
G01 X-30.9496 Y41.4822 
G01 X-31.0484 Y41.3342 
G01 X-31.1742 Y41.2084 
G01 X-31.3222 Y41.1096 
G01 X-31.4865 Y41.0415 
G01 X-31.6610 Y41.0068 
G01 X-31.8390 Y41.0068 
G01 X-32.0135 Y41.0415 
G01 X-32.1778 Y41.1096 
G01 X-32.3258 Y41.2084 
G01 X-32.4516 Y41.3342 
G01 X-32.5504 Y41.4822 
G01 X-32.6185 Y41.6465 
G01 X-32.6532 Y41.8210 
G01 X-32.6532 Y41.9990 
G01 X-32.6185 Y42.1735 
G01 X-32.5504 Y42.3378 
G01 X-32.4564 Y42.4785 
G01 X-32.4564 Y44.4232 
G01 X-32.4910 Y44.4579 
G01 X-32.5954 Y44.6141 
G01 X-32.6673 Y44.7877 
G01 X-32.7040 Y44.9720 
G01 X-32.7040 Y46.4680 
G01 X-32.6673 Y46.6523 
G01 X-32.5954 Y46.8259 
G01 X-32.4910 Y46.9821 
G01 X-32.3581 Y47.1150 
G01 X-32.2019 Y47.2194 
G01 X-32.0283 Y47.2913 
G01 X-31.8440 Y47.3280 
G01 X-31.6560 Y47.3280 
G01 X-31.4717 Y47.2913 
G01 X-31.2981 Y47.2194 
G01 X-31.1419 Y47.1150 
G01 X-31.0090 Y46.9821 
G01 X-30.9046 Y46.8259 
G01 X-30.8327 Y46.6523 
G01 X-30.7960 Y46.4680 
G01 X-30.7960 Y44.9720 
G01 X-30.8327 Y44.7877 
G01 X-30.9046 Y44.6141 
G01 X-31.0090 Y44.4579 
G00 Z2.5400 
G00 X-33.5490 Y44.4579 
G01 Z-0.1200 F254.00 
G01 X-33.6819 Y44.3250 F508.00 
G01 X-33.8381 Y44.2206 
G01 X-34.0117 Y44.1487 
G01 X-34.1960 Y44.1120 
G01 X-34.3840 Y44.1120 
G01 X-34.5683 Y44.1487 
G01 X-34.7419 Y44.2206 
G01 X-34.8981 Y44.3250 
G01 X-35.0310 Y44.4579 
G01 X-35.1354 Y44.6141 
G01 X-35.2073 Y44.7877 
G01 X-35.2440 Y44.9720 
G01 X-35.2440 Y46.4680 
G01 X-35.2073 Y46.6523 
G01 X-35.1354 Y46.8259 
G01 X-35.0310 Y46.9821 
G01 X-34.8981 Y47.1150 
G01 X-34.7419 Y47.2194 
G01 X-34.5683 Y47.2913 
G01 X-34.3840 Y47.3280 
G01 X-34.1960 Y47.3280 
G01 X-34.0117 Y47.2913 
G01 X-33.8381 Y47.2194 
G01 X-33.6819 Y47.1150 
G01 X-33.5490 Y46.9821 
G01 X-33.4446 Y46.8259 
G01 X-33.3727 Y46.6523 
G01 X-33.3360 Y46.4680 
G01 X-33.3360 Y44.9720 
G01 X-33.3727 Y44.7877 
G01 X-33.4446 Y44.6141 
G01 X-33.5490 Y44.4579 
G00 Z2.5400 
G00 X-36.0890 Y44.4579 
G01 Z-0.1200 F254.00 
G01 X-36.2219 Y44.3250 F508.00 
G01 X-36.3781 Y44.2206 
G01 X-36.5517 Y44.1487 
G01 X-36.7360 Y44.1120 
G01 X-36.9240 Y44.1120 
G01 X-37.1083 Y44.1487 
G01 X-37.2819 Y44.2206 
G01 X-37.4381 Y44.3250 
G01 X-37.5710 Y44.4579 
G01 X-37.6754 Y44.6141 
G01 X-37.7473 Y44.7877 
G01 X-37.7840 Y44.9720 
G01 X-37.7840 Y46.4680 
G01 X-37.7473 Y46.6523 
G01 X-37.6754 Y46.8259 
G01 X-37.5710 Y46.9821 
G01 X-37.4381 Y47.1150 
G01 X-37.2819 Y47.2194 
G01 X-37.1083 Y47.2913 
G01 X-36.9240 Y47.3280 
G01 X-36.7360 Y47.3280 
G01 X-36.5517 Y47.2913 
G01 X-36.3781 Y47.2194 
G01 X-36.2219 Y47.1150 
G01 X-36.0890 Y46.9821 
G01 X-35.9846 Y46.8259 
G01 X-35.9127 Y46.6523 
G01 X-35.8760 Y46.4680 
G01 X-35.8760 Y44.9720 
G01 X-35.9127 Y44.7877 
G01 X-35.9846 Y44.6141 
G01 X-36.0890 Y44.4579 
G00 Z2.5400 
G00 X-36.0119 Y43.4094 
G01 Z-0.1200 F254.00 
G01 X-35.8383 Y43.4813 F508.00 
G01 X-35.6540 Y43.5180 
G01 X-35.4660 Y43.5180 
G01 X-35.2817 Y43.4813 
G01 X-35.1081 Y43.4094 
G01 X-34.9519 Y43.3050 
G01 X-34.8190 Y43.1721 
G01 X-34.7146 Y43.0159 
G01 X-34.6427 Y42.8423 
G01 X-34.6060 Y42.6580 
G01 X-34.6060 Y41.1620 
G01 X-34.6427 Y40.9777 
G01 X-34.7146 Y40.8041 
G01 X-34.8190 Y40.6479 
G01 X-34.9519 Y40.5150 
G01 X-35.1081 Y40.4106 
G01 X-35.2817 Y40.3387 
G01 X-35.4660 Y40.3020 
G01 X-35.6540 Y40.3020 
G01 X-35.8383 Y40.3387 
G01 X-36.0119 Y40.4106 
G01 X-36.1681 Y40.5150 
G01 X-36.3010 Y40.6479 
G01 X-36.4054 Y40.8041 
G01 X-36.4773 Y40.9777 
G01 X-36.5140 Y41.1620 
G01 X-36.5140 Y42.6580 
G01 X-36.4773 Y42.8423 
G01 X-36.4054 Y43.0159 
G01 X-36.3010 Y43.1721 
G01 X-36.1681 Y43.3050 
G01 X-36.0119 Y43.4094 
G00 Z2.5400 
G00 X-37.4919 Y43.3050 
G01 Z-0.1200 F254.00 
G01 X-37.3590 Y43.1721 F508.00 
G01 X-37.2546 Y43.0159 
G01 X-37.1827 Y42.8423 
G01 X-37.1460 Y42.6580 
G01 X-37.1460 Y41.1620 
G01 X-37.1827 Y40.9777 
G01 X-37.2546 Y40.8041 
G01 X-37.3590 Y40.6479 
G01 X-37.4919 Y40.5150 
G01 X-37.6481 Y40.4106 
G01 X-37.8217 Y40.3387 
G01 X-38.0060 Y40.3020 
G01 X-38.1940 Y40.3020 
G01 X-38.3783 Y40.3387 
G01 X-38.5519 Y40.4106 
G01 X-38.7081 Y40.5150 
G01 X-38.8410 Y40.6479 
G01 X-38.9454 Y40.8041 
G01 X-39.0173 Y40.9777 
G01 X-39.0540 Y41.1620 
G01 X-39.0540 Y42.6580 
G01 X-39.0173 Y42.8423 
G01 X-38.9454 Y43.0159 
G01 X-38.8410 Y43.1721 
G01 X-38.7081 Y43.3050 
G01 X-38.5519 Y43.4094 
G01 X-38.3783 Y43.4813 
G01 X-38.1940 Y43.5180 
G01 X-38.0060 Y43.5180 
G01 X-37.8217 Y43.4813 
G01 X-37.6481 Y43.4094 
G01 X-37.4919 Y43.3050 
G00 Z2.5400 
G00 X-38.6290 Y44.4579 
G01 Z-0.1200 F254.00 
G01 X-38.7619 Y44.3250 F508.00 
G01 X-38.9181 Y44.2206 
G01 X-39.0917 Y44.1487 
G01 X-39.2760 Y44.1120 
G01 X-39.4640 Y44.1120 
G01 X-39.6483 Y44.1487 
G01 X-39.8219 Y44.2206 
G01 X-39.9781 Y44.3250 
G01 X-40.1110 Y44.4579 
G01 X-40.2154 Y44.6141 
G01 X-40.2873 Y44.7877 
G01 X-40.3240 Y44.9720 
G01 X-40.3240 Y46.4680 
G01 X-40.2873 Y46.6523 
G01 X-40.2154 Y46.8259 
G01 X-40.1110 Y46.9821 
G01 X-39.9781 Y47.1150 
G01 X-39.8219 Y47.2194 
G01 X-39.6483 Y47.2913 
G01 X-39.4640 Y47.3280 
G01 X-39.2760 Y47.3280 
G01 X-39.0917 Y47.2913 
G01 X-38.9181 Y47.2194 
G01 X-38.7619 Y47.1150 
G01 X-38.6290 Y46.9821 
G01 X-38.5246 Y46.8259 
G01 X-38.4527 Y46.6523 
G01 X-38.4160 Y46.4680 
G01 X-38.4160 Y44.9720 
G01 X-38.4527 Y44.7877 
G01 X-38.5246 Y44.6141 
G01 X-38.6290 Y44.4579 
G00 Z2.5400 
G00 X-41.1690 Y44.4579 
G01 Z-0.1200 F254.00 
G01 X-41.3019 Y44.3250 F508.00 
G01 X-41.4581 Y44.2206 
G01 X-41.6317 Y44.1487 
G01 X-41.8160 Y44.1120 
G01 X-42.0040 Y44.1120 
G01 X-42.1883 Y44.1487 
G01 X-42.3619 Y44.2206 
G01 X-42.5181 Y44.3250 
G01 X-42.6510 Y44.4579 
G01 X-42.7554 Y44.6141 
G01 X-42.8273 Y44.7877 
G01 X-42.8640 Y44.9720 
G01 X-42.8640 Y46.4680 
G01 X-42.8273 Y46.6523 
G01 X-42.7554 Y46.8259 
G01 X-42.6510 Y46.9821 
G01 X-42.5181 Y47.1150 
