(.../pcb-gcode-3.6.2.4/pcb-gcode.ulp)
(Copyright 2005 - 2012 by John Johnson)
(See readme.txt for licensing terms.)
(This file generated from the board:)
(.../eagle/ghf_sensor/ghf_sensor.brd)
(Current profile is .../pcb-gcode-3.6.2.4/profiles/generic.pp  )
(This file generated 2018/04/08 12:52)
(Settings from pcb-machine.h)
(spindle on time = 3.0000)
(spindle speed = 20000.0000)
(tool change at 0.0000 0.0000 25.4000 )
(feed rate xy = F0.00  )
(feed rate z  = F508.00 )
(Z Axis Settings)
(  High     Up        Down     Drill)
(12.7000 	2.5400 	-0.1200 	-0.8128 )
(Settings from pcb-defaults.h)
(isolate min = 0.1000)
(isolate max = 0.5080)
(isolate step = 0.1270)
(Generated bottom outlines, bottom drill, )
(Unit of measure: mm)
( Tool|       Size       |  Min Sub |  Max Sub |   Count )
( T01  0.600mm 0.0236in 0.0000in 0.0000in )
( T02  0.700mm 0.0276in 0.0000in 0.0000in )
( T03  0.800mm 0.0315in 0.0000in 0.0000in )
( T04  0.813mm 0.0320in 0.0000in 0.0000in )
( T05  1.016mm 0.0400in 0.0000in 0.0000in )
( T06  1.194mm 0.0470in 0.0000in 0.0000in )
( T07  3.200mm 0.1260in 0.0000in 0.0000in )
(Metric Mode)
G21
(Absolute Coordinates)
G90
S20000
G00 Z12.7000 
G00 X0.0000 Y0.0000 
M03
G04 P3.000000
M05
G00 Z25.4000 
M06 T01  ; 0.6000 
G01 Z0.0000 F508.00 
M06 
G00 Z2.5400 
M03
G04 P3.000000
G00 Z2.540000
G00 X-20.3200 Y19.0500 
G01 Z-0.8128 F508.00 
G01 Z2.540000
(R2.5400  P1.000000)
G00 X-22.8600 Y41.9100 
G01 Z-0.812800
G01 Z2.540000
G00 X-52.0700 Y27.9400 
G01 Z-0.812800
G01 Z2.540000
G00 X-55.8800 Y27.9400 
G01 Z-0.812800
G01 Z2.540000
M05
G00 Z25.4000 
G00 X0.0000 Y0.0000 
M06 T02  ; 0.7000 
G01 Z0.0000 F508.00 
M06 
G00 Z2.5400 
M03
G04 P3.000000
G00 Z2.540000
G00 X-41.9100 Y13.9700 
G01 Z-0.8128 F508.00 
G01 Z2.540000
(R2.5400  P1.000000)
G00 X-50.8400 Y14.0100 
G01 Z-0.812800
G01 Z2.540000
G00 X-60.9600 Y25.4000 
G01 Z-0.812800
G01 Z2.540000
M05
G00 Z25.4000 
G00 X0.0000 Y0.0000 
M06 T03  ; 0.8000 
G01 Z0.0000 F508.00 
M06 
G00 Z2.5400 
M03
G04 P3.000000
G00 Z2.540000
G00 X-13.9700 Y31.7500 
G01 Z-0.8128 F508.00 
G01 Z2.540000
(R2.5400  P1.000000)
G00 X-13.9700 Y34.2900 
G01 Z-0.812800
G01 Z2.540000
G00 X-13.9700 Y36.8300 
G01 Z-0.812800
G01 Z2.540000
G00 X-13.9700 Y39.3700 
G01 Z-0.812800
G01 Z2.540000
G00 X-13.9700 Y41.9100 
G01 Z-0.812800
G01 Z2.540000
G00 X-13.9700 Y44.4500 
G01 Z-0.812800
G01 Z2.540000
G00 X-16.5100 Y45.7200 
G01 Z-0.812800
G01 Z2.540000
G00 X-19.0500 Y45.7200 
G01 Z-0.812800
G01 Z2.540000
G00 X-21.5900 Y45.7200 
G01 Z-0.812800
G01 Z2.540000
G00 X-24.1300 Y45.7200 
G01 Z-0.812800
G01 Z2.540000
G00 X-26.6700 Y45.7200 
G01 Z-0.812800
G01 Z2.540000
G00 X-29.2100 Y45.7200 
G01 Z-0.812800
G01 Z2.540000
G00 X-31.7500 Y45.7200 
G01 Z-0.812800
G01 Z2.540000
G00 X-34.2900 Y45.7200 
G01 Z-0.812800
G01 Z2.540000
G00 X-36.8300 Y45.7200 
G01 Z-0.812800
G01 Z2.540000
G00 X-39.3700 Y45.7200 
G01 Z-0.812800
G01 Z2.540000
G00 X-41.9100 Y45.7200 
G01 Z-0.812800
G01 Z2.540000
G00 X-44.4500 Y45.7200 
G01 Z-0.812800
G01 Z2.540000
G00 X-38.1000 Y41.9100 
G01 Z-0.812800
G01 Z2.540000
G00 X-35.5600 Y41.9100 
G01 Z-0.812800
G01 Z2.540000
G00 X-31.7500 Y41.9100 
G01 Z-0.812800
G01 Z2.540000
G00 X-27.9400 Y41.9100 
G01 Z-0.812800
G01 Z2.540000
G00 X-25.4000 Y41.9100 
G01 Z-0.812800
G01 Z2.540000
G00 X-24.1300 Y30.4800 
G01 Z-0.812800
G01 Z2.540000
G00 X-21.5900 Y30.4800 
G01 Z-0.812800
G01 Z2.540000
G00 X-19.0500 Y30.4800 
G01 Z-0.812800
G01 Z2.540000
G00 X-16.5100 Y30.4800 
G01 Z-0.812800
G01 Z2.540000
G00 X-25.0190 Y26.6700 
G01 Z-0.812800
G01 Z2.540000
G00 X-25.0190 Y24.1300 
G01 Z-0.812800
G01 Z2.540000
G00 X-25.0190 Y21.5900 
G01 Z-0.812800
G01 Z2.540000
G00 X-25.0190 Y19.0500 
G01 Z-0.812800
G01 Z2.540000
G00 X-25.0190 Y16.5100 
G01 Z-0.812800
G01 Z2.540000
G00 X-26.6700 Y30.4800 
G01 Z-0.812800
G01 Z2.540000
G00 X-29.2100 Y30.4800 
G01 Z-0.812800
G01 Z2.540000
G00 X-31.7500 Y30.4800 
G01 Z-0.812800
G01 Z2.540000
G00 X-34.2900 Y30.4800 
G01 Z-0.812800
G01 Z2.540000
G00 X-36.8300 Y30.4800 
G01 Z-0.812800
G01 Z2.540000
G00 X-39.3700 Y30.4800 
G01 Z-0.812800
G01 Z2.540000
G00 X-41.9100 Y30.4800 
G01 Z-0.812800
G01 Z2.540000
G00 X-44.4500 Y30.4800 
G01 Z-0.812800
G01 Z2.540000
G00 X-38.1000 Y26.6700 
G01 Z-0.812800
G01 Z2.540000
G00 X-54.6100 Y24.1300 
G01 Z-0.812800
G01 Z2.540000
G00 X-54.6100 Y21.5900 
G01 Z-0.812800
G01 Z2.540000
G00 X-54.6100 Y19.0500 
G01 Z-0.812800
G01 Z2.540000
G00 X-54.6100 Y16.5100 
G01 Z-0.812800
G01 Z2.540000
M05
G00 Z25.4000 
G00 X0.0000 Y0.0000 
M06 T04  ; 0.8128 
G01 Z0.0000 F508.00 
M06 
G00 Z2.5400 
M03
G04 P3.000000
G00 Z2.540000
G00 X-3.8100 Y21.5900 
G01 Z-0.8128 F508.00 
G01 Z2.540000
(R2.5400  P1.000000)
G00 X-7.6200 Y19.0500 
G01 Z-0.812800
G01 Z2.540000
G00 X-10.1600 Y19.0500 
G01 Z-0.812800
G01 Z2.540000
G00 X-12.7000 Y19.0500 
G01 Z-0.812800
G01 Z2.540000
G00 X-15.2400 Y19.0500 
G01 Z-0.812800
G01 Z2.540000
G00 X-15.2400 Y26.6700 
G01 Z-0.812800
G01 Z2.540000
G00 X-12.7000 Y26.6700 
G01 Z-0.812800
G01 Z2.540000
G00 X-10.1600 Y26.6700 
G01 Z-0.812800
G01 Z2.540000
G00 X-7.6200 Y26.6700 
G01 Z-0.812800
G01 Z2.540000
G00 X-3.8100 Y26.6700 
G01 Z-0.812800
G01 Z2.540000
G00 X-3.8100 Y34.2900 
G01 Z-0.812800
G01 Z2.540000
G00 X-5.7150 Y38.1000 
G01 Z-0.812800
G01 Z2.540000
G00 X-7.6200 Y39.3700 
G01 Z-0.812800
G01 Z2.540000
G00 X-7.6200 Y36.8300 
G01 Z-0.812800
G01 Z2.540000
G00 X-8.8900 Y34.2900 
G01 Z-0.812800
G01 Z2.540000
G00 X-44.4500 Y26.6700 
G01 Z-0.812800
G01 Z2.540000
G00 X-44.4500 Y24.1300 
G01 Z-0.812800
G01 Z2.540000
G00 X-48.2600 Y21.5900 
G01 Z-0.812800
G01 Z2.540000
G00 X-48.2600 Y26.6700 
G01 Z-0.812800
G01 Z2.540000
G00 X-60.9600 Y25.4000 
G01 Z-0.812800
G01 Z2.540000
G00 X-63.5000 Y25.4000 
G01 Z-0.812800
G01 Z2.540000
G00 X-63.5000 Y21.5900 
G01 Z-0.812800
G01 Z2.540000
G00 X-60.9600 Y21.5900 
G01 Z-0.812800
G01 Z2.540000
G00 X-62.2300 Y17.7800 
G01 Z-0.812800
G01 Z2.540000
G00 X-59.6900 Y17.7800 
G01 Z-0.812800
G01 Z2.540000
G00 X-67.3100 Y16.5100 
G01 Z-0.812800
G01 Z2.540000
G00 X-67.3100 Y19.0500 
G01 Z-0.812800
G01 Z2.540000
G00 X-67.3100 Y13.9700 
G01 Z-0.812800
G01 Z2.540000
G00 X-67.3100 Y11.4300 
G01 Z-0.812800
G01 Z2.540000
G00 X-66.0400 Y8.8900 
G01 Z-0.812800
G01 Z2.540000
G00 X-66.0400 Y6.3500 
G01 Z-0.812800
G01 Z2.540000
G00 X-74.9300 Y11.4300 
G01 Z-0.812800
G01 Z2.540000
G00 X-74.9300 Y13.9700 
G01 Z-0.812800
G01 Z2.540000
G00 X-74.9300 Y16.5100 
G01 Z-0.812800
G01 Z2.540000
G00 X-74.9300 Y19.0500 
G01 Z-0.812800
G01 Z2.540000
G00 X-60.9600 Y38.1000 
G01 Z-0.812800
G01 Z2.540000
G00 X-60.9600 Y43.1800 
G01 Z-0.812800
G01 Z2.540000
M05
G00 Z25.4000 
G00 X0.0000 Y0.0000 
M06 T05  ; 1.0160 
G01 Z0.0000 F508.00 
M06 
G00 Z2.5400 
M03
G04 P3.000000
G00 Z2.540000
G00 X-49.5300 Y36.8300 
G01 Z-0.8128 F508.00 
G01 Z2.540000
(R2.5400  P1.000000)
G00 X-52.0700 Y36.8300 
G01 Z-0.812800
G01 Z2.540000
G00 X-54.6100 Y36.8300 
G01 Z-0.812800
G01 Z2.540000
G00 X-57.1500 Y36.8300 
G01 Z-0.812800
G01 Z2.540000
M05
G00 Z25.4000 
G00 X0.0000 Y0.0000 
M06 T06  ; 1.1938 
G01 Z0.0000 F508.00 
M06 
G00 Z2.5400 
M03
G04 P3.000000
G00 Z2.540000
G00 X-45.8400 Y10.1600 
G01 Z-0.8128 F508.00 
G01 Z2.540000
(R2.5400  P1.000000)
G00 X-50.8400 Y10.1600 
G01 Z-0.812800
G01 Z2.540000
G00 X-55.8400 Y10.1600 
G01 Z-0.812800
G01 Z2.540000
G00 X-60.8400 Y10.1600 
G01 Z-0.812800
G01 Z2.540000
G00 X-72.3900 Y25.5200 
G01 Z-0.812800
G01 Z2.540000
G00 X-72.3900 Y30.5200 
G01 Z-0.812800
G01 Z2.540000
G00 X-72.3900 Y35.5200 
G01 Z-0.812800
G01 Z2.540000
G00 X-72.3900 Y40.5200 
G01 Z-0.812800
G01 Z2.540000
M05
G00 Z25.4000 
G00 X0.0000 Y0.0000 
M06 T07  ; 3.2000 
G01 Z0.0000 F508.00 
M06 
G00 Z2.5400 
M03
G04 P3.000000
G00 Z2.540000
G00 X-5.0800 Y3.8100 
G01 Z-0.8128 F508.00 
G01 Z2.540000
(R2.5400  P1.000000)
G00 X-5.0800 Y45.7200 
G01 Z-0.812800
G01 Z2.540000
G00 X-71.1200 Y45.7200 
G01 Z-0.812800
G01 Z2.540000
G00 X-71.1200 Y3.8100 
G01 Z-0.812800
G01 Z2.540000
T01 
G00 Z12.7000 
M05
M02
